!!!!SEGMENT: pl-cz--iii-681--001_volckmer-augusti--litaniae-lauretanae-f-kyrie-eleison.krn
!!!cenid: 17xx:1128
!!!COM: Volckmer, Augustin
!!!COM-rismID: pe30020656
!!!CDT: 1755-~1820
!!!CNT:
!!!OPR: Litaniae Lauretanae F
!!!OTL: Kyrie eleison
!!!OMV: 001
!!!PDT:
!!!AGN: Sacred; Mass
!!!SMS-siglum: PL-CZ
!!!SMS-shelfmark: III-681
!!!SMS-shelfwork: 001-001 M
!!!SMS-variant:
!!!SMS-altvar:
!!!NIFC-rismSourceID: 300001389
!!!NIFC-rismChildID: 300001389
!!!NIFC-islandoraID: pl-cz:40118
!!!URL-pdf-islandora: https://repozytorium.nifc.pl/islandora/object/pl-cz%3A40118/datastream/PDF/view
!!!URL-scan: https://polish.musicsources.pl/pl/lokalizacje/galeria/rekopisy/6980/1 @EN{Scan on Polish Music Sources Website} @PL{Skany w portalu Dziedzictwo Muzyki Polskiej w otwartym dostępie}
!!!IIIF:
!!!ONB-nifc: UWAGA: części Litanii: Kyrie eleison, Sancta Maria, Speculum iustitiae, Agnus Dei
!!!AIN: 1 alto 1 bass 2 cor 2 flt 2 oboe 1 organ 1 soprn 1 tenor 1 viola 2 violn
!!!key: F
**kern	**dynam	**fba	**kern	**dynam	**kern	**dynam	**kern	**dynam	**kern	**text	**kern	**text	**kern	**text	**kern	**text	**kern	**dynam	**kern	**dynam	**kern	**dynam	**kern	**dynam	**kern	**dynam	**kern	**dynam
*part14	*part14	*	*part13	*part13	*part12	*part12	*part11	*part11	*part10	*part10	*part9	*part9	*part8	*part8	*part7	*part7	*part6	*part6	*part5	*part5	*part4	*part4	*part3	*part3	*part2	*part2	*part1	*part1
*staff14	*	*	*staff13	*	*staff12	*	*staff11	*	*staff10	*staff10	*staff9	*staff9	*staff8	*staff8	*staff7	*staff7	*staff6	*	*staff5	*	*staff4	*	*staff3	*	*staff2	*	*staff1	*
*I"Organo.	*	*	*I"Viola obgl	*	*I"Violino Secundo	*	*I"Violino Primo	*	*I"Baſso	*	*I"Tenore.	*	*I"Alto	*	*I"Canto.	*	*I"Corno Secundo in F:	*	*I"Corno Primo in F:	*	*I"Hubo Secundo	*	*I"Hubo Primo	*	*I"Flauto Secundo	*	*I"Flauti Primo.	*
*I'Org.	*	*	*I'Va	*	*I'Vn II	*	*I'Vn I	*	*I'B.	*	*I'T.	*	*I'A.	*	*I'C.	*	*I'C. II in F	*	*I'C. I in F	*	*I'Ob. II	*	*I'Ob. I	*	*I'Fl. II	*	*I'Fl.	*
*Iorgan	*	*	*Iviola	*	*Ivioln	*	*Ivioln	*	*Ibass	*	*Itenor	*	*Ialto	*	*Isoprn	*	*Icor	*	*Icor	*	*Ioboe	*	*Ioboe	*	*Iflt	*	*Iflt	*
*ICklav	*	*	*ICstr	*	*ICstr	*	*ICstr	*	*ICvox	*	*ICvox	*	*ICvox	*	*ICvox	*	*ICbras	*	*ICbras	*	*ICww	*	*ICww	*	*ICww	*	*ICww	*
*clefF4	*	*	*clefC3	*	*clefG2	*	*clefG2	*	*clefF4	*	*clefC4	*	*clefC3	*	*clefC1	*	*clefG2	*	*clefG2	*	*clefG2	*	*clefG2	*	*clefG2	*	*clefG2	*
*	*	*	*	*	*	*	*	*	*	*	*	*	*	*	*	*	*ITrd4c7	*	*ITrd4c7	*	*	*	*	*	*	*	*	*
*k[b-]	*	*	*k[b-]	*	*k[b-]	*	*k[b-]	*	*k[b-]	*	*k[b-]	*	*k[b-]	*	*k[b-]	*	*k[b-]	*	*k[b-]	*	*k[b-]	*	*k[b-]	*	*k[b-]	*	*k[b-]	*
*F:	*	*	*F:	*	*F:	*	*F:	*	*F:	*	*F:	*	*F:	*	*F:	*	*F:	*	*F:	*	*F:	*	*F:	*	*F:	*	*F:	*
*M2/4	*	*	*M2/4	*	*M2/4	*	*M2/4	*	*M2/4	*	*M2/4	*	*M2/4	*	*M2/4	*	*M2/4	*	*M2/4	*	*M2/4	*	*M2/4	*	*M2/4	*	*M2/4	*
*2\right	*	*	*2\right	*	*2\right	*	*2\right	*	*2\right	*	*2\right	*	*2\right	*	*2\right	*	*2\right	*	*2\right	*	*2\right	*	*2\right	*	*2\right	*	*2\right	*
*all\right	*	*	*all\right	*	*all\right	*	*all\right	*	*all\right	*	*all\right	*	*all\right	*	*all\right	*	*all\right	*	*all\right	*	*all\right	*	*all\right	*	*all\right	*	*all\right	*
=1	=1	=1	=1	=1	=1	=1	=1	=1	=1	=1	=1	=1	=1	=1	=1	=1	=1	=1	=1	=1	=1	=1	=1	=1	=1	=1	=1	=1
!	!	!	!	!	!	!	!	!	!	!	!	!	!	!	!	!	!	!	!	!	!LO:TX:t=P:problem:all\right:global	!	!	!	!	!	!	!
!	!	!	!LO:TX:t=P:problem:dynamika i oznaczenia czerwonym atramentem	!	!	!	!	!	!	!	!	!	!	!	!	!	!	!	!	!	!	!	!LO:TX:t=P:problem:all\right:global	!	!	!	!	!
!!LO:TX:t=P:problem:dynamika i oznaczenia czerwonym atramentem!	!	!LO:TX:t=P:problem:all\right:global	!	!LO:TX:t=P:problem:dynamika i oznaczenia czerwonym atramentem	!	!LO:TX:t=P:problem:dynamika i oznaczenia czerwonym atramentem	!	!LO:TX:t=P:problem:all\right:global	!	!LO:TX:t=P:problem:all\right:global	!	!	!	!	!	!LO:TX:a:t=Largo	!	!LO:TX:a:t=Largo	!	!LO:TX:a:t=Largo	!	!LO:TX:a:t=Largo	!	!LO:TX:a:t=Largo	!	!LO:TX:t=P:problem:dynamika i oznaczenia czerwonym atramentem	!
!LO:TX:t=P:problem:all\right:global	!	!	!LO:TX:a:t=Largo	!	!LO:TX:a:t=Larghetto	!	!LO:TX:a:t=Largo	!	!LO:TX:a:t=Largo	!	!LO:TX:a:t=Largo.	!	!LO:TX:a:t=Largo.	!	!	!	!LO:TX:t=P:problem:dynamika i oznaczenia czerwonym atramentem	!LO:DY:a	!LO:TX:t=P:problem:dynamika i oznaczenia czerwonym atramentem	!	!LO:TX:t=P:problem:dynamika i oznaczenia czerwonym atramentem	!	!LO:TX:t=P:problem:dynamika i oznaczenia czerwonym atramentem	!	!LO:TX:t=P:problem:dynamika i oznaczenia czerwonym atramentem	!	!LO:TX:a:t=Largo	!
8.F\L	f	3	8.f\L	f	8.cc\L	f	8.aa\L	f	8.F\	Ky-	8.c\	Ky-	8.a\	Ky-	8.cc\	Ky-	4F/	f	4f\	f	8.cc|\L	f	8.aa\L	f	8.cc\L	f	8.aa\L	f
16F\Jk	.	.	16A\Jk	.	16cc\Jk	.	16aa\Jk	.	16F\	-ri-	16c\	-ri-	16a\	-ri-	16cc\	-ri-	.	.	.	.	16cc|\Jk	.	16aa\Jk	.	16cc\K	.	16aa\Jk	.
8B-\L	.	3	8B-\L	.	8dd|\L	.	8bb-|\L	.	8B-\	-e	8d\	-e	8b-\	-e	8dd\	-e	4r	.	4r	.	8dd|\L	.	8bb|-\L	.	8dd\	.	8bb|-\L	.
16A\L	.	.	8d\J	.	8b-|\J	.	8gg|\J	.	8d\	e-	8d\	e-	8g\	e-	8b-\	e-	.	.	.	.	8b-|\J	.	8gg|\J	.	8b-\J	.	8gg|\J	.
16B-\JJ	.	.	.	.	.	.	.	.	.	.	.	.	.	.	.	.	.	.	.	.	.	.	.	.	.	.	.	.
=2	=2	=2	=2	=2	=2	=2	=2	=2	=2	=2	=2	=2	=2	=2	=2	=2	=2	=2	=2	=2	=2	=2	=2	=2	=2	=2	=2	=2
!	!	!	!	!	!	!	!	!	!	!	!	!	!	!	!	!	!LO:TX:t=P:problem:mixed beam	!	!	!	!	!	!	!	!	!	!	!
8c\L	.	3	8c\L	.	8g/L	.	8ee\L	.	8c\	-lei-	8c\	-lei-	8e\	-lei-	8g\	-lei-	8c/L	.	8g\L	.	8g/L	.	8ee|\L	.	8b-|\L	.	8ee\L	.
.	.	3	.	.	.	.	16qqgg/	.	.	.	.	.	.	.	.	.	.	.	.	.	.	.	.	.	.	.	.	.
8F\J	.	.	8c\J	.	8a/J	.	8ff\J	.	8F\	-son	8c\	-son	8f\	-son	8a\	-son	8f\J	.	8a\J	.	8a/J	.	8ff|\J	.	8a\J	.	8ff\J	.
!	!	!	!	!	!	!	!LO:N:vis=16	!	!	!	!	!	!	!	!	!	!	!	!	!	!	!	!	!	!	!	!	!
4r	.	.	4r	.	8r	.	8r	.	4r	.	4r	.	4r	.	4r	.	4r	.	4r	.	4r	.	4r	.	4r	.	4r	.
!	!	!	!	!	!LO:TX:t=P:problem:klamra łukowa	!	!LO:TX:t=P:problem:klamra łukowa	!	!	!	!	!	!	!	!	!	!	!	!	!	!	!	!	!	!	!	!	!
.	.	.	.	.	.	.	16qqgg/	p	.	.	.	.	.	.	.	.	.	.	.	.	.	.	.	.	.	.	.	.
.	.	.	.	.	24dd\LL	p	24ff\LL	.	.	.	.	.	.	.	.	.	.	.	.	.	.	.	.	.	.	.	.	.
.	.	.	.	.	24cc\	.	24ee\	.	.	.	.	.	.	.	.	.	.	.	.	.	.	.	.	.	.	.	.	.
.	.	.	.	.	24b-\JJ	.	24dd\JJ	.	.	.	.	.	.	.	.	.	.	.	.	.	.	.	.	.	.	.	.	.
=3	=3	=3	=3	=3	=3	=3	=3	=3	=3	=3	=3	=3	=3	=3	=3	=3	=3	=3	=3	=3	=3	=3	=3	=3	=3	=3	=3	=3
!LO:TX:a:t=Pedal	!	!	!	!	!	!	!	!	!LO:TX:a:t=1	!	!LO:TX:a:t=1	!	!	!	!LO:TX:a:t=1	!	!	!	!	!	!LO:TX:a:t=1	!	!LO:TX:a:t=1	!	!LO:TX:a:t=1	!	!LO:TX:a:t=1	!
8FF/	p	.	8c\	p	8a\L	.	8cc\L	.	2r	.	2r	.	2r	.	2r	.	8F/	p	8f\	p	2r	.	2r	.	2r	.	2r	.
!	!	!	!	!	!LO:TX:t=P:problem:klamra łukowa	!	!LO:TX:t=P:problem:klamra łukowa	!	!	!	!	!	!	!	!	!	!	!	!	!	!	!	!	!	!	!	!	!
.	.	.	.	.	.	.	16qqgg/	.	.	.	.	.	.	.	.	.	.	.	.	.	.	.	.	.	.	.	.	.
8r	.	.	8r	.	24dd\L	.	24ff\L	.	.	.	.	.	.	.	.	.	8r	.	8r	.	.	.	.	.	.	.	.	.
.	.	.	.	.	24cc\	.	24ee\	.	.	.	.	.	.	.	.	.	.	.	.	.	.	.	.	.	.	.	.	.
.	.	.	.	.	24b-\JJ	.	24dd\JJ	.	.	.	.	.	.	.	.	.	.	.	.	.	.	.	.	.	.	.	.	.
!	!	!	!	!	!LO:TX:t=P:problem:klamra łukowa	!	!	!	!	!	!	!	!	!	!	!	!	!	!	!	!	!	!	!	!	!	!	!
8FF/	.	.	8c\	.	8a\Lyy	.	8cc\L	.	.	.	.	.	.	.	.	.	8F/	.	8f\	.	.	.	.	.	.	.	.	.
!	!	!	!	!	!	!	!LO:TX:t=P:problem:klamra łukowa	!	!	!	!	!	!	!	!	!	!	!	!	!	!	!	!	!	!	!	!	!
.	.	.	.	.	.	.	16qqgg/	.	.	.	.	.	.	.	.	.	.	.	.	.	.	.	.	.	.	.	.	.
8r	.	.	8r	.	24dd\Lyy	.	24ff\L	.	.	.	.	.	.	.	.	.	8r	.	8r	.	.	.	.	.	.	.	.	.
.	.	.	.	.	24cc\yy	.	24ee\	.	.	.	.	.	.	.	.	.	.	.	.	.	.	.	.	.	.	.	.	.
.	.	.	.	.	24b-\JJyy	.	24dd\JJ	.	.	.	.	.	.	.	.	.	.	.	.	.	.	.	.	.	.	.	.	.
=4	=4	=4	=4	=4	=4	=4	=4	=4	=4	=4	=4	=4	=4	=4	=4	=4	=4	=4	=4	=4	=4	=4	=4	=4	=4	=4	=4	=4
4FF/	.	.	4c\	.	8.a/L	.	8.cc\L	.	4r	.	4r	.	8.a\	Ky-	8.cc\	Ky-	4F/	.	4f\	.	8.cc\L	.	8.aa\L	.	8.aa\L	.	8.ccc\L	.
.	.	.	.	.	16b-/Jk	.	16dd|\Jk	.	.	.	.	.	16b-\	-ri-	16dd\	-ri-	.	.	.	.	16dd\Jk	.	16bb-\Jk	.	16bb-\Jk	.	16fff\Jk	.
8r	.	.	8c\L	.	(16a/LL	.	(16cc\LL	.	8r	.	8r	.	16a\LL	-e	16cc\LL	-e	8r	.	8r	f	(16cc\LL	.	(16aa\LL	.	16aa\LL	.	16ccc\LL	.
.	.	.	.	.	16g/	.	16b-\	f	.	.	.	.	16g\JJ	.	16b-\JJ	.	.	.	.	.	16b-\	.	16gg\	.	16gg\	.	(16bb-\	.
!LO:TX:b:t=Org	!	!	!	!	!	!LO:DY:a	!	!	!	!	!	!	!	!	!	!	!	!LO:DY:a	!	!	!	!	!	!	!	!	!	!
8C/	.	7 5	8c\J	f	16f/)	f	16a\)	.	8C/	e-	8c\	e-	16f\LL	e-	16a\LL	e-	8c/	f	8g\	.	16a\	.	16ff\	.	16ff\	.	16aa\)	.
.	.	.	.	.	16g/JJ	.	16b-|\JJ	.	.	.	.	.	16g\JJ	.	16b-\JJ	.	.	.	.	.	16b-\JJ)	.	16gg\JJ)	.	16gg\JJ	.	16bb-\JJ	.
!	!	!	!	!	!	!	!LO:LB:g=original	!	!	!	!	!	!	!	!	!	!	!	!	!	!	!	!	!	!	!	!	!
=5	=5	=5	=5	=5	=5	=5	=5	=5	=5	=5	=5	=5	=5	=5	=5	=5	=5	=5	=5	=5	=5	=5	=5	=5	=5	=5	=5	=5
4C/	.	7 5	4c\	.	4g/	.	(4b-\	.	4C/	-lei-	4c\	-lei-	4g\	-lei-	4b-\	-lei-	(4c/	.	(4g\	.	(4b-\	.	(4gg\	.	4gg\	.	(4bb-\	.
8F\	.	3	8c\	.	8f/	.	8a|\)	.	8F\	-son	8c\	-son	8f\	-son	8a\	-son	8A/)	.	8f\)	.	8a\)	.	8ff\)	.	8ff\	.	8aa\L)	.
!	!	!	!	!	!LO:TX:t=P:problem:klamra łukowa	!	!LO:TX:t=P:problem:klamra łukowa	!	!	!	!	!	!	!	!	!	!	!	!	!	!LO:TX:t=P:problem:klamra łukowa	!	!LO:TX:t=P:problem:klamra łukowa	!	!LO:TX:t=P:problem:klamra łukowa	!	!LO:TX:t=P:problem:klamra łukowa	!
.	.	.	.	.	.	.	16qqg/	p	.	.	.	.	.	.	.	.	.	.	.	.	.	.	16qqgg/	p	.	.	16qqgg/	p
8r	.	.	8r	.	24d/LL	p	24f/LL	.	8r	.	8r	.	8r	.	8r	.	8r	.	8r	.	24dd\LL	p	24ff\LL	.	24dd\LL	p	24ff\L	.
.	.	.	.	.	24c/	.	24e/	.	.	.	.	.	.	.	.	.	.	.	.	.	24cc\	.	24ee\	.	24cc\	.	24ee\	.
.	.	.	.	.	24B-/JJ	.	24d/JJ	.	.	.	.	.	.	.	.	.	.	.	.	.	24b-\JJ	.	24dd\JJ	.	24b-\JJ	.	24dd\JJ	.
*	*	*	*	*	*	*	*	*	*	*	*	*	*	*	*	*	*clefF4	*	*	*	*	*	*	*	*	*	*	*
!LO:LB:g=original	!	!	!	!	!	!	!	!	!	!	!	!	!	!	!	!	!	!	!	!	!	!	!	!	!	!	!	!
!	!	!	!	!	!LO:LB:g=original	!	!	!	!	!	!	!	!	!	!	!	!	!	!	!	!	!	!	!	!	!	!	!
!	!	!	!	!	!	!	!	!	!	!	!	!	!	!	!	!	!	!	!	!	!	!	!	!	!	!	!LO:LB:g=original	!
=6	=6	=6	=6	=6	=6	=6	=6	=6	=6	=6	=6	=6	=6	=6	=6	=6	=6	=6	=6	=6	=6	=6	=6	=6	=6	=6	=6	=6
!LO:TX:a:t=Pedal	!	!	!	!	!	!	!	!	!LO:TX:a:t=1	!	!LO:TX:a:t=1	!	!LO:TX:a:t=1	!	!LO:TX:a:t=1	!	!	!LO:DY:a	!	!	!	!	!	!	!	!	!	!
8FF/	p	.	8F/	p	8A/L	.	8c/L	.	2r	.	2r	.	2r	.	2r	.	8FFF/	pp	8F/	p	8a|\L	.	8cc\L	.	8a\L	.	8cc\L	.
!	!	!	!	!	!LO:TX:t=P:problem:klamra łukowa	!	!LO:TX:t=P:problem:klamra łukowa	!	!	!	!	!	!	!	!	!	!	!	!	!	!LO:TX:t=P:problem:klamra łukowa	!	!LO:TX:t=P:problem:klamra łukowa	!	!LO:TX:t=P:problem:klamra łukowa	!	!LO:TX:t=P:problem:klamra łukowa	!
.	.	.	.	.	.	.	16qqg/	.	.	.	.	.	.	.	.	.	.	.	.	.	.	.	16qqgg/	.	.	.	16qqgg/	.
8r	.	.	8r	.	24d/L	.	24f/L	.	.	.	.	.	.	.	.	.	8r	.	8r	.	24dd\L	.	24ff\L	.	24dd\L	.	24ff\L	.
.	.	.	.	.	24c/	.	24e/	.	.	.	.	.	.	.	.	.	.	.	.	.	24cc\	.	24ee\	.	24cc\	.	24ee\	.
.	.	.	.	.	24B-/JJ	.	24d/JJ	.	.	.	.	.	.	.	.	.	.	.	.	.	24b-\JJ	.	24dd\JJ	.	24b-\JJ	.	24dd\JJ	.
!	!	!	!	!	!	!	!	!	!	!	!	!	!	!	!	!	!	!	!	!	!	!	!	!	!	!	!	!
8FF/	.	.	8F/	.	8A/L	.	8c/L	.	.	.	.	.	.	.	.	.	8FFF/	.	8F/	.	8a|\L	.	8cc\L	.	8a\L	.	8cc\L	.
!	!	!	!	!	!LO:TX:t=P:problem:klamra łukowa	!	!LO:TX:t=P:problem:klamra łukowa	!	!	!	!	!	!	!	!	!	!	!	!	!	!LO:TX:t=P:problem:klamra łukowa	!	!LO:TX:t=P:problem:klamra łukowa	!	!LO:TX:t=P:problem:klamra łukowa	!	!LO:TX:t=P:problem:klamra łukowa	!
.	.	.	.	.	.	.	16qqg/	.	.	.	.	.	.	.	.	.	.	.	.	.	.	.	16qqgg/	.	.	.	16qqgg/	.
8r	.	.	8r	.	24d/L	.	24f/L	.	.	.	.	.	.	.	.	.	8r	.	8r	.	24dd\L	.	24ff\L	.	24dd\L	.	24ff\L	.
.	.	.	.	.	24c/	.	24e/	.	.	.	.	.	.	.	.	.	.	.	.	.	24cc\	.	24ee\	.	24cc\	.	24ee\	.
.	.	.	.	.	24B-/JJ	.	24d/JJ	.	.	.	.	.	.	.	.	.	.	.	.	.	24b-\JJ	.	24dd\JJ	.	24b-\JJ	.	24dd\JJ	.
!	!	!	!LO:LB:g=original	!	!	!	!	!	!	!	!	!	!	!	!	!	!	!	!	!	!	!	!	!	!	!	!	!
!	!	!	!	!	!	!	!	!	!	!	!	!	!	!	!LO:LB:g=original	!	!	!	!	!	!	!	!	!	!	!	!	!
!	!	!	!	!	!	!	!	!	!	!	!	!	!	!	!	!	!	!	!	!	!LO:LB:g=original	!	!	!	!	!	!	!
!	!	!	!	!	!	!	!	!	!	!	!	!	!	!	!	!	!	!	!	!	!	!	!LO:LB:g=original	!	!LO:LB:g=original	!	!	!
=7	=7	=7	=7	=7	=7	=7	=7	=7	=7	=7	=7	=7	=7	=7	=7	=7	=7	=7	=7	=7	=7	=7	=7	=7	=7	=7	=7	=7
4FF/	.	.	8.F/L	.	8.A/L	.	8.c/L	.	4r	.	4r	.	8.c\	Ky-	8.a\	Ky-	4FFF/	.	4F/	.	8.a/L	.	8.cc\L	.	8.a/L	.	8.cc\L	.
.	.	.	16B-/Jk	.	16B-/Jk	.	16d/Jk	.	.	.	.	.	16d\	-ri-	16b-\	-ri-	.	.	.	.	16b-/Jk	.	16dd\Jk	.	16b-/Jk	.	16dd\Jk	.
*	*	*	*	*	*	*	*	*	*	*	*	*	*	*	*	*	*clefG2	*	*	*	*	*	*	*	*	*	*	*
!	!	!	!	!	!	!LO:DY:a	!	!	!	!	!	!	!	!	!	!	!	!	!	!	!	!	!	!	!	!	!	!
8r	.	.	(16A/LL	.	8c/L	f	(16c/LL	.	8r	.	8r	.	16c/LL	-e	16a\LL	-e	8r	.	8r	.	(16a/LL	.	(16cc\LL	.	(16a/LL	.	16cc\LL	.
.	.	.	16G/	.	.	.	16B-/)	.	.	.	.	.	16B-/JJ	.	16g\JJ	.	.	.	.	.	16g/	.	16b-\	.	16g/	.	(16b-\	.
!LO:TX:b:t=Org	!	!	!	!	!	!	!	!LO:DY:a	!	!	!	!	!	!	!	!	!	!	!	!	!	!	!	!	!	!	!	!
8C/	.	7 5	16F/	.	8c/J	.	16A/	f	8C/	e-	8c\	e-	16A/LL	e-	16f\LL	e-	8c/	f	8g\	f	16f/	.	16a\	f	16f/	.	16a\	f
!	!	!	!	!	!	!	!LO:TX:b:t=|	!	!	!	!	!	!	!	!	!	!	!	!	!	!	!	!	!	!	!LO:DY:a	!	!
.	.	.	16G/JJ)	.	.	.	16B-/JJ	.	.	.	.	.	16B-/JJ	.	16g\JJ	.	.	.	.	.	16g/JJ)	.	16b-\JJ)	.	16g/JJ)	f	16b-\JJ)	.
!	!	!	!	!	!	!	!	!	!LO:LB:g=original	!	!	!	!	!	!	!	!	!	!	!	!	!	!	!	!	!	!	!
!	!	!	!	!	!	!	!	!	!	!	!LO:LB:g=original	!	!	!	!	!	!	!	!	!	!	!	!	!	!	!	!	!
!	!	!	!	!	!	!	!	!	!	!	!	!	!LO:LB:g=original	!	!	!	!	!	!	!	!	!	!	!	!	!	!	!
!	!	!	!	!	!	!	!	!	!	!	!	!	!	!	!	!	!LO:LB:g=original	!	!	!	!	!	!	!	!	!	!	!
!	!	!	!	!	!	!	!	!	!	!	!	!	!	!	!	!	!	!	!LO:LB:g=original	!	!	!	!	!	!	!	!	!
=8	=8	=8	=8	=8	=8	=8	=8	=8	=8	=8	=8	=8	=8	=8	=8	=8	=8	=8	=8	=8	=8	=8	=8	=8	=8	=8	=8	=8
8F\L	f	7 5	4G/	f	[4c/	.	(4B-/	.	4C/	-lei-	4c\	-lei-	4B-/	-lei-	4g\	-lei-	(4c/	.	(4g\	.	(4g/	.	4b-\	.	(4g/	.	(4b-\	.
8C\J	.	.	.	.	.	.	.	.	.	.	.	.	.	.	.	.	.	.	.	.	.	.	.	.	.	.	.	.
!LO:TX:t=P:problem:mixed beam	!	!	!	!	!	!	!LO:TX:b:t=|	!	!	!	!	!	!	!	!	!	!	!	!	!	!	!	!	!	!LO:TX:t=P:problem:mixed beam	!	!LO:TX:t=P:problem:mixed beam	!
8FF/L	.	.	8F/	.	8c/L]	.	8A/)	.	8F\	-son	8c\	-son	8A/	-son	8f/	-son	8f/)	.	8a\L)	.	8f/)	.	8a\L	.	8f/L)	.	8a/L)	.
8F\J	.	.	8c\	.	8a/|\J	.	8cc\	.	8r	.	8r	.	8r	.	8r	.	8F/	.	8f\J	.	8a/	f	8cc\J	.	8aa\J	.	8ccc\J	.
=9	=9	=9	=9	=9	=9	=9	=9	=9	=9	=9	=9	=9	=9	=9	=9	=9	=9	=9	=9	=9	=9	=9	=9	=9	=9	=9	=9	=9
*tremolo	*	*	*	*	*	*	*	*	*	*	*	*	*	*	*	*	*	*	*	*	*	*	*	*	*	*	*	*
*	*	*	*tremolo	*	*	*	*	*	*	*	*	*	*	*	*	*	*	*	*	*	*	*	*	*	*	*	*	*
8F\L	.	6 4	8d\L	.	8b-\L	.	16dd'\LL	.	2F\	X-	2f\	Chri-	2b-\	X-	2dd\	X-	4F/	.	4f\	.	(2b-\	.	2dd\	.	2bb-\	.	2ddd\	.
.	.	.	.	.	.	.	16dd'\	.	.	.	.	.	.	.	.	.	.	.	.	.	.	.	.	.	.	.	.	.
8F\	.	.	8d\	.	8b-\	.	(16ee-X\	.	.	.	.	.	.	.	.	.	.	.	.	.	.	.	.	.	.	.	.	.
.	.	.	.	.	.	.	16dd\JJ)	.	.	.	.	.	.	.	.	.	.	.	.	.	.	.	.	.	.	.	.	.
8F\	.	.	8d\	.	8b-\	.	(16ff\LL	.	.	.	.	.	.	.	.	.	8F/L	.	8f\L	.	.	.	.	.	.	.	.	.
.	.	.	.	.	.	.	16dd\)	.	.	.	.	.	.	.	.	.	.	.	.	.	.	.	.	.	.	.	.	.
8F\J	.	.	8d\J	.	8b-\J	.	(16bb-\	.	.	.	.	.	.	.	.	.	8F/J	.	8f\J	.	.	.	.	.	.	.	.	.
.	.	.	.	.	.	.	16dd\JJ)	.	.	.	.	.	.	.	.	.	.	.	.	.	.	.	.	.	.	.	.	.
=10	=10	=10	=10	=10	=10	=10	=10	=10	=10	=10	=10	=10	=10	=10	=10	=10	=10	=10	=10	=10	=10	=10	=10	=10	=10	=10	=10	=10
*	*	*	*	*	*tremolo	*	*	*	*	*	*	*	*	*	*	*	*	*	*	*	*	*	*	*	*	*	*	*
8F\L	.	5 3	8c\L	.	8a/L	.	16cc'\LL	.	4F\	-te	4f\	-ste	4a\	-te	4cc\	-te	4F/	.	4f\	.	2a\)	.	2cc\	.	2aa\	.	2ccc\	.
.	.	.	.	.	.	.	16cc'\	.	.	.	.	.	.	.	.	.	.	.	.	.	.	.	.	.	.	.	.	.
8F\	.	.	8c\	.	8a/	.	(16dd\	.	.	.	.	.	.	.	.	.	.	.	.	.	.	.	.	.	.	.	.	.
.	.	.	.	.	.	.	16cc\JJ)	.	.	.	.	.	.	.	.	.	.	.	.	.	.	.	.	.	.	.	.	.
8F\	.	.	8c\	.	8a/	.	(16ff\LL	.	8r	.	8r	.	8r	.	8r	.	8F/L	.	8f\L	.	.	.	.	.	.	.	.	.
.	.	.	.	.	.	.	16cc\)	.	.	.	.	.	.	.	.	.	.	.	.	.	.	.	.	.	.	.	.	.
8F\J	.	.	8c\J	.	8a/J	.	(16aa\	.	8F\	e-	8f\	e-	8a\	e-	8cc\	e-	8F/J	.	8f\J	.	.	.	.	.	.	.	.	.
.	.	.	.	.	.	.	16cc\JJ)	.	.	.	.	.	.	.	.	.	.	.	.	.	.	.	.	.	.	.	.	.
*	*	*	*Xtremolo	*	*	*	*	*	*	*	*	*	*	*	*	*	*	*	*	*	*	*	*	*	*	*	*	*
=11	=11	=11	=11	=11	=11	=11	=11	=11	=11	=11	=11	=11	=11	=11	=11	=11	=11	=11	=11	=11	=11	=11	=11	=11	=11	=11	=11	=11
8E\L	.	7 5	8e\L	.	(16a/LL	.	(16cc\LL	.	8G\L	-lei-	8e\L	-lei-	4g\	-lei-	4b-\	-lei-	4c/	.	4g\	.	4b-\	.	4ee\	.	16aa\LL	.	(16ccc\LL	.
.	.	.	.	.	16g/)	.	16b-\)	.	.	.	.	.	.	.	.	.	.	.	.	.	.	.	.	.	16gg\JJ	.	16bb-\JJ)	.
8C\	.	.	8e\	.	16b|-/	.	16gg|\	.	8E\J	.	8c\J	.	.	.	.	.	.	.	.	.	.	.	.	.	16r	.	16r	.
.	.	.	.	.	16g|/JJ	.	16b-|\JJ	.	.	.	.	.	.	.	.	.	.	.	.	.	.	.	.	.	16gg\	.	16bb-|\	.
8F\	.	3	8c\	.	(16g/LL	.	(16b-\LL	.	8F\	-son	8c\	-son	8f\	-son	8a\	-son	4f\	.	4a\	.	8a/L	.	8ff\L	.	16aa\LL	.	(16bb-\LL	.
.	.	.	.	.	16f/)	.	16a\)	.	.	.	.	.	.	.	.	.	.	.	.	.	.	.	.	.	16ff\JJ	.	16aa\JJ)	.
8A\J	.	.	8c\J	.	16a|/	.	16ff|\	.	8A\	e-	8c\	e-	8f\	e-	8a\	e-	.	.	.	.	8f/J	.	8a\J	.	16r	.	16r	.
.	.	.	.	.	16f|/JJ	.	16a\|JJ	.	.	.	.	.	.	.	.	.	.	.	.	.	.	.	.	.	16ff\	.	16aa|\	.
!	!	!	!	!	!	!	!LO:LB:g=original	!	!	!	!	!	!	!	!	!	!	!	!	!	!	!	!	!	!	!	!	!
=12	=12	=12	=12	=12	=12	=12	=12	=12	=12	=12	=12	=12	=12	=12	=12	=12	=12	=12	=12	=12	=12	=12	=12	=12	=12	=12	=12	=12
!LO:TX:t=P:problem:mixed beam	!	!	!	!	!	!	!	!	!	!	!	!	!	!	!	!	!	!	!	!	!	!	!	!	!	!	!	!
8c\L	.	.	8c\L	.	8f/L	.	8a/L	.	8c\	-lei-	8c\	-lei-	8f\	-lei-	8a\	-lei-	8f\L	.	8a\L	.	8f/L	.	8a/L	.	8ff\L	.	8aa\L	.
8C/J	.	.	8c\J	.	8e/J	.	8g/J	.	8C/	-son	8c\	-son	8e\	-son	8g\	-son	8c\J	.	8g\J	.	8e/J	.	8g/J	.	8ee\J	.	8gg\J	.
4r	.	.	4r	.	8r	.	8r	.	4r	.	4r	.	4r	.	4r	.	4r	p	4r	.	4r	.	4r	.	4r	.	4r	.
.	.	.	.	.	8a/	p	8cc\	p	.	.	.	.	.	.	.	.	.	.	.	.	.	.	.	.	.	.	.	.
=13	=13	=13	=13	=13	=13	=13	=13	=13	=13	=13	=13	=13	=13	=13	=13	=13	=13	=13	=13	=13	=13	=13	=13	=13	=13	=13	=13	=13
!	!	!	!	!	!	!	!	!	!	!	!	!	!	!	!	!	!	!	!	!	!LO:TX:a:t=2	!	!LO:TX:a:t=2	!	!LO:TX:a:t=2	!	!LO:TX:a:t=2	!
*	*	*	*tremolo	*	*	*	*	*	*	*	*	*	*	*	*	*	*	*	*	*	*	*	*	*	*	*	*	*
8F\L	p	6 4	8d\L	p	8b-\L	.	16dd|\LL	.	2F\	X-	2f\	Chri-	2b-\	X-	2dd\	X-	4F/	.	4f\	p	2r	.	2r	.	2r	.	2r	.
.	.	.	.	.	.	.	16dd|\	.	.	.	.	.	.	.	.	.	.	.	.	.	.	.	.	.	.	.	.	.
8F\	.	.	8d\	.	8b-\	.	(16ee-X\	.	.	.	.	.	.	.	.	.	.	.	.	.	.	.	.	.	.	.	.	.
.	.	.	.	.	.	.	16dd\JJ)	.	.	.	.	.	.	.	.	.	.	.	.	.	.	.	.	.	.	.	.	.
8F\	.	.	8d\	.	8b-\	.	16bb-|\LL	.	.	.	.	.	.	.	.	.	4r	.	4r	.	.	.	.	.	.	.	.	.
.	.	.	.	.	.	.	(16dd\	.	.	.	.	.	.	.	.	.	.	.	.	.	.	.	.	.	.	.	.	.
8F\J	.	.	8d\J	.	8b-\J	.	16ee-\	.	.	.	.	.	.	.	.	.	.	.	.	.	.	.	.	.	.	.	.	.
.	.	.	.	.	.	.	16dd\JJ)	.	.	.	.	.	.	.	.	.	.	.	.	.	.	.	.	.	.	.	.	.
=14	=14	=14	=14	=14	=14	=14	=14	=14	=14	=14	=14	=14	=14	=14	=14	=14	=14	=14	=14	=14	=14	=14	=14	=14	=14	=14	=14	=14
8F\L	.	5 3	8c\L	.	8a\L	.	16cc'\LL	.	4F\	-te	4f\	-ste	4a\	-te	4cc\	-te	4F/	.	4f\	.	2r	.	2r	.	2r	.	2r	.
.	.	.	.	.	.	.	16cc'\	.	.	.	.	.	.	.	.	.	.	.	.	.	.	.	.	.	.	.	.	.
8F\	.	.	8c\	.	8a\	.	(16dd\	.	.	.	.	.	.	.	.	.	.	.	.	.	.	.	.	.	.	.	.	.
.	.	.	.	.	.	.	16cc\JJ)	.	.	.	.	.	.	.	.	.	.	.	.	.	.	.	.	.	.	.	.	.
8F\	.	.	8c\	.	8a\	.	16aa|\LL	.	8r	.	8r	.	8r	.	8r	.	4r	.	4r	.	.	.	.	.	.	.	.	.
.	.	.	.	.	.	.	(16cc\	.	.	.	.	.	.	.	.	.	.	.	.	.	.	.	.	.	.	.	.	.
8F\J	.	.	8c\J	.	8a\J	.	16dd\	.	8F\	e-	8c\	e-	8a\	e-	8cc\	e-	.	.	.	.	.	.	.	.	.	.	.	.
.	.	.	.	.	.	.	16cc\JJ)	.	.	.	.	.	.	.	.	.	.	.	.	.	.	.	.	.	.	.	.	.
*Xtremolo	*	*	*Xtremolo	*	*Xtremolo	*	*	*	*	*	*	*	*	*	*	*	*	*	*	*	*	*	*	*	*	*	*	*
=15	=15	=15	=15	=15	=15	=15	=15	=15	=15	=15	=15	=15	=15	=15	=15	=15	=15	=15	=15	=15	=15	=15	=15	=15	=15	=15	=15	=15
8C\L	.	7 5	8e\L	f	(16a/LL	f	(16cc\LL	f	8G\L	-lei-	4c\	-lei-	4g\	-lei-	4b-\	-lei-	8c/L	f	8g\L	f	4b-\	.	4ee\	.	(16aa\LL	.	(16ccc\LL	.
.	.	.	.	.	16g/)	.	16b-\)	.	.	.	.	.	.	.	.	.	.	.	.	.	.	.	.	.	16gg\)	.	16bb-\)	.
8C\	.	.	16e\L	.	16g|/	.	16b|-\	.	8E\J	.	.	.	.	.	.	.	16c/L	.	16g\L	.	.	.	.	.	16gg'\	.	16bb|-\	.
.	.	.	16e\JJ	.	16g|/JJ	.	16b|-\JJ	.	.	.	.	.	.	.	.	.	16c/JJ	.	16g\JJ	.	.	.	.	.	16gg'\JJ	.	16bb|-\JJ	.
8F\	f	3	8c\L	.	(16g/LL	.	(16b-\LL	.	8F\	-son	8c\	-son	8f\	-son	8a\	-son	8f\L	.	8a\L	.	8a\L	.	(8ff\L	.	(16gg\LL	.	(16bb-\LL	.
.	.	.	.	.	16f/)	.	16a\)	.	.	.	.	.	.	.	.	.	.	.	.	.	.	.	.	.	16ff\)	.	16aa\)	.
8F\J	.	.	16c\L	.	16f|/	.	16a'\	.	8A\	e-	8c\	e-	8f\	e-	8a\	e-	16f\L	.	16a\L	.	8ff\J	.	8aa\J)	.	16ff'\	.	16aa|\	.
.	.	.	16c\JJ	.	16f|/JJ	.	16a'\JJ	.	.	.	.	.	.	.	.	.	16f\JJ	.	16a\JJ	.	.	.	.	.	16ff'\JJ	.	16aa|\JJ	.
!	!	!	!	!	!LO:LB:g=original	!	!	!	!	!	!	!	!	!	!	!	!	!	!	!	!	!	!	!	!	!	!	!
!	!	!	!	!	!	!	!	!	!	!	!	!	!	!	!	!	!	!	!	!	!	!	!	!	!	!	!LO:LB:g=original	!
=16	=16	=16	=16	=16	=16	=16	=16	=16	=16	=16	=16	=16	=16	=16	=16	=16	=16	=16	=16	=16	=16	=16	=16	=16	=16	=16	=16	=16
!LO:TX:t=P:problem:mixed beam	!	!	!	!	!	!	!	!	!	!	!	!	!	!	!	!	!	!	!	!	!	!	!	!	!	!	!	!
8c\L	.	4	8c\L	.	8f/L	.	8a/L	.	8c\	-lei-	8c\	-lei-	8f\	-lei-	8a\	-lei-	8f\L	.	8g\L	.	8ff\L	.	8aa|\L	.	8ff\L	.	8aa\L	.
8C/J	.	3	8c\J	.	8e/J	.	8g/J	.	8C/	-son	8c\	-son	8e\	-son	8g\	-son	8c\J	.	8g\J	.	8ee\J	.	8gg|\J	.	8ee\J	.	8gg\J	.
4r	.	.	4r	.	8r	.	8r	.	4r	.	4r	.	8r	.	8r	.	4r	.	4r	.	4r	.	4r	.	4r	.	4r	.
.	.	.	.	.	16e/LL	p	16cc'\LL	p	.	.	.	.	16e\	X-	16cc\	X-	.	.	.	.	.	.	.	.	.	.	.	.
.	.	.	.	.	16e/JJ	.	16cc'\JJ	.	.	.	.	.	16e\	-te	16cc\	-te	.	.	.	.	.	.	.	.	.	.	.	.
!	!	!	!	!	!	!	!	!	!	!	!	!	!	!	!LO:LB:g=original	!	!	!	!	!	!	!	!	!	!	!	!	!
=17	=17	=17	=17	=17	=17	=17	=17	=17	=17	=17	=17	=17	=17	=17	=17	=17	=17	=17	=17	=17	=17	=17	=17	=17	=17	=17	=17	=17
!	!	!	!	!	!	!	!LO:TX:a:t=t&colon;	!	!LO:TX:a:t=9	!	!LO:TX:a:t=9	!	!	!	!	!	!LO:TX:a:t=9	!	!LO:TX:a:t=9	!	!LO:TX:a:t=4	!	!LO:TX:a:t=4	!	!LO:TX:a:t=4	!	!LO:TX:a:t=4	!
8r	.	.	8r	.	8.e/L	.	8.cc\L	.	2r	.	2r	.	8.e\	au-	8.cc\	au-	2r	.	2r	.	2r	.	2r	.	2r	.	2r	.
8C/L	p	3	8g\L	p	.	.	.	.	.	.	.	.	.	.	.	.	.	.	.	.	.	.	.	.	.	.	.	.
.	.	.	.	.	32d/LL	.	32bn\LL	.	.	.	.	.	32d\LLL	-di	32bn\LLL	-di	.	.	.	.	.	.	.	.	.	.	.	.
.	.	.	.	.	32e/JJJ	.	32cc\JJJ	.	.	.	.	.	32e\JJJ	.	32cc\JJJ	.	.	.	.	.	.	.	.	.	.	.	.	.
8GG/J	.	n	8g\J	.	8d/L	.	8b\L	.	.	.	.	.	8d\	nos	8b\	nos	.	.	.	.	.	.	.	.	.	.	.	.
!LO:TX:b:t=Solo	!	!	!	!	!	!	!	!	!	!	!	!	!	!	!	!	!	!	!	!	!	!	!	!	!	!	!	!
8r	.	.	8r	.	16f|/L	.	16dd|\L	.	.	.	.	.	16f\	X-	16dd\	X-	.	.	.	.	.	.	.	.	.	.	.	.
.	.	.	.	.	16f|/JJ	.	16dd|\JJ	.	.	.	.	.	16f\	-te	16dd\	-te	.	.	.	.	.	.	.	.	.	.	.	.
!LO:LB:g=original	!	!	!	!	!	!	!	!	!	!	!	!	!	!	!	!	!	!	!	!	!	!	!	!	!	!	!	!
!	!	!	!LO:LB:g=original	!	!	!	!	!	!	!	!	!	!	!	!	!	!	!	!	!	!	!	!	!	!	!	!	!
=18	=18	=18	=18	=18	=18	=18	=18	=18	=18	=18	=18	=18	=18	=18	=18	=18	=18	=18	=18	=18	=18	=18	=18	=18	=18	=18	=18	=18
!	!	!	!	!	!	!	!LO:TX:a:t=t&colon;	!	!	!	!	!	!	!	!	!	!	!	!	!	!	!	!	!	!	!	!	!
8r	.	.	8r	.	8.f/L	.	8.dd\L	.	2r	.	2r	.	8.f\	au-	8.dd\	au-	2r	.	2r	.	2r	.	2r	.	2r	.	2r	.
8G\L	.	n	8g\L	.	.	.	.	.	.	.	.	.	.	.	.	.	.	.	.	.	.	.	.	.	.	.	.	.
.	.	.	.	.	32e/LL	.	32cc\LL	.	.	.	.	.	32e\LLL	-di	32cc\LLL	-di-	.	.	.	.	.	.	.	.	.	.	.	.
.	.	.	.	.	32f/JJJ	.	32dd\JJJ	.	.	.	.	.	32f\JJJ	.	32dd\JJJ	.	.	.	.	.	.	.	.	.	.	.	.	.
!	!	!	!	!	!LO:TX:t=P:problem:mixed beam	!	!	!	!	!	!	!	!	!	!	!	!	!	!	!	!	!	!	!	!	!	!	!
8C\J	.	.	8g\J	.	8e/L	.	8cc\L	.	.	.	.	.	8e\	nos	8cc\	-nos	.	.	.	.	.	.	.	.	.	.	.	.
!	!	!	!	!	!	!	!	!	!	!	!	!	!LO:LB:g=original	!	!	!	!	!	!	!	!	!	!	!	!	!	!	!
8r	.	.	8r	.	16cc|/L	.	16ee|\L	.	.	.	.	.	16cc\	X-	16ee\	/X-	.	.	.	.	.	.	.	.	.	.	.	.
.	.	.	.	.	16cc|/JJ	.	16ee|\JJ	.	.	.	.	.	16cc\	-te	16ee\	-te	.	.	.	.	.	.	.	.	.	.	.	.
=19	=19	=19	=19	=19	=19	=19	=19	=19	=19	=19	=19	=19	=19	=19	=19	=19	=19	=19	=19	=19	=19	=19	=19	=19	=19	=19	=19	=19
!	!	!	!	!	!	!	!LO:TX:a:t=t&colon;	!	!	!	!	!	!	!	!	!	!	!	!	!	!	!	!	!	!	!	!	!
8r	.	.	8r	.	8.cc\L	.	8.ee\L	.	2r	.	2r	.	8.cc\	au-	8.ee\	au-	2r	.	2r	.	2r	.	2r	.	2r	.	2r	.
16C/LL	.	.	8g\L	.	.	.	.	.	.	.	.	.	.	.	.	.	.	.	.	.	.	.	.	.	.	.	.	.
16E/JJ	.	.	.	.	(32bn\LL	.	32dd\LL	.	.	.	.	.	32bn\LLL	-di	32dd\LLL	-di	.	.	.	.	.	.	.	.	.	.	.	.
.	.	.	.	.	32cc\JJJ)	.	32ee\JJJ	.	.	.	.	.	32cc\JJJ	.	32ee\JJJ	.	.	.	.	.	.	.	.	.	.	.	.	.
8G\	.	n	8g\J	.	8b\L	.	8dd\L	.	.	.	.	.	8b\	nos	8dd\	nos/	.	.	.	.	.	.	.	.	.	.	.	.
8r	.	.	8r	.	16dd|\L	.	16ff\L	.	.	.	.	.	16dd\	X-	16ff\	X-	.	.	.	.	.	.	.	.	.	.	.	.
.	.	.	.	.	16dd|\JJ	.	16ff\JJ	.	.	.	.	.	16dd\	-te	16ff\	-te	.	.	.	.	.	.	.	.	.	.	.	.
!	!	!	!	!	!	!	!LO:LB:g=original	!	!	!	!	!	!	!	!	!	!	!	!	!	!	!	!	!	!	!	!	!
=20	=20	=20	=20	=20	=20	=20	=20	=20	=20	=20	=20	=20	=20	=20	=20	=20	=20	=20	=20	=20	=20	=20	=20	=20	=20	=20	=20	=20
!	!	!	!	!	!	!	!LO:TX:a:t=t&colon;	!	!	!	!	!	!	!	!LO:N:vis=8	!	!	!	!	!	!	!	!	!	!	!	!	!
16r	.	.	8r	.	8.dd\L	.	8.ff\L	.	2r	.	2r	.	8.dd\	au-	8.ff\	au-	2r	.	2r	.	2r	.	2r	.	2r	.	2r	.
!LO:TX:t=P:problem:mixed beam	!	!	!	!	!	!	!	!	!	!	!	!	!	!	!	!	!	!	!	!	!	!	!	!	!	!	!	!
16G\LL	.	n	.	.	.	.	.	.	.	.	.	.	.	.	.	.	.	.	.	.	.	.	.	.	.	.	.	.
16GG/	.	.	8g\L	.	.	.	.	.	.	.	.	.	.	.	.	.	.	.	.	.	.	.	.	.	.	.	.	.
16BBn/JJ	.	.	.	.	(32cc\LL	.	32ee\LL	.	.	.	.	.	32cc\LLL	-di	32ee\LLL	-di	.	.	.	.	.	.	.	.	.	.	.	.
.	.	.	.	.	32dd\JJJ)	.	32ff\JJJ	.	.	.	.	.	32dd\JJJ	.	32ff\JJJ	.	.	.	.	.	.	.	.	.	.	.	.	.
!	!	!	!	!	!LO:TX:t=P:problem:mixed beam	!	!	!	!	!	!	!	!	!	!	!	!	!	!	!	!	!	!	!	!	!	!	!
8C/	.	.	8g\J	.	8cc/L	.	8ee\L	.	.	.	.	.	8cc\	nos	8ee\	nos	.	.	.	.	.	.	.	.	.	.	.	.
8r	.	.	8r	.	16g\L	.	16ee\L	.	.	.	.	.	8r	.	8r	.	.	.	.	.	.	.	.	.	.	.	.	.
.	.	.	.	.	16g\JJ	.	16ee\JJ	.	.	.	.	.	.	.	.	.	.	.	.	.	.	.	.	.	.	.	.	.
=21	=21	=21	=21	=21	=21	=21	=21	=21	=21	=21	=21	=21	=21	=21	=21	=21	=21	=21	=21	=21	=21	=21	=21	=21	=21	=21	=21	=21
8r	.	.	8r	.	8.g/L	.	8.ee\L	.	2r	.	2r	.	8.g\L	Chri-	8.ee\L	Chri-	2r	.	2r	.	4r	.	4r	.	4r	.	4r	.
8AA/L	.	7 5	8a\L	.	.	.	.	.	.	.	.	.	.	.	.	.	.	.	.	.	.	.	.	.	.	.	.	.
.	.	.	.	.	16f/Jk	.	16dd\Jk	.	.	.	.	.	16f\Jk	.	16dd\Jk	.	.	.	.	.	.	.	.	.	.	.	.	.
8C#X/	.	.	8a\	.	8e/L	.	8cc#X|\L	.	.	.	.	.	8e\	-ste	8cc#X\	-ste	.	.	.	.	8r	.	8r	.	8r	.	8r	.
!	!	!	!	!	!	!	!	!	!	!	!	!	!	!	!	!	!	!	!	!	!	!	!	!LO:DY:a	!	!	!	!
8AA/J	.	.	8a\J	.	8e/J	.	8cc#|\J	.	.	.	.	.	8e\	ex-	8cc#\	ex	.	.	.	.	8a/	pp	8a/	pp	8a/	pp	8ee\	pp
!	!	!	!	!	!	!	!	!	!	!	!	!	!	!	!	!	!	!	!	!	!	!	!LO:LB:g=original	!	!	!	!	!
=22	=22	=22	=22	=22	=22	=22	=22	=22	=22	=22	=22	=22	=22	=22	=22	=22	=22	=22	=22	=22	=22	=22	=22	=22	=22	=22	=22	=22
8D/L	.	7	8a\L	.	16f/LL	.	(16dd\LL	.	2r	.	2r	.	16f\LL	-au-	16dd\LL	au-	2r	.	2r	.	4a/	.	4a/	.	8a/L	.	16ff\LL	.
.	.	.	.	.	16g/JJ	.	16ee\JJ)	.	.	.	.	.	16g\JJ	.	16ee\JJ	.	.	.	.	.	.	.	.	.	.	.	16aa\JJ	.
.	.	.	.	.	.	.	16qqff/	.	.	.	.	.	.	.	16qqff/	.	.	.	.	.	.	.	.	.	.	.	16qqaa/	.
8AA/	.	#	8a\	.	16g/LL	.	(16ee\LL	.	.	.	.	.	16g\LL	-di	16ee\LL	-di-	.	.	.	.	.	.	.	.	8a/	.	(16gg\LL	.
.	.	.	.	.	(32f/L	.	32dd\L	.	.	.	.	.	32f\L	.	32dd\L	.	.	.	.	.	.	.	.	.	.	.	32ff\L	.
.	.	.	.	.	32g/JJJ)	.	32ee\JJJ)	.	.	.	.	.	32g\JJJ	.	32ee\JJJ	.	.	.	.	.	.	.	.	.	.	.	32gg\JJJ)	.
!	!	!	!	!	!	!	!	!	!	!	!	!	!	!	!LO:N:vis=8.	!	!	!	!	!	!	!	!	!	!	!	!	!
8DD/J	.	.	8a\J	.	8a/L	.	8ff\L	.	.	.	.	.	8a\	nos	8ff\	-nos	.	.	.	.	8a/	.	8a/	.	8a/J	.	8aa\	.
!	!	!	!	!	!LO:TX:b:t=|	!	!	!	!	!	!	!	!	!	!	!	!	!	!	!	!	!	!	!	!	!	!	!
8r	.	.	8r	.	16f/L	.	16dd|\L	.	.	.	.	.	8r	.	8r	.	.	.	.	.	8r	.	8r	.	8r	.	8r	.
!	!	!	!	!	!LO:TX:b:t=|	!	!	!	!	!	!	!	!	!	!	!	!	!	!	!	!	!	!	!	!	!	!	!
.	.	.	.	.	16f/JJ	.	16dd|\JJ	.	.	.	.	.	.	.	.	.	.	.	.	.	.	.	.	.	.	.	.	.
!	!	!	!	!	!	!	!	!	!	!	!	!	!	!	!LO:LB:g=original	!	!	!	!	!	!	!	!	!	!	!	!	!
!	!	!	!	!	!	!	!	!	!	!	!	!	!	!	!	!	!	!	!	!	!	!	!	!	!LO:LB:g=original	!	!	!
=23	=23	=23	=23	=23	=23	=23	=23	=23	=23	=23	=23	=23	=23	=23	=23	=23	=23	=23	=23	=23	=23	=23	=23	=23	=23	=23	=23	=23
8r	.	.	8r	.	8.f/L	.	8.dd\L	.	2r	.	2r	.	8.f\L	X-	8.dd\L	X-	2r	.	2r	.	4r	.	4r	.	4r	.	4r	.
8GG/L	.	.	8g\L	.	.	.	.	.	.	.	.	.	.	.	.	.	.	.	.	.	.	.	.	.	.	.	.	.
.	.	.	.	.	16e/Jk	.	16ccn\Jk	.	.	.	.	.	16e\Jk	.	16ccn\Jk	.	.	.	.	.	.	.	.	.	.	.	.	.
8BBn/	.	.	8g\	.	8d/L	.	8bn\L	.	.	.	.	.	8d\	-te	8bn\	-te	.	.	.	.	8r	.	8r	.	8r	.	8r	.
!	!	!	!	!	!	!	!	!	!	!	!	!	!	!	!	!	!	!	!	!	!	!LO:DY:a	!	!	!	!	!	!
8GG/J	.	.	8g\J	.	8d/J	.	8b\J	.	.	.	.	.	8d\	ex-	8b\	ex-	.	.	.	.	8g/	pp	8g/	pp	8g/	pp	8dd\	pp
!	!	!	!	!	!LO:LB:g=original	!	!	!	!	!	!	!	!	!	!	!	!	!	!	!	!	!	!	!	!	!	!	!
=24	=24	=24	=24	=24	=24	=24	=24	=24	=24	=24	=24	=24	=24	=24	=24	=24	=24	=24	=24	=24	=24	=24	=24	=24	=24	=24	=24	=24
8C/L	.	.	8g\L	.	(16e/LL	.	(16cc\LL	.	2r	.	2r	.	16e\LL	-au-	16cc\LL	-au-	2r	.	2r	.	4g/	.	4g/	.	8g/L	.	(16ee\LL	.
.	.	.	.	.	16f/JJ)	.	16dd\JJ)	.	.	.	.	.	16f\JJ	.	16dd\JJ	.	.	.	.	.	.	.	.	.	.	.	16ff\JJ)	.
.	.	.	.	.	16qqg/	.	16qqee/	.	.	.	.	.	.	.	16qqee/	.	.	.	.	.	.	.	.	.	.	.	16qqgg/	.
8GG/	.	.	8g\	.	(16f/LL	.	(16dd\LL	.	.	.	.	.	16f\LL	-di	16dd\LL	-di	.	.	.	.	.	.	.	.	8g/	.	(16ff\LL	.
.	.	.	.	.	32e/L	.	32cc\L	.	.	.	.	.	32e\L	.	32cc\L	.	.	.	.	.	.	.	.	.	.	.	32ee\L	.
.	.	.	.	.	32f/JJJ)	.	32dd\JJJ)	.	.	.	.	.	32f\JJJ	.	32dd\JJJ	.	.	.	.	.	.	.	.	.	.	.	32ff\JJJ)	.
8CC/J	.	.	8g\J	.	8g/L	.	8ee\	.	.	.	.	.	8g\	nos	8ee\	nos	.	.	.	.	8g/	.	8g/	.	8g/J	.	8gg\	.
8C/	.	.	8r	.	8g/J	.	8ee|\	.	.	.	.	.	8g\	X-	8ee\	X-	.	.	.	.	8r	.	8r	.	8r	.	8r	.
!	!	!	!	!	!	!	!	!	!	!	!	!	!	!	!	!	!	!	!	!	!LO:LB:g=original	!	!	!	!	!	!	!
=25	=25	=25	=25	=25	=25	=25	=25	=25	=25	=25	=25	=25	=25	=25	=25	=25	=25	=25	=25	=25	=25	=25	=25	=25	=25	=25	=25	=25
!	!	!	!	!	!	!	!	!	!	!	!	!	!	!	!	!	!	!	!	!	!LO:TX:a:t=2	!	!LO:TX:a:t=2	!	!LO:TX:a:t=2	!	!LO:TX:a:t=2	!
8F\L	.	6	8f\L	.	8a/L	.	(8ff\L	.	2r	.	2r	.	8a\	-te	8ff\	-te	2r	.	2r	.	2r	.	2r	.	2r	.	2r	.
8C\	.	5 3	8c\	.	8g/	.	8ee\	.	.	.	.	.	8g\	ex-	8ee\	ex-	.	.	.	.	.	.	.	.	.	.	.	.
8BB-\	.	5 3	8a\	.	8f/	.	8dd\	.	.	.	.	.	8f\	-au-	8dd\	-au-	.	.	.	.	.	.	.	.	.	.	.	.
8C\J	.	3	8g\J	.	8e/J	.	8cc\J)	.	.	.	.	.	8e\	-di	8cc\	-di	.	.	.	.	.	.	.	.	.	.	.	.
!	!	!	!	!	!	!	!	!	!LO:LB:g=original	!	!	!	!	!	!	!	!	!	!	!	!	!	!	!	!	!	!	!
!	!	!	!	!	!	!	!	!	!	!	!LO:LB:g=original	!	!	!	!	!	!	!	!	!	!	!	!	!	!	!	!	!
!	!	!	!	!	!	!	!	!	!	!	!	!	!LO:LB:g=original	!	!	!	!	!	!	!	!	!	!	!	!	!	!	!
=26	=26	=26	=26	=26	=26	=26	=26	=26	=26	=26	=26	=26	=26	=26	=26	=26	=26	=26	=26	=26	=26	=26	=26	=26	=26	=26	=26	=26
!LO:TX:t=P:problem:mixed beam	!	!	!	!	!	!	!	!	!	!	!	!	!	!	!	!	!	!	!	!	!	!	!	!	!	!	!	!
8G\L	.	4	8g\L	.	8e/L	.	(8cc\L	.	4r	.	4r	.	8e\L	nos	8cc\L	nos	4r	.	4r	.	2r	.	2r	.	2r	.	2r	.
8GG/J	.	n	8g\J	.	8d/J	.	8bn|\J)	.	.	.	.	.	8d\J	.	8bn\J	.	.	.	.	.	.	.	.	.	.	.	.	.
4r	.	.	8g|\L	.	4r	.	4r	.	8G\	X-	8G/	X-	4r	.	4r	.	8g\L	.	8g\L	.	.	.	.	.	.	.	.	.
.	.	.	8g|\J	.	.	.	.	.	8G\	-te	8G/	-te	.	.	.	.	8g\J	.	8g\J	.	.	.	.	.	.	.	.	.
!LO:LB:g=original	!	!	!	!	!	!	!	!	!	!	!	!	!	!	!	!	!	!	!	!	!	!	!	!	!	!	!	!
!	!	!	!	!	!	!	!LO:LB:g=original	!	!	!	!	!	!	!	!	!	!	!	!	!	!	!	!	!	!	!	!	!
=27	=27	=27	=27	=27	=27	=27	=27	=27	=27	=27	=27	=27	=27	=27	=27	=27	=27	=27	=27	=27	=27	=27	=27	=27	=27	=27	=27	=27
8G\	f	n	16G'/LL	.	16r	.	16r	.	4G\	X-	4G/	X-	4d\	X-	4b-\	X-	4g\	.	2g\	.	(4dd\	f	(4ff\	f	4dd\	.	4ff\	.
!	!	!	!	!	!	!	!	!	!	!	!	!	!	!	!	!	!	!	!	!	!	!	!	!	!	!	!	!
.	.	.	16G'/	.	16d|/LL	.	16bn|\LL	.	.	.	.	.	.	.	.	.	.	.	.	.	.	.	.	.	.	.	.	.
8r	.	.	16G'/	.	(16f/	.	(16dd\	.	.	.	.	.	.	.	.	.	.	.	.	.	.	.	.	.	.	.	.	.
.	.	.	16G'/JJ	.	16d/JJ)	.	16b\JJ)	.	.	.	.	.	.	.	.	.	.	.	.	.	.	.	.	.	.	.	.	.
!	!	!	!LO:TX:t=P:problem: 4 kropki przy tremolo	!	!	!	!	!	!	!	!	!	!	!	!	!	!	!	!	!	!	!	!	!	!	!	!	!
*	*	*	*tremolo	*	*	*	*	*	*	*	*	*	*	*	*	*	*	*	*	*	*	*	*	*	*	*	*	*
8C/	.	.	16G'/LL	.	16r	.	16r	.	8G\	-te	8G/	-te	8e\	-te	8cc\	-te	4c/	.	.	.	4cc\	.	4ee\	.	4cc\	.	4ee\	.
.	.	.	16G/	.	16e|/LL	.	16cc|\LL	.	.	.	.	.	.	.	.	.	.	.	.	.	.	.	.	.	.	.	.	.
8r	.	.	16G/	.	(16g/	.	(16ee\	.	8G\	ex-	8G/	ex-	8e\	ex-	8cc\	ex-	.	.	.	.	.	.	.	.	.	.	.	.
.	.	.	16/JJ	.	16e/JJ)	.	16cc\JJ)	.	.	.	.	.	.	.	.	.	.	.	.	.	.	.	.	.	.	.	.	.
!	!	!	!LO:LB:g=original	!	!	!	!	!	!	!	!	!	!	!	!	!	!	!	!	!	!	!	!	!	!	!	!	!
!	!	!	!	!	!	!	!	!	!	!	!	!	!	!	!	!	!LO:LB:g=original	!	!	!	!	!	!	!	!	!	!	!
=28	=28	=28	=28	=28	=28	=28	=28	=28	=28	=28	=28	=28	=28	=28	=28	=28	=28	=28	=28	=28	=28	=28	=28	=28	=28	=28	=28	=28
!	!	!	!LO:TX:b:t=......	!	!	!	!	!	!	!	!	!	!	!	!	!	!	!	!	!	!	!	!	!	!	!	!	!
8G\	.	n	16G/LL	.	16r	.	16r	.	4G\	-au-	4G/	-au-	4bn\	-au-	4dd\	-au-	4g\	.	2g\	.	4f/	.	4bn\	.	4dd\	.	4bbn\	.
.	.	.	16G/	.	16bn|LL	.	16dd|\LL	.	.	.	.	.	.	.	.	.	.	.	.	.	.	.	.	.	.	.	.	.
8r	.	.	16G/	.	(16dd\	.	(16ff\	.	.	.	.	.	.	.	.	.	.	.	.	.	.	.	.	.	.	.	.	.
.	.	.	16G/	.	16b\JJ)	.	16dd\JJ)	.	.	.	.	.	.	.	.	.	.	.	.	.	.	.	.	.	.	.	.	.
8c\	.	.	16G/	.	16r	.	16r	.	4G\	-di	4G/	-di	4cc\	-di	4ee\	-di	4c/	.	.	.	4e/)	.	4cc\)	.	4ee\	.	4ccc\	.
.	.	.	16G/	.	16cc|\LL	.	16ee|\LL	.	.	.	.	.	.	.	.	.	.	.	.	.	.	.	.	.	.	.	.	.
8r	.	.	16G/	.	(16ee\	.	(16gg\	.	.	.	.	.	.	.	.	.	.	.	.	.	.	.	.	.	.	.	.	.
.	.	.	16G/JJ	.	16cc\JJ)	.	16ee\JJ)	.	.	.	.	.	.	.	.	.	.	.	.	.	.	.	.	.	.	.	.	.
!	!	!	!	!	!	!	!	!	!	!	!	!	!	!	!	!	!	!	!LO:LB:g=original	!	!	!	!	!	!	!	!	!
=29	=29	=29	=29	=29	=29	=29	=29	=29	=29	=29	=29	=29	=29	=29	=29	=29	=29	=29	=29	=29	=29	=29	=29	=29	=29	=29	=29	=29
!	!	!	!LO:TX:b:t=......	!LO:DY:a	!	!	!	!	!	!	!	!	!	!	!	!	!	!	!	!	!	!	!	!	!	!	!	!
8G\	p	.	16G/LL	p	16r	.	16r	.	4G\	X-	4G/	Chri-	4d\	X-	4b-\	X-	4g\	p	2g\	p	(4dd\	p	(4ff\	p	4dd\	p	4ff\	p
.	.	.	16G/	.	16d|/LL	.	16bn|\LL	p	.	.	.	.	.	.	.	.	.	.	.	.	.	.	.	.	.	.	.	.
8r	.	.	16G/	.	(16f/	.	(16dd\	.	.	.	.	.	.	.	.	.	.	.	.	.	.	.	.	.	.	.	.	.
.	.	.	16G/	.	16d/JJ)	.	16b\JJ)	.	.	.	.	.	.	.	.	.	.	.	.	.	.	.	.	.	.	.	.	.
8C/	.	.	16G/	.	16r	.	16r	.	8G\	-te	8G/	-ste	8e\	-te	8cc\	-te	4c/	.	.	.	4cc\	.	4ee\	.	4cc\	.	4ee\	.
!	!	!	!	!	!LO:TX:b:t=|	!	!	!	!	!	!	!	!	!	!	!	!	!	!	!	!	!	!	!	!	!	!	!
.	.	.	16G/	.	16e/LL	.	(16cc\LL	.	.	.	.	.	.	.	.	.	.	.	.	.	.	.	.	.	.	.	.	.
8r	.	.	16G/	.	(16g/	.	16ee\)	.	8G\	ex-	8G/	ex-	8e\	ex-	8cc\	ex-	.	.	.	.	.	.	.	.	.	.	.	.
.	.	.	16G/JJ	.	16e/JJ)	.	16cc\JJ	.	.	.	.	.	.	.	.	.	.	.	.	.	.	.	.	.	.	.	.	.
=30	=30	=30	=30	=30	=30	=30	=30	=30	=30	=30	=30	=30	=30	=30	=30	=30	=30	=30	=30	=30	=30	=30	=30	=30	=30	=30	=30	=30
!	!	!	!LO:TX:b:t=......	!	!	!	!	!	!	!	!	!	!	!	!	!	!	!	!	!	!	!	!	!	!	!	!	!
8GG/	.	.	16G/LL	.	16r	.	16r	.	4G\	-au-	4G/	-au-	4bn\	-au-	4dd\	-au-	4g\	.	2g\	.	4f/	.	4bn\	.	4dd\	.	4bbn\	.
.	.	.	16G/	.	16bn|\LL	.	(16dd\LL	.	.	.	.	.	.	.	.	.	.	.	.	.	.	.	.	.	.	.	.	.
8r	.	.	16G/	.	(16dd\	.	16ff\	.	.	.	.	.	.	.	.	.	.	.	.	.	.	.	.	.	.	.	.	.
.	.	.	16G/	.	16b\JJ)	.	16dd\JJ)	.	.	.	.	.	.	.	.	.	.	.	.	.	.	.	.	.	.	.	.	.
8C/	.	.	16G/	.	16r	.	16r	.	4G\	-di	4G/	-di	4cc\	-di	4ee\	-di	4c/	.	.	.	4e/)	.	4cc\)	.	4ee\	.	4ccc\	.
.	.	.	16G/	.	16cc|\LL	.	(16ee\LL	.	.	.	.	.	.	.	.	.	.	.	.	.	.	.	.	.	.	.	.	.
8r	.	.	16G/	.	(16ee\	.	16gg\	.	.	.	.	.	.	.	.	.	.	.	.	.	.	.	.	.	.	.	.	.
.	.	.	16G/JJ	.	16cc\JJ)	.	16ee\JJ)	.	.	.	.	.	.	.	.	.	.	.	.	.	.	.	.	.	.	.	.	.
!	!	!	!	!	!LO:LB:g=original	!	!	!	!	!	!	!	!	!	!	!	!	!	!	!	!	!	!	!	!	!	!	!
!	!	!	!	!	!	!	!	!	!	!	!	!	!	!	!	!	!	!	!	!	!	!	!	!	!	!	!LO:LB:g=original	!
=31	=31	=31	=31	=31	=31	=31	=31	=31	=31	=31	=31	=31	=31	=31	=31	=31	=31	=31	=31	=31	=31	=31	=31	=31	=31	=31	=31	=31
!	!	!	!	!	!	!LO:DY:a	!	!	!	!	!	!	!	!	!	!	!	!	!	!	!	!	!	!	!	!	!	!
*	*	*	*Xtremolo	*	*	*	*	*	*	*	*	*	*	*	*	*	*	*	*	*	*	*	*	*	*	*	*	*
4FF/ 4F	.	6 3	8A\L	.	16r	<	16r	.	8r	.	8r	.	8r	.	8r	.	8f\	.	8a\	.	8r	.	8r	.	8r	.	16r	.
!	!	!	!	!	!LO:TX:a:t=arco	!	!	!	!	!	!	!	!	!	!	!	!	!	!	!	!	!	!	!	!	!	!LO:N:vis=8	!
.	.	.	.	.	16f/LL	.	16dd|\LL	<	.	.	.	.	.	.	.	.	.	.	.	.	.	.	.	.	.	.	16r	.
.	.	.	(16f\L	.	(16a/	.	(16ff\	.	16r	.	16r	.	16r	.	16r	.	8r	.	8r	.	16r	.	16r	.	16r	.	8ddd|\	.
.	.	.	16a\JJ)	.	16f/JJ)	.	16dd\JJ)	.	16F\	ex-	16A\	ex-	16f\	ex-	16dd\	ex-	.	.	.	.	16f/	.	16dd|\	.	16ff|\	.	.	.
!LO:TX:t=P:problem:mixed beam	!	!	!	!	!	!	!	!	!	!	!	!	!	!	!	!	!	!	!	!	!	!	!	!	!	!	!	!
!	!	!	!	!	!	!	!	!	!	!	!	!	!	!	!LO:LB:g=original	!	!	!	!	!	!	!	!	!	!	!	!	!
8G\L	.	4	8g\L	.	(16f/LL	.	(16dd\LL	.	8G\	-au-	8G/	-au-	8e\	-au-	16dd\LL	-au-	8g\L	.	8g\L	.	8e/L	.	(8cc\L	.	(16ff\LL	.	(16ddd\LL	.
.	.	.	.	.	16e/)	.	16cc\)	.	.	.	.	.	.	.	16cc\JJ	.	.	.	.	.	.	.	.	.	16ee\)	.	16ccc\)	.
8GG/J	.	n	8g\J	.	(16e/	.	(16cc\	.	8GG/	-di	8G/	-di	8d\	-di	16cc\LL	-di	8g\J	.	8g\J	.	8d/J	.	8bn\J)	.	(16ee\	.	(16ccc\	.
.	.	.	.	.	16d/JJ)	[[	16bn\JJ)	[[	.	.	.	.	.	.	16bn\JJ	.	.	.	.	.	.	.	.	.	16dd\JJ)	.	16bbn\JJ)	.
!	!	!	!	!	!	!	!LO:LB:g=original	!	!	!	!	!	!	!	!	!	!	!	!	!	!	!	!	!	!	!	!	!
=32	=32	=32	=32	=32	=32	=32	=32	=32	=32	=32	=32	=32	=32	=32	=32	=32	=32	=32	=32	=32	=32	=32	=32	=32	=32	=32	=32	=32
4FF/ 4F	.	6	8a\L	.	16r	.	16r	.	8r	.	8r	.	8r	.	8r	.	8f\	.	8a\	.	8r	.	8r	.	8r	.	8r	.
!	!	!	!	!	!LO:TX:b:t=|	!	!LO:TX:b:t=Problem&colon; niejasna notatka dynamiczna	!	!	!	!	!	!	!	!	!	!	!	!	!	!	!	!	!	!	!	!	!
.	.	.	.	.	16f/LL	.	(16dd\LL	.	.	.	.	.	.	.	.	.	.	.	.	.	.	.	.	.	.	.	.	.
.	.	.	(16f\L	.	(16a/	.	16ff\	.	16r	.	16r	.	16r	.	16r	.	8r	.	8r	.	16r	.	16r	.	16r	.	16r	.
.	.	.	16a\JJ)	.	16f/JJ)	.	16dd\JJ)	.	16F\	ex-	16A\	ex-	16f\	ex-	16dd\	ex-	.	.	.	.	16f/	.	16dd\	.	16ff|\	.	16ddd|\	.
!LO:TX:t=P:problem:mixed beam	!	!	!	!	!	!	!	!	!	!	!	!	!	!	!	!	!	!	!	!	!	!	!	!	!	!	!	!
8G\L	.	.	8g\L	.	(16f/LL	.	(16dd\LL	.	8G\	-au-	8G/	-au-	8e\	-au-	16dd\LL	-au-	8g\L	.	8g\L	.	8e/L	.	8cc\L	.	(16ff\LL	.	(16ddd\LL	.
.	.	.	.	.	16e/)	.	16cc\)	.	.	.	.	.	.	.	16cc\JJ	.	.	.	.	.	.	.	.	.	16ee\)	.	16ccc\)	.
8GG/J	.	.	8g\J	.	(16e/	.	(16cc\	.	8GG/	-di	8G/	-di	8d\	-di	16cc\LL	-di	8g\J	.	8g\J	.	8d/J	.	8bn\J	.	(16ee\	.	(16ccc\	.
.	.	.	.	.	16d/JJ)	.	16bn\JJ)	.	.	.	.	.	.	.	16bn\JJ	.	.	.	.	.	.	.	.	.	16dd\JJ)	.	16bbn\JJ)	.
=33	=33	=33	=33	=33	=33	=33	=33	=33	=33	=33	=33	=33	=33	=33	=33	=33	=33	=33	=33	=33	=33	=33	=33	=33	=33	=33	=33	=33
!	!	!	!	!	!LO:TX:t=P:problem:mixed beam	!	!	!	!	!	!	!	!	!	!	!	!	!	!	!	!	!	!	!	!	!	!	!
8C\L	f	.	8g\L	f	16e/LL	f	16gg\LL	f	8C/	X-	8G/	X-	16cc\LL	X-	16ee\LL	X-	8g\L	f	8g\L	f	(16g/LL	f	8ee\L	f	4r	.	4r	.
.	.	.	.	.	(32dd\L	.	(32bbn\L	.	.	.	.	.	32b-\L	.	32dd\L	.	.	.	.	.	16cc/	.	.	.	.	.	.	.
.	.	.	.	.	32ee\JJJ)	.	32ccc\JJJ)	.	.	.	.	.	32cc\JJJ	.	32ee\JJJ	.	.	.	.	.	.	.	.	.	.	.	.	.
.	.	.	.	.	.	.	.	.	.	.	.	.	.	.	.	.	.	.	.	.	.	.	16qqgg/	.	.	.	.	.
16F\L	.	.	8a\	.	32gg\LLL	.	(32bb\LLL	.	16F\	-te	16G/	-te	32b-\LLL	-te	32gg\LLL	-te	8f\	.	8a\	.	16a/	.	(16ff\L	.	.	.	.	.
.	.	.	.	.	(32ff\	.	32aa\	.	.	.	.	.	32a\JJJ	.	32ff\JJJ	.	.	.	.	.	.	.	.	.	.	.	.	.
.	.	.	.	.	.	.	.	.	.	.	.	.	.	.	.	.	.	.	.	.	.	.	16qqee/	.	.	.	.	.
16D\JJ	.	.	.	.	32ee\	.	32gg\	.	16D\	ex-	16A/	ex-	32g\LLL	ex-	32ee\LLL	ex-	.	.	.	.	16f/JJ	.	16dd\JJ)	.	.	.	.	.
.	.	.	.	.	32dd\JJJ)	.	32ff\JJJ)	.	.	.	.	.	32f\JJJ	.	32dd\JJJ	.	.	.	.	.	.	.	.	.	.	.	.	.
!LO:TX:t=P:problem:mixed beam	!	!	!	!	!	!	!	!	!	!	!	!	!	!	!	!	!	!	!	!	!	!	!	!	!	!	!	!
8G/L	.	.	8g\	.	8cc\L	.	8ee\L	.	8G\	-au-	8G/	-au-	8e\	-au-	8cc\	-au-	8g\	.	8g\	.	8e/L)	.	8cc\L	.	8ccc\L	f	8eee\L	f
8GG/J	.	.	8g\J	.	8bn\J	.	8dd\J	.	8GG/	-di	8G/	-di	8d\	-di	8cc\	-di	8g\J	.	8g\J	.	8f/J	.	8bn\J	.	8bbn\J	.	8ddd\J	.
!	!	!	!	!	!	!	!	!	!LO:LB:g=original	!	!	!	!	!	!	!	!	!	!	!	!	!	!	!	!	!	!	!
!	!	!	!	!	!	!	!	!	!	!	!	!	!	!	!	!	!	!	!	!	!	!	!LO:LB:g=original	!	!	!	!	!
=34	=34	=34	=34	=34	=34	=34	=34	=34	=34	=34	=34	=34	=34	=34	=34	=34	=34	=34	=34	=34	=34	=34	=34	=34	=34	=34	=34	=34
!	!	!	!	!	!LO:TX:t=P:problem:mixed beam	!	!	!	!	!	!	!	!	!	!	!	!	!	!	!	!	!	!	!	!	!	!	!
4C/	.	.	8g\	.	8cc/L	.	8cc\L	.	8C/	nos	8G/	nos	8e\	nos	8cc\	nos	4c/	.	4g\	.	4e/	.	4cc\	.	4ccc\	.	4ccc\	.
.	.	.	8r	.	16e/L	.	(16gg\L	.	8r	.	8r	.	8r	.	8r	.	.	.	.	.	.	.	.	.	.	.	.	.
.	.	.	.	.	16c\JJ	.	16ee\JJ)	.	.	.	.	.	.	.	.	.	.	.	.	.	.	.	.	.	.	.	.	.
8r	.	.	8r	.	16d/LL	.	16ff|\LL	.	4r	.	4r	.	4r	.	4r	.	4r	.	4r	.	4r	.	4r	.	4r	.	4r	.
.	.	.	.	.	16f/	.	(16dd\	.	.	.	.	.	.	.	.	.	.	.	.	.	.	.	.	.	.	.	.	.
8GG/	.	.	8g\	.	16e/	.	16cc\	.	.	.	.	.	.	.	.	.	.	.	.	.	.	.	.	.	.	.	.	.
.	.	.	.	.	16d/JJ	.	16bn\JJ)	.	.	.	.	.	.	.	.	.	.	.	.	.	.	.	.	.	.	.	.	.
=35	=35	=35	=35	=35	=35	=35	=35	=35	=35	=35	=35	=35	=35	=35	=35	=35	=35	=35	=35	=35	=35	=35	=35	=35	=35	=35	=35	=35
*k[]	*	*	*k[]	*	*k[]	*	*k[]	*	*k[]	*	*k[]	*	*k[]	*	*k[]	*	*k[]	*	*k[]	*	*k[]	*	*k[]	*	*k[]	*	*k[]	*
*M3/4	*	*	*M3/4	*	*M3/4	*	*M3/4	*	*M3/4	*	*M3/4	*	*M3/4	*	*M3/4	*	*M3/4	*	*M3/4	*	*M3/4	*	*M3/4	*	*M3/4	*	*M3/4	*
!LO:TX:b:t=Tutti	!	!	!	!	!	!	!	!	!	!	!	!	!	!	!	!	!	!	!	!	!LO:TX:b:t=Pater	!	!LO:TX:a:t=Allegro Vivace	!	!	!	!	!
!LO:TX:a:t=Allegro Molto	!	!	!LO:TX:a:t=Allegro Molto	!	!LO:TX:a:t=Allegro Molto	!	!LO:TX:a:t=Allegro Molto.	!	!LO:TX:a:t=Allegro Molto	!	!LO:TX:a:t=Allo&colon; Molto	!	!LO:TX:a:t=Allegro molto	!	!LO:TX:a:t=Allegro molto	!	!LO:TX:a:t=Allegro molto	!	!LO:TX:a:t=Allegro molto	!	!LO:TX:a:t=Allegro Vivace	!	!LO:TX:b:t=Pater	!	!LO:TX:a:t=Allegro molto	!	!LO:TX:a:t=Allegro Molto.	!
.	.	.	.	.	.	.	16qqaa/	f	.	.	.	.	.	.	.	.	.	.	.	.	.	.	.	.	.	.	.	.
!	!LO:DY:a	!	!	!	!	!	!	!	!	!	!	!	!	!	!	!	!	!	!	!	!	!LO:DY:a	!	!	!	!	!	!
!	!	!	!	!	!	!	!	!	!	!	!LO:LB:g=original	!	!	!	!	!	!	!	!	!	!	!	!	!	!	!	!	!
!	!	!	!	!	!	!	!	!	!	!	!	!	!	!	!LO:LB:g=original	!	!	!	!	!	!	!	!	!	!	!	!	!
4C/	f	.	4c\	f	8ee\L	f	8gg\L	.	4c\	Pa-	4e\	Pa-	4g\	Pa-	4gg\	Pa-	4c/	f	4g\	f	4ee\	f	4gg\	f	4ee\	f	4gg\	f
.	.	.	.	.	16dd\L	.	16ff\L	.	.	.	.	.	.	.	.	.	.	.	.	.	.	.	.	.	.	.	.	.
.	.	.	.	.	16ee\JJ	.	16gg\JJ	.	.	.	.	.	.	.	.	.	.	.	.	.	.	.	.	.	.	.	.	.
8r	.	.	8r	.	4cc\	.	4ee\	.	4C/	-ter	4c\	-ter	4g\	-ter	4ee\	-ter	4c/	.	4g\	.	4cc\	.	4ee\	.	4cc\	.	4ee\	.
8C\L	.	.	8C/L	.	.	.	.	.	.	.	.	.	.	.	.	.	.	.	.	.	.	.	.	.	.	.	.	.
8E\	.	.	8E/	.	4r	.	4r	.	4r	.	4r	.	4r	.	4r	.	4r	.	4r	.	4r	.	4r	.	4r	.	4r	.
8G\J	.	.	8G/J	.	.	.	.	.	.	.	.	.	.	.	.	.	.	.	.	.	.	.	.	.	.	.	.	.
!LO:LB:g=original	!	!	!	!	!	!	!	!	!	!	!	!	!	!	!	!	!	!	!	!	!	!	!	!	!	!	!	!
!	!	!	!	!	!	!	!	!	!	!	!	!	!	!	!	!	!	!	!	!	!	!	!	!	!LO:LB:g=original	!	!	!
=36	=36	=36	=36	=36	=36	=36	=36	=36	=36	=36	=36	=36	=36	=36	=36	=36	=36	=36	=36	=36	=36	=36	=36	=36	=36	=36	=36	=36
.	.	.	.	.	.	.	16qqff/	.	.	.	.	.	.	.	.	.	.	.	.	.	.	.	.	.	.	.	.	.
4c\	.	.	4c\	.	8g/L	.	8ee\L	.	4c\	Pa-	4G/	Pa-	4g\	Pa-	4ee\	Pa-	4c/	.	4g\	.	4g|/	.	4ee\	.	4gg\	.	4eee\	.
.	.	.	.	.	16f/L	.	16dd\L	.	.	.	.	.	.	.	.	.	.	.	.	.	.	.	.	.	.	.	.	.
.	.	.	.	.	16g/JJ	.	16ee\JJ	.	.	.	.	.	.	.	.	.	.	.	.	.	.	.	.	.	.	.	.	.
8r	.	.	8r	.	4e/	.	4cc\	.	4C/	-ter	4E/	-ter	4g\	-ter	4cc\	-ter	4c/	.	4g\	.	4e|/	.	4cc\	.	4ee\	.	4ccc\	.
8C\L	.	.	8c\L	.	.	.	.	.	.	.	.	.	.	.	.	.	.	.	.	.	.	.	.	.	.	.	.	.
8E\	.	.	8e\	.	4r	.	4r	.	4r	.	4r	.	4r	.	4r	.	4r	.	4r	.	4r	.	4r	.	4r	.	4r	.
8C\J	.	.	8c\J	.	.	.	.	.	.	.	.	.	.	.	.	.	.	.	.	.	.	.	.	.	.	.	.	.
!	!	!	!	!	!LO:LB:g=original	!	!	!	!	!	!	!	!	!	!	!	!	!	!	!	!	!	!	!	!	!	!	!
!	!	!	!	!	!	!	!	!	!	!	!	!	!	!	!	!	!	!	!	!	!LO:LB:g=original	!	!	!	!	!	!	!
=37	=37	=37	=37	=37	=37	=37	=37	=37	=37	=37	=37	=37	=37	=37	=37	=37	=37	=37	=37	=37	=37	=37	=37	=37	=37	=37	=37	=37
!LO:TX:t=P:problem:mixed beam	!	!	!LO:TX:t=P:problem:mixed beam	!	!	!	!	!	!	!	!	!	!	!	!	!	!	!	!	!	!	!	!	!	!	!	!	!
8GG/L	.	5 3	8G/L	.	8a/|\L	.	8dd|\L	.	4G\	de	4B\	de	4g\	de	4dd\	de	4g\	.	4g\	.	(4b\	.	4dd\	.	4bb\	.	4ddd\	.
8G\	.	.	8g\	.	(8b\	.	(8dd\	.	.	.	.	.	.	.	.	.	.	.	.	.	.	.	.	.	.	.	.	.
8GG/	.	6 4	8G/	.	8cc\)	.	8ee\)	.	4B\	Coe-	4c\	Coe-	4g\	Coe-	4ee\	Coe-	4r	.	4r	.	4cc\	.	4ee\	.	4ccc\	.	4eee\	.
8G\	.	.	8g\	.	(8cc\	.	(8ee\	.	.	.	.	.	.	.	.	.	.	.	.	.	.	.	.	.	.	.	.	.
8GG/	.	7 5	8G/	.	8dd\)	.	8ff\)	.	4G\	-lis	4d\	-lis	4g\	-lis	4ff\	-lis	4g\	.	4g\	.	4dd\)	.	4ff\	.	4ddd\	.	4fff\	.
8G\J	.	.	8g\J	.	8dd|\J	.	8ff|\J	.	.	.	.	.	.	.	.	.	.	.	.	.	.	.	.	.	.	.	.	.
!	!	!	!LO:LB:g=original	!	!	!	!	!	!	!	!	!	!	!	!	!	!	!	!	!	!	!	!	!	!	!	!	!
=38	=38	=38	=38	=38	=38	=38	=38	=38	=38	=38	=38	=38	=38	=38	=38	=38	=38	=38	=38	=38	=38	=38	=38	=38	=38	=38	=38	=38
.	.	.	.	.	.	.	16qqgg/	.	.	.	.	.	.	.	16qqgg/	.	.	.	.	.	.	.	16qqgg/	.	.	.	.	.
4C/	.	5 3	4c\	.	4dd\	.	8ff\L	.	4c\	de-	4d\	de-	4g\	de-	4ff\	De-	4c/	.	4g\	.	4dd|\	.	4ff\	.	4ddd\	.	4fff\	.
.	.	.	.	.	.	.	16ee\L	.	.	.	.	.	.	.	.	.	.	.	.	.	.	.	.	.	.	.	.	.
.	.	.	.	.	.	.	16ff\JJ	.	.	.	.	.	.	.	.	.	.	.	.	.	.	.	.	.	.	.	.	.
8r	.	.	8r	.	4cc\	.	4ee\	.	4C/	-us	4c\	-us	4g\	-us	4ee\	-us	4c/	.	4g\	.	4cc|\	.	4ee\	.	4ccc\	.	4eee\	.
8c\L	.	.	8cc\L	.	.	.	.	.	.	.	.	.	.	.	.	.	.	.	.	.	.	.	.	.	.	.	.	.
8G\	.	.	8g\	.	4r	.	4r	.	4r	.	4r	.	4r	.	4r	.	4r	.	4r	.	4r	.	4r	.	4r	.	4r	.
8E\J	.	.	8e\J	.	.	.	.	.	.	.	.	.	.	.	.	.	.	.	.	.	.	.	.	.	.	.	.	.
!	!	!	!	!	!	!	!LO:LB:g=original	!	!	!	!	!	!	!	!	!	!	!	!	!	!	!	!	!	!	!	!	!
!	!	!	!	!	!	!	!	!	!	!	!	!	!	!	!LO:LB:g=original	!	!	!	!	!	!	!	!	!	!	!	!LO:LB:g=original	!
=39	=39	=39	=39	=39	=39	=39	=39	=39	=39	=39	=39	=39	=39	=39	=39	=39	=39	=39	=39	=39	=39	=39	=39	=39	=39	=39	=39	=39
.	.	.	.	.	16qqff/	.	16qqaa/	.	.	.	.	.	.	.	.	.	.	.	.	.	.	.	.	.	.	.	.	.
4C/	.	.	4c\	.	8ee\L	.	8gg\L	.	4c\	Pa-	4e\	Pa-	4g\	mi-	4gg\	Pa-	4c/	.	4g\	.	4ee|\	.	4gg\	.	4ee\	.	4gg\	.
.	.	.	.	.	16dd\L	.	(16ff\L	.	.	.	.	.	.	.	.	.	.	.	.	.	.	.	.	.	.	.	.	.
.	.	.	.	.	16ee\JJ	.	16gg\JJ)	.	.	.	.	.	.	.	.	.	.	.	.	.	.	.	.	.	.	.	.	.
8r	.	.	8r	.	4cc\	.	4ee\	.	4C/	-ter	4c\	-ter	4g\	-se-	4ee\	-ter	8r	.	8r	.	4cc|\	.	4ee\	.	4cc\	.	4ee\	.
8C\L	.	.	8C/L	.	.	.	.	.	.	.	.	.	.	.	.	.	8c/L	.	8g\L	.	.	.	.	.	.	.	.	.
8E\	.	.	8E/	.	4r	.	4r	.	4r	.	4r	.	4r	.	4r	.	8c/	.	8g\	.	4r	.	4r	.	4r	.	4r	.
8G\J	.	.	8G/J	.	.	.	.	.	.	.	.	.	.	.	.	.	8c/J	.	8g\J	.	.	.	.	.	.	.	.	.
!	!	!	!	!	!	!	!	!	!	!	!	!	!	!	!	!	!LO:LB:g=original	!	!	!	!	!	!	!	!	!	!	!
!	!	!	!	!	!	!	!	!	!	!	!	!	!	!	!	!	!	!	!LO:LB:g=original	!	!	!	!	!	!	!	!	!
=40	=40	=40	=40	=40	=40	=40	=40	=40	=40	=40	=40	=40	=40	=40	=40	=40	=40	=40	=40	=40	=40	=40	=40	=40	=40	=40	=40	=40
.	.	.	.	.	.	.	16qqff/	.	.	.	.	.	.	.	.	.	.	.	.	.	.	.	.	.	.	.	.	.
4c\	.	.	4c\	.	8g/L	.	8ee\L	.	4c\	Pa-	4G/	Pa-	4g\	-re-	4ee\	Pa-	4c/	.	4g\	.	4g|/	.	4ee\	.	4gg\	.	4eee\	.
.	.	.	.	.	16f/L	.	(16dd\L	.	.	.	.	.	.	.	.	.	.	.	.	.	.	.	.	.	.	.	.	.
.	.	.	.	.	16g/JJ	.	16ee\JJ)	.	.	.	.	.	.	.	.	.	.	.	.	.	.	.	.	.	.	.	.	.
8r	.	.	8r	.	4e/	.	4cc\	.	4C/	-ter	4E/	-ter	4g\	-re	4cc\	-ter	8r	.	8r	.	4e|/	.	4cc\	.	4ee\	.	4ccc\	.
8C/L	.	.	8c\L	.	.	.	.	.	.	.	.	.	.	.	.	.	8c/L	.	8g\L	.	.	.	.	.	.	.	.	.
8E/	.	.	8e\	.	4r	.	4r	.	4r	.	4r	.	4r	.	4r	.	8c/	.	8g\	.	4r	.	4r	.	4r	.	4r	.
8C/J	.	.	8c\J	.	.	.	.	.	.	.	.	.	.	.	.	.	8c/J	.	8g\J	.	.	.	.	.	.	.	.	.
=41	=41	=41	=41	=41	=41	=41	=41	=41	=41	=41	=41	=41	=41	=41	=41	=41	=41	=41	=41	=41	=41	=41	=41	=41	=41	=41	=41	=41
!LO:TX:t=P:problem:mixed beam	!	!	!LO:TX:t=P:problem:mixed beam	!	!	!	!LO:TX:a:t=|	!	!	!	!	!	!	!	!	!	!	!	!	!	!	!	!	!	!	!	!	!
8GG/L	p	.	8G/L	p	8d/L	p	8b|\L	p	4G\	de	4d\	de	4g\	de	4b\	de	4g\	p	4g\	p	4d/	p	4b\	p	4dd\	p	4bb\	p
8G\	.	.	8g\	.	(8d/	.	(8b\	.	.	.	.	.	.	.	.	.	.	.	.	.	.	.	.	.	.	.	.	.
8GG/	.	.	8G/	.	8e/)	.	8cc\)	.	4G\	Coe-	4e\	Coe-	4g\	Coe-	4cc\	Coe-	4r	.	4r	.	4e/	.	4cc\	.	4ee\	.	4ccc\	.
8G\	.	.	8g\	.	(8e/	.	(8cc\	.	.	.	.	.	.	.	.	.	.	.	.	.	.	.	.	.	.	.	.	.
8GG/	.	.	8G/	.	8f/)	.	8dd\)	.	4G\	-lis	4f\	-lis	4g\	-lis	4dd\	-lis	4g\	.	4g\	.	4f/	.	4dd\	.	4ff\	.	4ddd\	.
8G\J	.	.	8g\J	.	8f|/J	.	8dd|\J	.	.	.	.	.	.	.	.	.	.	.	.	.	.	.	.	.	.	.	.	.
=42	=42	=42	=42	=42	=42	=42	=42	=42	=42	=42	=42	=42	=42	=42	=42	=42	=42	=42	=42	=42	=42	=42	=42	=42	=42	=42	=42	=42
.	.	.	.	.	.	.	16qqee/	.	.	.	.	.	.	.	.	.	.	.	.	.	.	.	.	.	.	.	.	.
4C/	.	.	4c\	.	4f/	.	8dd\L	.	4c\	De-	4f\	de-	4g\	de-	4dd\	De-	4c/	.	4g\	.	4f/	.	4dd\	.	4ff\	.	4ddd\	.
.	.	.	.	.	.	.	16cc\L	.	.	.	.	.	.	.	.	.	.	.	.	.	.	.	.	.	.	.	.	.
.	.	.	.	.	.	.	16dd\JJ	.	.	.	.	.	.	.	.	.	.	.	.	.	.	.	.	.	.	.	.	.
8r	.	.	8r	.	4e/	.	4cc\	.	4C/	-us	4e\	-us	4g\	-us	4cc\	-us	4c/	.	4g\	.	4e/	.	4cc\	.	4ee\	.	4ccc\	.
8G\L	.	.	8g\L	.	.	.	.	.	.	.	.	.	.	.	.	.	.	.	.	.	.	.	.	.	.	.	.	.
8E\	.	.	8e\	.	4r	.	4r	.	4r	.	4r	.	4r	.	4r	.	4r	.	4r	.	4r	.	4r	.	4r	.	4r	.
8C\J	.	.	8c\J	.	.	.	.	.	.	.	.	.	.	.	.	.	.	.	.	.	.	.	.	.	.	.	.	.
!	!	!	!	!	!	!	!	!	!LO:LB:g=original	!	!	!	!	!	!	!	!	!	!	!	!	!	!	!	!	!	!	!
=43	=43	=43	=43	=43	=43	=43	=43	=43	=43	=43	=43	=43	=43	=43	=43	=43	=43	=43	=43	=43	=43	=43	=43	=43	=43	=43	=43	=43
*tremolo	*	*	*tremolo	*	*	*	*	*	*	*	*	*	*	*	*	*	*	*	*	*	*	*	*	*	*	*	*	*
8E\L	f	.	8c\L	f	16ff\LL	f	16aa\LL	f	2.F\	mi-	2.c\	mi-	2.a\	mi-	2.ff\	mi-	2.f\	f	2.a\	f	2.ff\	f	2.aa\	f	2.ff\	f	2.aa\	f
.	.	.	.	.	16ff\	.	16aa\	.	.	.	.	.	.	.	.	.	.	.	.	.	.	.	.	.	.	.	.	.
8E\	.	.	8c\	.	16ff\	.	16aa\	.	.	.	.	.	.	.	.	.	.	.	.	.	.	.	.	.	.	.	.	.
.	.	.	.	.	16ff\JJ	.	16aa\JJ	.	.	.	.	.	.	.	.	.	.	.	.	.	.	.	.	.	.	.	.	.
*	*	*	*	*	*tremolo	*	*tremolo	*	*	*	*	*	*	*	*	*	*	*	*	*	*	*	*	*	*	*	*	*
8E\	.	.	8c\	.	16ff\LL	.	16aa\LL	.	.	.	.	.	.	.	.	.	.	.	.	.	.	.	.	.	.	.	.	.
.	.	.	.	.	16ff\	.	16aa\	.	.	.	.	.	.	.	.	.	.	.	.	.	.	.	.	.	.	.	.	.
8E\	.	.	8c\	.	16ff\	.	16aa\	.	.	.	.	.	.	.	.	.	.	.	.	.	.	.	.	.	.	.	.	.
.	.	.	.	.	16ff\	.	16aa\	.	.	.	.	.	.	.	.	.	.	.	.	.	.	.	.	.	.	.	.	.
8E\	.	.	8c\	.	16ff\	.	16aa\	.	.	.	.	.	.	.	.	.	.	.	.	.	.	.	.	.	.	.	.	.
.	.	.	.	.	16ff\	.	16aa\	.	.	.	.	.	.	.	.	.	.	.	.	.	.	.	.	.	.	.	.	.
8E\J	.	.	8c\J	.	16ff\	.	16aa\	.	.	.	.	.	.	.	.	.	.	.	.	.	.	.	.	.	.	.	.	.
.	.	.	.	.	16ff\JJ	.	16aa\JJ	.	.	.	.	.	.	.	.	.	.	.	.	.	.	.	.	.	.	.	.	.
!	!	!	!	!	!	!	!	!	!	!	!	!	!	!	!	!	!	!	!	!	!	!	!LO:LB:g=original	!	!	!	!	!
=44	=44	=44	=44	=44	=44	=44	=44	=44	=44	=44	=44	=44	=44	=44	=44	=44	=44	=44	=44	=44	=44	=44	=44	=44	=44	=44	=44	=44
8C/L	.	.	8c\L	.	16ee\LL	.	16gg\LL	.	2.C/	-se-	2.c\	-se-	2.g\	-se-	2.ee\	-se-	2.c/	.	2.g\	.	2.ee\	.	2.gg\	.	2.ee\	.	2.gg\	.
.	.	.	.	.	16ee\	.	16gg\	.	.	.	.	.	.	.	.	.	.	.	.	.	.	.	.	.	.	.	.	.
8C/	.	.	8c\	.	16ee\	.	16gg\	.	.	.	.	.	.	.	.	.	.	.	.	.	.	.	.	.	.	.	.	.
.	.	.	.	.	16ee\	.	16gg\	.	.	.	.	.	.	.	.	.	.	.	.	.	.	.	.	.	.	.	.	.
8C/	.	.	8c\	.	16ee\	.	16gg\	.	.	.	.	.	.	.	.	.	.	.	.	.	.	.	.	.	.	.	.	.
.	.	.	.	.	16ee\	.	16gg\	.	.	.	.	.	.	.	.	.	.	.	.	.	.	.	.	.	.	.	.	.
8C/	.	.	8c\	.	16ee\	.	16gg\	.	.	.	.	.	.	.	.	.	.	.	.	.	.	.	.	.	.	.	.	.
.	.	.	.	.	16ee\	.	16gg\	.	.	.	.	.	.	.	.	.	.	.	.	.	.	.	.	.	.	.	.	.
8C/	.	.	8c\	.	16ee\	.	16gg\	.	.	.	.	.	.	.	.	.	.	.	.	.	.	.	.	.	.	.	.	.
.	.	.	.	.	16ee\	.	16gg\	.	.	.	.	.	.	.	.	.	.	.	.	.	.	.	.	.	.	.	.	.
8C/J	.	.	8c\J	.	16ee\	.	16gg\	.	.	.	.	.	.	.	.	.	.	.	.	.	.	.	.	.	.	.	.	.
.	.	.	.	.	16ee\JJ	.	16gg\JJ	.	.	.	.	.	.	.	.	.	.	.	.	.	.	.	.	.	.	.	.	.
*Xtremolo	*	*	*Xtremolo	*	*	*	*	*	*	*	*	*	*	*	*	*	*	*	*	*	*	*	*	*	*	*	*	*
=45	=45	=45	=45	=45	=45	=45	=45	=45	=45	=45	=45	=45	=45	=45	=45	=45	=45	=45	=45	=45	=45	=45	=45	=45	=45	=45	=45	=45
8GG/L	.	.	8d\L	.	16dd\LL	.	16ff\LL	.	2BB/	-re-	(4d\	-re-	(4f\	-re-	(4dd\	-re-	4g\	.	4g\	.	2dd\	.	2ff\	.	4dd\	.	4ff\	.
.	.	.	.	.	16dd\	.	16ff\	.	.	.	.	.	.	.	.	.	.	.	.	.	.	.	.	.	.	.	.	.
8GG/	.	.	8d\J	.	16dd\	.	16ff\	.	.	.	.	.	.	.	.	.	.	.	.	.	.	.	.	.	.	.	.	.
.	.	.	.	.	16dd\JJ	.	16ff\JJ	.	.	.	.	.	.	.	.	.	.	.	.	.	.	.	.	.	.	.	.	.
*	*	*	*tremolo	*	*	*	*	*	*	*	*	*	*	*	*	*	*	*	*	*	*	*	*	*	*	*	*	*
8BB/	.	.	8g\L	.	16ff\LL	.	16ddd\LL	.	.	.	4f\)	.	4d\)	.	4b\)	.	4r	.	4r	.	.	.	.	.	4ff\	.	4ddd\	.
.	.	.	.	.	16ff\	.	16ddd\	.	.	.	.	.	.	.	.	.	.	.	.	.	.	.	.	.	.	.	.	.
8BB/	.	.	8g\	.	16ff\	.	16ddd\	.	.	.	.	.	.	.	.	.	.	.	.	.	.	.	.	.	.	.	.	.
.	.	.	.	.	16ff\JJ	.	16ddd\JJ	.	.	.	.	.	.	.	.	.	.	.	.	.	.	.	.	.	.	.	.	.
8C/	.	.	8g\	.	16ee\LL	.	16ccc\LL	.	4C/	-re	4e\	-re	4e\	-re	4cc\	-re	4g\	.	4g\	.	4cc\	.	4ee\	.	4ee\	.	4ccc\	.
.	.	.	.	.	16ee\	.	16ccc\	.	.	.	.	.	.	.	.	.	.	.	.	.	.	.	.	.	.	.	.	.
8C/J	.	.	8g\J	.	16ee\	.	16ccc\	.	.	.	.	.	.	.	.	.	.	.	.	.	.	.	.	.	.	.	.	.
.	.	.	.	.	16ee\JJ	.	16ccc\JJ	.	.	.	.	.	.	.	.	.	.	.	.	.	.	.	.	.	.	.	.	.
!LO:LB:g=original	!	!	!	!	!	!	!	!	!	!	!	!	!	!	!	!	!	!	!	!	!	!	!	!	!	!	!	!
*	*	*	*Xtremolo	*	*Xtremolo	*	*	*	*	*	*	*	*	*	*	*	*	*	*	*	*	*	*	*	*	*	*	*
=46	=46	=46	=46	=46	=46	=46	=46	=46	=46	=46	=46	=46	=46	=46	=46	=46	=46	=46	=46	=46	=46	=46	=46	=46	=46	=46	=46	=46
4GG/	.	.	4g\	.	4ee\	.	4ccc\	.	4G\	no-	4e\	no-	4e\	no-	4cc\	no-	4g\	.	4g\	.	4cc\	.	4ee\	.	4ee\	.	4ccc\	.
8r	.	.	4g\	.	4dd\	.	4bb\	.	4GG/	-bis	4d\	-bis	4d\	-bis	4b\	-bis	4g\	.	4g\	.	4b\	.	4dd\	.	4dd\	.	4bb\	.
8G|\L	.	.	.	.	.	.	.	.	.	.	.	.	.	.	.	.	.	.	.	.	.	.	.	.	.	.	.	.
8D|\	.	.	4r	.	4r	.	4r	.	4r	.	4r	.	4r	.	4r	.	4r	.	4r	.	4r	.	4r	.	4r	.	4r	.
8BB|\J	.	.	.	.	.	.	.	.	.	.	.	.	.	.	.	.	.	.	.	.	.	.	.	.	.	.	.	.
!	!	!	!	!	!	!	!	!	!	!	!LO:LB:g=original	!	!	!	!	!	!	!	!	!	!	!	!	!	!LO:LB:g=original	!	!	!
=47	=47	=47	=47	=47	=47	=47	=47	=47	=47	=47	=47	=47	=47	=47	=47	=47	=47	=47	=47	=47	=47	=47	=47	=47	=47	=47	=47	=47
4GG/	.	5 3	8d\L	.	8d/ 8b	.	16dd|\LL	.	4G\	Fi-	4B\	Fi-	4g\	Fi-	4dd\	Fi-	4g\	.	4g\	.	2.b\	.	2.dd\	.	2.dd\	.	16dd\LL	.
.	.	.	.	.	.	.	(16gg\	.	.	.	.	.	.	.	.	.	.	.	.	.	.	.	.	.	.	.	(16gg\	.
.	.	.	8g\	.	4d/ 4b	.	16ff#X\)	.	.	.	.	.	.	.	.	.	.	.	.	.	.	.	.	.	.	.	16ff#X\	.
.	.	.	.	.	.	.	16gg\JJ	.	.	.	.	.	.	.	.	.	.	.	.	.	.	.	.	.	.	.	16gg\JJ)	.
8BB/L	.	.	8a\	.	.	.	16aa\LL	.	4G\	-li	4B\	-li	4g\	-li	4dd\	-li	8r	.	8r	.	.	.	.	.	.	.	16aa\LL	.
.	.	.	.	.	.	.	(16gg\	.	.	.	.	.	.	.	.	.	.	.	.	.	.	.	.	.	.	.	(16gg\	.
8GG/	.	.	8g\	.	4d/ 4b	.	16ff#\	.	.	.	.	.	.	.	.	.	8g\L	.	8g\L	.	.	.	.	.	.	.	16ff#\	.
.	.	.	.	.	.	.	16gg\JJ)	.	.	.	.	.	.	.	.	.	.	.	.	.	.	.	.	.	.	.	16gg\JJ)	.
8BB/	.	.	8b\	.	.	.	16bb\LL	.	4G\	Re-	4B\	Re-	4g\	Re-	4dd\	Re-	8g\	.	8g\	.	.	.	.	.	.	.	16bb\LL	.
.	.	.	.	.	.	.	16gg\	.	.	.	.	.	.	.	.	.	.	.	.	.	.	.	.	.	.	.	(16gg\	.
8GG/J	.	.	8g\J	.	8d/ 8b	.	16ff#\	.	.	.	.	.	.	.	.	.	8g\J	.	8g\J	.	.	.	.	.	.	.	16ff#\)	.
.	.	.	.	.	.	.	16gg\JJ	.	.	.	.	.	.	.	.	.	.	.	.	.	.	.	.	.	.	.	16gg\JJ	.
!	!	!	!LO:LB:g=original	!	!	!	!	!	!	!	!	!	!	!	!	!	!	!	!	!	!	!	!	!	!	!	!	!
!	!	!	!	!	!LO:LB:g=original	!	!	!	!	!	!	!	!	!	!	!	!	!	!	!	!	!	!	!	!	!	!	!
!	!	!	!	!	!	!	!LO:LB:g=original	!	!	!	!	!	!	!	!	!	!	!	!	!	!	!	!	!	!	!	!	!
!	!	!	!	!	!	!	!	!	!	!	!	!	!LO:LB:g=original	!	!	!	!	!	!	!	!	!	!	!	!	!	!	!
=48	=48	=48	=48	=48	=48	=48	=48	=48	=48	=48	=48	=48	=48	=48	=48	=48	=48	=48	=48	=48	=48	=48	=48	=48	=48	=48	=48	=48
8C/L	.	3	8e\L	.	8e/ 8cc	.	16ee\LL	.	2C/	-dem-	2c\	-dem-	2g\	-dem-	2ee\	-dem-	4c/	.	4g\	.	2.cc\	.	2.ee\	.	2.ee\	.	16ee\LL	.
.	.	.	.	.	.	.	(16gg\	.	.	.	.	.	.	.	.	.	.	.	.	.	.	.	.	.	.	.	(16gg\	.
8GG/	.	.	8g\	.	4e/ 4cc	.	16ff#X\)	.	.	.	.	.	.	.	.	.	.	.	.	.	.	.	.	.	.	.	16ff#X\)	.
.	.	.	.	.	.	.	16gg\JJ	.	.	.	.	.	.	.	.	.	.	.	.	.	.	.	.	.	.	.	16gg\JJ	.
!	!	!	!	!	!	!	!	!	!	!	!	!	!	!	!	!	!	!	!	!	!	!	!	!	!	!	!LO:LB:g=original	!
8C/	.	.	8a\	.	.	.	16aa|\LL	.	.	.	.	.	.	.	.	.	8r	.	8r	.	.	.	.	.	.	.	16aa\LL	.
.	.	.	.	.	.	.	(16gg\	.	.	.	.	.	.	.	.	.	.	.	.	.	.	.	.	.	.	.	(16gg\	.
8GG/	.	.	8g\	.	4e/ 4cc	.	16ff#\	.	.	.	.	.	.	.	.	.	8c/L	.	8g\L	.	.	.	.	.	.	.	16ff#\	.
.	.	.	.	.	.	.	16gg\JJ)	.	.	.	.	.	.	.	.	.	.	.	.	.	.	.	.	.	.	.	16gg\JJ)	.
8C/	.	.	8cc\	.	.	.	16ccc\LL	.	4C/	-ptor	4c\	-ptor	4g\	-ptor	4ee\	-ptor	8c/	.	8g\	.	.	.	.	.	.	.	16ccc\LL	.
.	.	.	.	.	.	.	(16gg\	.	.	.	.	.	.	.	.	.	.	.	.	.	.	.	.	.	.	.	(16gg\	.
8GG/J	.	.	8g\J	.	8e/ 8cc	.	16ff#\	.	.	.	.	.	.	.	.	.	8c/J	.	8g\J	.	.	.	.	.	.	.	16ff#\	.
.	.	.	.	.	.	.	16gg\JJ)	.	.	.	.	.	.	.	.	.	.	.	.	.	.	.	.	.	.	.	16gg\JJ)	.
*	*	*	*	*	*	*	*Xtremolo	*	*	*	*	*	*	*	*	*	*	*	*	*	*	*	*	*	*	*	*	*
=49	=49	=49	=49	=49	=49	=49	=49	=49	=49	=49	=49	=49	=49	=49	=49	=49	=49	=49	=49	=49	=49	=49	=49	=49	=49	=49	=49	=49
8BB/L	.	.	8d\L	.	8d/ 8b	.	16dd|\LL	.	2G\	mun-	2B\	mun-	2g\	mun-	2dd\	mun-	4g\	.	4g\	.	2.b\	.	2.dd\	.	2.dd\	.	16dd\LL	.
.	.	.	.	.	.	.	(16gg\	.	.	.	.	.	.	.	.	.	.	.	.	.	.	.	.	.	.	.	(16gg\	.
8GG/	.	.	8g\	.	4d/ 4b	.	16ff#X\	.	.	.	.	.	.	.	.	.	.	.	.	.	.	.	.	.	.	.	16ff#X\)	.
.	.	.	.	.	.	.	16gg\JJ)	.	.	.	.	.	.	.	.	.	.	.	.	.	.	.	.	.	.	.	16gg\JJ	.
8BB/	.	.	8a\	.	.	.	16aa\LL	.	.	.	.	.	.	.	.	.	8r	.	8r	.	.	.	.	.	.	.	16aa\LL	.
.	.	.	.	.	.	.	16gg\	.	.	.	.	.	.	.	.	.	.	.	.	.	.	.	.	.	.	.	(16gg\	.
8GG/	.	.	8g\	.	4d/ 4b	.	16ff#\	.	.	.	.	.	.	.	.	.	8g\L	.	8g\L	.	.	.	.	.	.	.	16ff#\	.
.	.	.	.	.	.	.	16gg\JJ	.	.	.	.	.	.	.	.	.	.	.	.	.	.	.	.	.	.	.	16gg\JJ)	.
8BB/	.	.	8b\	.	.	.	16bb\LL	.	4G\	-di	4B\	-di	4g\	-di	4dd\	-di	8g\	.	8g\	.	.	.	.	.	.	.	16bb\LL	.
.	.	.	.	.	.	.	16gg\	.	.	.	.	.	.	.	.	.	.	.	.	.	.	.	.	.	.	.	(16gg\	.
8GG/J	.	.	8g\J	.	8d/ 8b	.	16ff#\	.	.	.	.	.	.	.	.	.	8g\J	.	8g\J	.	.	.	.	.	.	.	16ff#\	.
.	.	.	.	.	.	.	16gg\JJ	.	.	.	.	.	.	.	.	.	.	.	.	.	.	.	.	.	.	.	16gg\JJ)	.
!	!	!	!	!	!	!	!	!	!	!	!	!	!	!	!	!	!	!	!	!	!LO:LB:g=original	!	!	!	!	!	!	!
=50	=50	=50	=50	=50	=50	=50	=50	=50	=50	=50	=50	=50	=50	=50	=50	=50	=50	=50	=50	=50	=50	=50	=50	=50	=50	=50	=50	=50
8C/L	.	.	8e\L	.	16cc\LL	.	16aa\LL	.	(4c\	De-	(4e\	De-	(4a\	de-	(4cc\	de-	4c/	.	4g\	.	4a/	.	4cc\	.	8cc\L	.	(8aa\L	.
.	.	.	.	.	16cc\	.	16aa\	.	.	.	.	.	.	.	.	.	.	.	.	.	.	.	.	.	.	.	.	.
8C/	.	.	8e\J	.	16a\	.	16cc\	.	.	.	.	.	.	.	.	.	.	.	.	.	.	.	.	.	8aa\	.	8ccc\)	.
.	.	.	.	.	16a\JJ	.	16cc\JJ	.	.	.	.	.	.	.	.	.	.	.	.	.	.	.	.	.	.	.	.	.
*	*	*	*tremolo	*	*	*	*	*	*	*	*	*	*	*	*	*	*	*	*	*	*	*	*	*	*	*	*	*
8D/	.	4	8d\L	.	16g/LL	.	16b\LL	.	4d\)	.	2d\)	.	4g\	.	4b\	.	4r	.	4r	.	4g/	.	4b\	.	8gg\	.	8bb|\	.
.	.	.	.	.	16g/	.	16b\	.	.	.	.	.	.	.	.	.	.	.	.	.	.	.	.	.	.	.	.	.
8D/	.	.	8d\	.	16b/	.	16gg\	.	.	.	.	.	.	.	.	.	.	.	.	.	.	.	.	.	8b\J	.	8gg|\	.
.	.	.	.	.	16b/JJ	.	16gg\JJ	.	.	.	.	.	.	.	.	.	.	.	.	.	.	.	.	.	.	.	.	.
!	!	!	!	!	!	!	!	!	!	!	!	!	!	!	!	!	!	!	!	!	!	!	!	!	!LO:TX:t=P:problem:mixed beam	!	!	!
8DD/	.	#	8d\	.	16f#X/LL	.	16a\LL	.	4D/	.	.	.	4f#X\)	.	4a\)	.	4r	.	4r	.	4f#X/	.	4a\	.	8a/L	.	(8ff#X\	.
.	.	.	.	.	16f#/	.	16a\	.	.	.	.	.	.	.	.	.	.	.	.	.	.	.	.	.	.	.	.	.
8DD/J	.	.	8d\J	.	16a/	.	16ff#X\	.	.	.	.	.	.	.	.	.	.	.	.	.	.	.	.	.	8ff#X\J	.	8aa\J)	.
.	.	.	.	.	16a/JJ	.	16ff#\JJ	.	.	.	.	.	.	.	.	.	.	.	.	.	.	.	.	.	.	.	.	.
!	!	!	!	!	!	!	!	!	!	!	!	!	!	!	!	!	!	!	!LO:LB:g=original	!	!	!	!	!	!	!	!	!
=51	=51	=51	=51	=51	=51	=51	=51	=51	=51	=51	=51	=51	=51	=51	=51	=51	=51	=51	=51	=51	=51	=51	=51	=51	=51	=51	=51	=51
*	*	*	*^	*	*	*	*	*	*	*	*	*	*	*	*	*	*	*	*	*	*	*	*	*	*	*	*	*
*	*	*	*Xtremolo	*	*	*	*	*	*	*	*	*	*	*	*	*	*	*	*	*	*	*	*	*	*	*	*	*	*
!	!	!	!	!	!	!	!	!	!	!	!	!	!	!	!	!LO:LB:g=original	!	!	!	!	!	!	!	!	!	!	!	!	!
4GG/	.	.	4d/	4G\	.	8G/ 8d 8b	.	4d/ 4b 4gg	.	4G\	-us	4d\	-us	4g\	-us	4g\	-us	4c/	.	4g\	.	4g/	.	4b\	.	4gg\	.	4gg\	.
!	!	!	!	!	!	!	!LO:DY:a	!	!	!	!	!	!	!	!	!	!	!	!	!	!	!	!	!	!	!	!	!	!
.	.	.	.	.	.	4d/ 4b	p	.	.	.	.	.	.	.	.	.	.	.	.	.	.	.	.	.	.	.	.	.	.
8BB/L	p	.	8d\L	2ryy	p	.	.	16aa\LL	p	4G\	Fi-	4B\	Fi-	4g\	Fi-	4dd\	Fi-	4r	.	4r	.	2b\	p	2dd\	p	2dd\	p	16aa\LL	p
.	.	.	.	.	.	.	.	(16gg\	.	.	.	.	.	.	.	.	.	.	.	.	.	.	.	.	.	.	.	(16gg\	.
8GG/	.	.	8g\	.	.	4d/ 4b	.	16ff#X\)	.	.	.	.	.	.	.	.	.	.	.	.	.	.	.	.	.	.	.	16ff#X\)	.
.	.	.	.	.	.	.	.	16gg\JJ	.	.	.	.	.	.	.	.	.	.	.	.	.	.	.	.	.	.	.	16gg\JJ	.
8BB/	.	.	8b\	.	.	.	.	16bb\LL	.	4G\	-li	4B\	-li	4g\	-li	8dd\	-li	4r	.	4r	.	.	.	.	.	.	.	16bb\LL	.
.	.	.	.	.	.	.	.	(16gg\	.	.	.	.	.	.	.	.	.	.	.	.	.	.	.	.	.	.	.	(16gg\	.
8GG/J	.	.	8g\J	.	.	8d/ 8b	.	16ff#\	.	.	.	.	.	.	.	8dd\	Re-	.	.	.	.	.	.	.	.	.	.	16ff#\	.
.	.	.	.	.	.	.	.	16gg\JJ)	.	.	.	.	.	.	.	.	.	.	.	.	.	.	.	.	.	.	.	16gg\JJ)	.
*	*	*	*v	*v	*	*	*	*	*	*	*	*	*	*	*	*	*	*	*	*	*	*	*	*	*	*	*	*	*
!	!	!	!	!	!	!	!	!	!	!	!	!	!	!	!	!	!	!LO:LB:g=original	!	!	!	!	!	!	!	!	!	!
=52	=52	=52	=52	=52	=52	=52	=52	=52	=52	=52	=52	=52	=52	=52	=52	=52	=52	=52	=52	=52	=52	=52	=52	=52	=52	=52	=52	=52
!	!	!	!	!	!	!	!	!	!	!	!	!	!	!	!	!	!LO:TX:a:t=3	!	!LO:TX:a:t=3	!	!	!	!	!	!	!	!	!
8C/L	.	.	8e\L	.	8e/ 8cc	.	16ee\LL	.	4C/	Re-	4c\	Re-	4g\	Re-	2ee\	-dem-	2.r	.	2.r	.	2.cc\	.	2.ee\	.	2.ee\	.	16ee\LL	.
.	.	.	.	.	.	.	(16gg\	.	.	.	.	.	.	.	.	.	.	.	.	.	.	.	.	.	.	.	16gg\	.
8GG/	.	.	8g\	.	4e/ 4cc	.	16ff\	.	.	.	.	.	.	.	.	.	.	.	.	.	.	.	.	.	.	.	16ff\	.
.	.	.	.	.	.	.	16gg\JJ)	.	.	.	.	.	.	.	.	.	.	.	.	.	.	.	.	.	.	.	16gg\JJ	.
!	!	!	!	!	!	!	!LO:LB:g=original	!	!	!	!	!	!	!	!	!	!	!	!	!	!	!	!	!	!	!	!	!
8C/	.	.	8a\	.	.	.	16aa\LL	.	4E/	-dem-	4c\	-dem-	4g\	-dem-	.	.	.	.	.	.	.	.	.	.	.	.	16aa\LL	.
.	.	.	.	.	.	.	(16gg\	.	.	.	.	.	.	.	.	.	.	.	.	.	.	.	.	.	.	.	16gg\	.
8GG/	.	.	8g\	.	4e/ 4cc	.	16ff\	.	.	.	.	.	.	.	.	.	.	.	.	.	.	.	.	.	.	.	16ff\	.
.	.	.	.	.	.	.	16gg\JJ)	.	.	.	.	.	.	.	.	.	.	.	.	.	.	.	.	.	.	.	16gg\JJ	.
8C/	.	.	8cc\	.	.	.	16ccc\LL	.	4C/	-ptor	4c\	-ptor	4g\	-ptor	4ee\	-ptor	.	.	.	.	.	.	.	.	.	.	16ccc\LL	.
.	.	.	.	.	.	.	(16gg\	.	.	.	.	.	.	.	.	.	.	.	.	.	.	.	.	.	.	.	16gg\	.
8GG/J	.	.	8g\J	.	8e/ 8cc	.	16ff\	.	.	.	.	.	.	.	.	.	.	.	.	.	.	.	.	.	.	.	16ff\	.
.	.	.	.	.	.	.	16gg\JJ)	.	.	.	.	.	.	.	.	.	.	.	.	.	.	.	.	.	.	.	16gg\JJ	.
!	!	!	!	!	!	!	!	!	!	!	!	!	!	!	!	!	!	!	!	!	!	!	!	!	!	!	!LO:LB:g=original	!
=53	=53	=53	=53	=53	=53	=53	=53	=53	=53	=53	=53	=53	=53	=53	=53	=53	=53	=53	=53	=53	=53	=53	=53	=53	=53	=53	=53	=53
8BB/L	.	.	8d\L	.	8d/ 8b	.	16dd\LL	.	2G\	mun-	2B\	mun-	2g\	mun-	2dd\	mun-	2.r	.	2.r	.	2.b\	.	2.dd\	.	2.dd\	.	16dd\LL	.
.	.	.	.	.	.	.	16gg\	.	.	.	.	.	.	.	.	.	.	.	.	.	.	.	.	.	.	.	16gg\	.
8GG/	.	.	8g\	.	4d/ 4b	.	16ff\	.	.	.	.	.	.	.	.	.	.	.	.	.	.	.	.	.	.	.	16ff\	.
.	.	.	.	.	.	.	16gg\JJ	.	.	.	.	.	.	.	.	.	.	.	.	.	.	.	.	.	.	.	16gg\JJ	.
8BB/	.	.	8a\	.	.	.	16aa\LL	.	.	.	.	.	.	.	.	.	.	.	.	.	.	.	.	.	.	.	16aa\LL	.
.	.	.	.	.	.	.	16gg\	.	.	.	.	.	.	.	.	.	.	.	.	.	.	.	.	.	.	.	16gg\	.
8GG/	.	.	8g\	.	4d/ 4b	.	16ff\	.	.	.	.	.	.	.	.	.	.	.	.	.	.	.	.	.	.	.	16ff\	.
.	.	.	.	.	.	.	16gg\JJ	.	.	.	.	.	.	.	.	.	.	.	.	.	.	.	.	.	.	.	16gg\JJ	.
8BB/	.	.	8b\	.	.	.	16bb\LL	.	4G\	-di	4B\	-di	4g\	-di	4dd\	-di	.	.	.	.	.	.	.	.	.	.	16bb\LL	.
.	.	.	.	.	.	.	16gg\	.	.	.	.	.	.	.	.	.	.	.	.	.	.	.	.	.	.	.	16gg\	.
8GG/J	.	.	8g\J	.	8d/ 8b	.	16ff\	.	.	.	.	.	.	.	.	.	.	.	.	.	.	.	.	.	.	.	16ff\	.
.	.	.	.	.	.	.	16gg\JJ	.	.	.	.	.	.	.	.	.	.	.	.	.	.	.	.	.	.	.	16gg\JJ	.
=54	=54	=54	=54	=54	=54	=54	=54	=54	=54	=54	=54	=54	=54	=54	=54	=54	=54	=54	=54	=54	=54	=54	=54	=54	=54	=54	=54	=54
8C/L	.	.	8e\L	.	16a/LL	.	16aa\LL	.	(4C/	De-	(4e\	De-	(4a\	de-	(4cc\	de-	2.r	.	2.r	.	4a/	.	4cc\	.	8cc\L	.	8aa\L	.
.	.	.	.	.	16a/	.	16aa\	.	.	.	.	.	.	.	.	.	.	.	.	.	.	.	.	.	.	.	.	.
8C/	.	.	8e\J	.	16cc/	.	16cc\	.	.	.	.	.	.	.	.	.	.	.	.	.	.	.	.	.	8aa\	.	8ccc\	.
.	.	.	.	.	16cc/JJ	.	16cc\JJ	.	.	.	.	.	.	.	.	.	.	.	.	.	.	.	.	.	.	.	.	.
*	*	*	*tremolo	*	*	*	*	*	*	*	*	*	*	*	*	*	*	*	*	*	*	*	*	*	*	*	*	*
8D/	.	.	8d\L	.	16g/LL	.	16b\LL	.	4D/)	.	4d\)	.	4g\)	.	4b\)	.	.	.	.	.	4g/	.	4b\	.	8gg\	.	8bb\	.
.	.	.	.	.	16g/	.	16b\	.	.	.	.	.	.	.	.	.	.	.	.	.	.	.	.	.	.	.	.	.
8D/	.	.	8d\	.	16b/	.	16gg\	.	.	.	.	.	.	.	.	.	.	.	.	.	.	.	.	.	8bb\	.	8ddd\	.
.	.	.	.	.	16b/JJ	.	16gg\JJ	.	.	.	.	.	.	.	.	.	.	.	.	.	.	.	.	.	.	.	.	.
8DD/	.	#	8d\	.	16f#X/LL	.	16a\LL	.	4D/	-us	4d\	-us	4f#X\	-us	4a\	-us	.	.	.	.	4cc\	.	4ff#X\	<	8aa\	.	8ff#X\	.
.	.	.	.	.	16f#/	.	16a\	.	.	.	.	.	.	.	.	.	.	.	.	.	.	.	.	.	.	.	.	.
8DD/J	.	.	8d\J	.	16a/	.	16ff\	.	.	.	.	.	.	.	.	.	.	.	.	.	.	.	.	.	8ff#X\J	.	8aa\J	.
.	.	.	.	.	16a/JJ	.	16ff\JJ	.	.	.	.	.	.	.	.	.	.	.	.	.	.	.	.	.	.	.	.	.
!LO:LB:g=original	!	!	!	!	!	!	!	!	!	!	!	!	!	!	!	!	!	!	!	!	!	!	!	!	!	!	!	!
*	*	*	*Xtremolo	*	*	*	*	*	*	*	*	*	*	*	*	*	*	*	*	*	*	*	*	*	*	*	*	*
!	!	!	!	!	!LO:LB:g=original	!	!	!	!	!	!	!	!	!	!	!	!	!	!	!	!	!	!	!	!	!	!	!
=55	=55	=55	=55	=55	=55	=55	=55	=55	=55	=55	=55	=55	=55	=55	=55	=55	=55	=55	=55	=55	=55	=55	=55	=55	=55	=55	=55	=55
8GG/L	#	3	8g\	<	8b\	<	8gg\	<	2.G\	mi-	2.G/	mi-	2.g\	mi-	2.b\	mi-	2.g\	.	2.g\	p <	2.b\	p<	2.gg\	.	2.gg\	<	2.bb\	<
8G\	.	.	4g\	.	4b\	.	4gg\	.	.	.	.	.	.	.	.	.	.	.	.	.	.	.	.	.	.	.	.	.
8G\	.	.	.	.	.	.	.	.	.	.	.	.	.	.	.	.	.	.	.	.	.	.	.	.	.	.	.	.
8G\	.	.	4g\	.	4b\	.	4gg\	.	.	.	.	.	.	.	.	.	.	.	.	.	.	.	.	.	.	.	.	.
8G\	.	.	.	.	.	.	.	.	.	.	.	.	.	.	.	.	.	.	.	.	.	.	.	.	.	.	.	.
8G\J	.	.	8g\	.	8b\	.	8gg\	.	.	.	.	.	.	.	.	.	.	.	.	.	.	.	.	.	.	.	.	.
=56	=56	=56	=56	=56	=56	=56	=56	=56	=56	=56	=56	=56	=56	=56	=56	=56	=56	=56	=56	=56	=56	=56	=56	=56	=56	=56	=56	=56
*tremolo	*	*	*	*	*	*	*	*	*	*	*	*	*	*	*	*	*	*	*	*	*	*	*	*	*	*	*	*
8E\L	.	6	8g\	.	8cc\	.	8gg\	.	2.E\	-se-	2.e\	-se-	2.g\	-se-	2.cc\	-se-	2.g\	.	2.g\	.	2.cc\	.	2.gg\	.	2.gg\	.	2.ccc\	.
8E\	.	.	4g\	.	4cc\	.	4gg\	.	.	.	.	.	.	.	.	.	.	.	.	.	.	.	.	.	.	.	.	.
8E\	.	.	.	.	.	.	.	.	.	.	.	.	.	.	.	.	.	.	.	.	.	.	.	.	.	.	.	.
8E\	.	.	4g\	.	4cc\	.	4gg\	.	.	.	.	.	.	.	.	.	.	.	.	.	.	.	.	.	.	.	.	.
8E\	.	.	.	.	.	.	.	.	.	.	.	.	.	.	.	.	.	.	.	.	.	.	.	.	.	.	.	.
8E\J	.	.	8g\	.	8cc\	.	8gg\	.	.	.	.	.	.	.	.	.	.	.	.	.	.	.	.	.	.	.	.	.
!	!	!	!LO:LB:g=original	!	!	!	!	!	!	!	!	!	!	!	!	!	!	!	!	!	!	!	!	!	!	!	!	!
!	!	!	!	!	!	!	!	!	!LO:LB:g=original	!	!	!	!	!	!	!	!	!	!	!	!	!	!	!	!	!	!	!
!	!	!	!	!	!	!	!	!	!	!	!	!	!	!	!	!	!	!	!	!	!	!	!LO:LB:g=original	!	!	!	!	!
=57	=57	=57	=57	=57	=57	=57	=57	=57	=57	=57	=57	=57	=57	=57	=57	=57	=57	=57	=57	=57	=57	=57	=57	=57	=57	=57	=57	=57
8BB/L	[[	5 3	8f\	.	8dd\	.	8gg\	.	2.B\	-re-	2.B\	-re-	2.f\	-re-	2.dd\	-re-	2.g\	.	2.g\	[[	2.dd\	[[	2.ff\	[[	2.ff\	[[	2.ddd\	[[
8BB/	.	.	4f\	.	4dd\	.	4gg\	.	.	.	.	.	.	.	.	.	.	.	.	.	.	.	.	.	.	.	.	.
8BB/	.	.	.	.	.	.	.	.	.	.	.	.	.	.	.	.	.	.	.	.	.	.	.	.	.	.	.	.
!	!	!	!LO:N:vis=4	!	!	!	!	!	!	!	!	!	!	!	!	!	!	!	!	!	!	!	!	!	!	!	!	!
8BB/	.	.	8f\	.	4dd\	.	4gg\	.	.	.	.	.	.	.	.	.	.	.	.	.	.	.	.	.	.	.	.	.
!	!	!	!LO:N:vis=4	!	!	!	!	!	!	!	!	!	!	!	!	!	!	!	!	!	!	!	!	!	!	!	!	!
8BB/	.	.	8f\	.	.	.	.	.	.	.	.	.	.	.	.	.	.	.	.	.	.	.	.	.	.	.	.	.
8BB/J	.	.	8f\	[[	8dd\	[	8gg\	[[	.	.	.	.	.	.	.	.	.	.	.	.	.	.	.	.	.	.	.	.
=58	=58	=58	=58	=58	=58	=58	=58	=58	=58	=58	=58	=58	=58	=58	=58	=58	=58	=58	=58	=58	=58	=58	=58	=58	=58	=58	=58	=58
4C/	f	.	4e\	f	4ee|\	f	4gg\	f	4c\	-re	4c\	-re	4g\	-re	4ee\	-re	4c/	.	4g\	f	4cc\	f	4ee\	f	4gg\	f	4eee\	f
4r	.	.	(4cc\	p	(4ee\	p	(4ccc\	p	4r	.	4r	.	4r	.	4r	.	4r	.	4r	.	4r	.	4r	.	4r	.	4r	.
4r	.	.	4b\)	.	4dd\)	.	4bb\)	.	4r	.	4r	.	4r	.	4r	.	4r	.	4r	.	4r	.	4r	.	4r	.	4r	.
*Xtremolo	*	*	*	*	*	*	*	*	*	*	*	*	*	*	*	*	*	*	*	*	*	*	*	*	*	*	*	*
!	!	!	!	!	!	!	!LO:LB:g=original	!	!	!	!	!	!	!	!	!	!	!	!	!	!	!	!	!	!	!	!	!
=59	=59	=59	=59	=59	=59	=59	=59	=59	=59	=59	=59	=59	=59	=59	=59	=59	=59	=59	=59	=59	=59	=59	=59	=59	=59	=59	=59	=59
!	!	!	!LO:TX:t=P:problem:mixed beam	!	!	!LO:DY:a	!	!	!	!	!	!	!	!	!	!	!LO:TX:a:t=1	!	!LO:TX:a:t=1	!	!	!	!	!	!	!	!	!
*	*	*	*	*	*tremolo	*	*tremolo	*	*	*	*	*	*	*	*	*	*	*	*	*	*	*	*	*	*	*	*	*
8C/L	.	.	8cc\L	f	16cc\LL	f	16aa\LL	f	4C/	no-	(4e\	no-	(4a\	no-	(4cc\	no-	2.r	.	2.r	.	4cc\	.	4aa\	.	4cc\	.	4aa\	.
.	.	.	.	.	16cc\	.	16aa\	.	.	.	.	.	.	.	.	.	.	.	.	.	.	.	.	.	.	.	.	.
8C/	.	.	8cc\	.	16cc\	.	16aa\	.	.	.	.	.	.	.	.	.	.	.	.	.	.	.	.	.	.	.	.	.
.	.	.	.	.	16cc\JJ	.	16aa\JJ	.	.	.	.	.	.	.	.	.	.	.	.	.	.	.	.	.	.	.	.	.
8D/	.	4	8dd\	.	16b\LL	.	16gg\LL	.	2D/	.	2d\)	.	4g\	.	4b\	.	.	.	.	.	4b\	.	4gg\	.	4b\	.	4gg\	.
.	.	.	.	.	16b\	.	16gg\	.	.	.	.	.	.	.	.	.	.	.	.	.	.	.	.	.	.	.	.	.
8D/	.	.	8dd\	.	16b\	.	16gg\	.	.	.	.	.	.	.	.	.	.	.	.	.	.	.	.	.	.	.	.	.
.	.	.	.	.	16b\JJ	.	16gg\JJ	.	.	.	.	.	.	.	.	.	.	.	.	.	.	.	.	.	.	.	.	.
8DD/	.	#	8d/	.	16a\LL	.	16ff#X\LL	.	.	.	.	.	4f#X\)	.	4a\)	.	.	.	.	.	4a\	.	4ff#X\	.	4a\	.	4ff#X\	.
.	.	.	.	.	16a\	.	16ff#X\	.	.	.	.	.	.	.	.	.	.	.	.	.	.	.	.	.	.	.	.	.
8DD/J	.	.	8d/J	.	16a\	.	16ff#X\	.	.	.	.	.	.	.	.	.	.	.	.	.	.	.	.	.	.	.	.	.
.	.	.	.	.	16a\JJ	.	16ff#X\JJ	.	.	.	.	.	.	.	.	.	.	.	.	.	.	.	.	.	.	.	.	.
!	!	!	!	!	!	!	!	!	!	!	!LO:LB:g=original	!	!	!	!	!	!	!	!	!	!	!	!	!	!	!	!	!
=60	=60	=60	=60	=60	=60	=60	=60	=60	=60	=60	=60	=60	=60	=60	=60	=60	=60	=60	=60	=60	=60	=60	=60	=60	=60	=60	=60	=60
*	*	*	*^	*	*	*	*	*	*	*	*	*	*	*	*	*	*	*	*	*	*	*	*	*	*	*	*	*
!LO:TX:t=P:problem:mixed beam	!	!	!	!	!	!	!	!	!	!	!	!	!	!	!	!	!	!	!	!	!	!	!	!	!	!	!	!	!
8GG/L	.	3	4d/	4G\	.	4b/	.	4gg\	.	4G\	-bis	4d\	-bis	4g\	-bis	4b\	-bis	4r	.	4r	.	4b\	.	4gg\	.	4b\	.	4gg\	.
8G\	.	.	.	.	.	.	.	.	.	.	.	.	.	.	.	.	.	.	.	.	.	.	.	.	.	.	.	.	.
8D\	.	.	4d/	4G\	.	4G/ 4d 4b	.	4G/ 4d 4b 4gg	.	4r	.	4r	.	4r	.	4r	.	4g\	.	4g\	.	4b\	.	4gg\	.	4b\	.	4gg\	.
8G\	.	.	.	.	.	.	.	.	.	.	.	.	.	.	.	.	.	.	.	.	.	.	.	.	.	.	.	.	.
8BB\	.	.	4d/	4G\	.	4G/ 4d 4b	.	4G/ 4d 4b 4gg	.	4r	.	4r	.	4r	.	4r	.	4g\	.	4g\	.	4b\	.	4gg\	.	4b\	.	4gg\	.
8D\J	.	.	.	.	.	.	.	.	.	.	.	.	.	.	.	.	.	.	.	.	.	.	.	.	.	.	.	.	.
*	*	*	*	*	*	*Xtremolo	*	*Xtremolo	*	*	*	*	*	*	*	*	*	*	*	*	*	*	*	*	*	*	*	*	*
=61	=61	=61	=61	=61	=61	=61	=61	=61	=61	=61	=61	=61	=61	=61	=61	=61	=61	=61	=61	=61	=61	=61	=61	=61	=61	=61	=61	=61	=61
!	!	!	!	!	!	!	!	!	!	!LO:TX:a:t=1	!	!LO:TX:a:t=1	!	!LO:TX:a:t=1	!	!LO:TX:a:t=1	!	!	!	!	!	!	!	!	!	!	!	!	!
4GG/	.	.	2d/	2G\	.	2G/ 2d 2b	.	2G/ 2d 2b 2gg	.	2.r	.	2.r	.	2.r	.	2.r	.	2g\	.	2g\	.	2b\	.	2gg\	.	2b\	.	2gg\	.
4G\	.	.	.	.	.	.	.	.	.	.	.	.	.	.	.	.	.	.	.	.	.	.	.	.	.	.	.	.	.
4r	.	.	4r	4ryy	.	4r	.	4r	.	.	.	.	.	.	.	.	.	4r	.	4r	.	4r	.	4r	.	4r	.	4r	.
*	*	*	*v	*v	*	*	*	*	*	*	*	*	*	*	*	*	*	*	*	*	*	*	*	*	*	*	*	*	*
=62	=62	=62	=62	=62	=62	=62	=62	=62	=62	=62	=62	=62	=62	=62	=62	=62	=62	=62	=62	=62	=62	=62	=62	=62	=62	=62	=62	=62
8GG/L	.	3	4g\	.	4G/ 4d 4b	.	4d/ 4b 4gg	.	4.G\	Spi-	4.B\	Spi-	4.g\	Spi-	4.dd\	Spi-	4g\	.	4g\	.	2.b\	.	2.dd\	.	2.dd\	.	2.bb\	.
8BB/	.	.	.	.	.	.	.	.	.	.	.	.	.	.	.	.	.	.	.	.	.	.	.	.	.	.	.	.
8D/	.	.	16G/LL	.	4G/ 4d 4b	.	16g/LL	.	.	.	.	.	.	.	.	.	8r	.	8r	.	.	.	.	.	.	.	.	.
.	.	.	16A/	.	.	.	16a/	.	.	.	.	.	.	.	.	.	.	.	.	.	.	.	.	.	.	.	.	.
8G/	.	.	16B/	.	.	.	16b/	.	8G\	-ri-	8B\	-ri-	8g\	-ri-	8dd\	-ri-	8g\L	.	8g\L	.	.	.	.	.	.	.	.	.
.	.	.	16c/JJ	.	.	.	16cc/JJ	.	.	.	.	.	.	.	.	.	.	.	.	.	.	.	.	.	.	.	.	.
8D/	.	.	16d\LL	.	4G/ 4d 4b	.	16dd\LL	.	4G\	-tus	4B\	-tus	4g\	-tus	4dd\	-tus	8g\	.	8g\	.	.	.	.	.	.	.	.	.
.	.	.	16e\	.	.	.	16ee\	.	.	.	.	.	.	.	.	.	.	.	.	.	.	.	.	.	.	.	.	.
8BB/J	.	.	16f#X\	.	.	.	16ff#X\	.	.	.	.	.	.	.	.	.	8g\J	.	8g\J	.	.	.	.	.	.	.	.	.
.	.	.	16g\JJ	.	.	.	16gg\JJ	.	.	.	.	.	.	.	.	.	.	.	.	.	.	.	.	.	.	.	.	.
=63	=63	=63	=63	=63	=63	=63	=63	=63	=63	=63	=63	=63	=63	=63	=63	=63	=63	=63	=63	=63	=63	=63	=63	=63	=63	=63	=63	=63
8GG/L	.	6 4	4e\	.	4G/ 4e 4cc	.	4ee\	.	2C/	S(anc)-	2c\	S(anc)-	2g\	S(anc)-	2ee\	S(anc)-	4c/	.	4g\	.	2.cc\	.	2.ee\	.	2.ee\	.	2.ccc\	.
8C/	.	.	.	.	.	.	.	.	.	.	.	.	.	.	.	.	.	.	.	.	.	.	.	.	.	.	.	.
8E/	.	.	16G/LL	.	4G/ 4e 4cc	.	16g/LL	.	.	.	.	.	.	.	.	.	8r	.	8r	.	.	.	.	.	.	.	.	.
.	.	.	16A/	.	.	.	16a/	.	.	.	.	.	.	.	.	.	.	.	.	.	.	.	.	.	.	.	.	.
8G/	.	.	16B/	.	.	.	16b/	.	.	.	.	.	.	.	.	.	8c/L	.	8g\L	.	.	.	.	.	.	.	.	.
.	.	.	16c/JJ	.	.	.	16cc/JJ	.	.	.	.	.	.	.	.	.	.	.	.	.	.	.	.	.	.	.	.	.
8E/	.	.	16d\LL	.	4G/ 4e 4cc	.	16dd\LL	.	4C/	-te	4c\	-te	4g\	-te	4ee\	-te	8c/	.	8g\	.	.	.	.	.	.	.	.	.
.	.	.	16e\	.	.	.	16ee\	.	.	.	.	.	.	.	.	.	.	.	.	.	.	.	.	.	.	.	.	.
8C/J	.	.	16f\	.	.	.	16ff\	.	.	.	.	.	.	.	.	.	8c/J	.	8g\J	.	.	.	.	.	.	.	.	.
.	.	.	16g\JJ	.	.	.	16gg\JJ	.	.	.	.	.	.	.	.	.	.	.	.	.	.	.	.	.	.	.	.	.
!	!	!	!	!	!LO:LB:g=original	!	!	!	!	!	!	!	!	!	!	!	!	!	!	!	!	!	!	!	!	!	!	!
!	!	!	!	!	!	!	!	!	!	!	!	!	!LO:LB:g=original	!	!	!	!	!	!	!	!	!	!	!	!	!	!	!
!	!	!	!	!	!	!	!	!	!	!	!	!	!	!	!	!	!	!	!	!	!LO:LB:g=original	!	!	!	!LO:LB:g=original	!	!	!
!	!	!	!	!	!	!	!	!	!	!	!	!	!	!	!	!	!	!	!	!	!	!	!	!	!	!	!LO:LB:g=original	!
=64	=64	=64	=64	=64	=64	=64	=64	=64	=64	=64	=64	=64	=64	=64	=64	=64	=64	=64	=64	=64	=64	=64	=64	=64	=64	=64	=64	=64
8GG/L	.	3	(8d\L	.	8b\L	.	4dd\	.	(4GG/	S(anc)-	2d\	S(anc)-	(4b\	S(anc)-	(4dd\	Sanc-	4g\	.	4g\	.	4b\	.	4dd\	.	4dd\	.	4ddd\	.
8BB/	.	.	8g\)	.	8dd\	.	.	.	.	.	.	.	.	.	.	.	.	.	.	.	.	.	.	.	.	.	.	.
8AA/	.	3	8f#X'\	.	8a\	.	16g/LL	.	4AA/)	.	.	.	4a\)	.	4cc\)	.	4r	.	4r	.	4a\	.	4ff#X\	.	4ff#X\	.	4ccc\	.
.	.	.	.	.	.	.	16a/	.	.	.	.	.	.	.	.	.	.	.	.	.	.	.	.	.	.	.	.	.
8C/	.	.	8f#'\J	.	8cc\	.	16b/	.	.	.	.	.	.	.	.	.	.	.	.	.	.	.	.	.	.	.	.	.
.	.	.	.	.	.	.	16cc/JJ	.	.	.	.	.	.	.	.	.	.	.	.	.	.	.	.	.	.	.	.	.
8BB/	.	6	(8g\L	.	8g\	.	16dd\LL	.	4BB/	-te	4d\	-te	4g\	-te	4b\	-te	4r	.	4r	.	4b\	.	4gg\	.	4gg\	.	4bb\	.
.	.	.	.	.	.	.	16ee\	.	.	.	.	.	.	.	.	.	.	.	.	.	.	.	.	.	.	.	.	.
8D/J	.	.	8d\J)	.	8b\J	.	16ff\	.	.	.	.	.	.	.	.	.	.	.	.	.	.	.	.	.	.	.	.	.
.	.	.	.	.	.	.	16gg\JJ	.	.	.	.	.	.	.	.	.	.	.	.	.	.	.	.	.	.	.	.	.
!LO:LB:g=original	!	!	!	!	!	!	!	!	!	!	!	!	!	!	!	!	!	!	!	!	!	!	!	!	!	!	!	!
!	!	!	!LO:LB:g=original	!	!	!	!	!	!	!	!	!	!	!	!	!	!	!	!	!	!	!	!	!	!	!	!	!
!	!	!	!	!	!	!	!	!	!	!	!	!	!	!	!LO:LB:g=original	!	!	!	!	!	!	!	!	!	!	!	!	!
=65	=65	=65	=65	=65	=65	=65	=65	=65	=65	=65	=65	=65	=65	=65	=65	=65	=65	=65	=65	=65	=65	=65	=65	=65	=65	=65	=65	=65
!	!	!	!	!	!	!	!	!	!	!	!	!	!	!	!	!	!LO:TX:a:t=1	!	!LO:TX:a:t=1	!	!	!	!	!	!	!	!	!
8C/L	.	6	8e\L	.	8a\L	.	8cc\L	.	(4C/	De-	4e\	De-	(4a\	De-	(4cc\	De-	2.r	.	2.r	.	4a/	.	4cc\	.	4cc\	.	4aa\	.
8AA/	.	.	8e\J	.	8cc\	.	8aa\	.	.	.	.	.	.	.	.	.	.	.	.	.	.	.	.	.	.	.	.	.
*	*	*	*tremolo	*	*	*	*	*	*	*	*	*	*	*	*	*	*	*	*	*	*	*	*	*	*	*	*	*
8D/	.	4	8d\L	.	8g\	.	8b\	.	2D/)	.	2d\	.	(4g\)	.	4b\	.	.	.	.	.	4g/	.	4b\	.	4b\	.	4gg\	.
8D/	.	.	8d\	.	8b\	.	8gg\	.	.	.	.	.	.	.	.	.	.	.	.	.	.	.	.	.	.	.	.	.
8DD/	.	#	8d\	.	8f#X\	.	8a\	.	.	.	.	.	4f#X\)	.	4a\)	.	.	.	.	.	4f#X/	.	4a\	.	4a\	.	4ff#X\	.
8DD/J	.	.	8d\J	.	8a\J	.	8ff\J	.	.	.	.	.	.	.	.	.	.	.	.	.	.	.	.	.	.	.	.	.
*	*	*	*Xtremolo	*	*	*	*	*	*	*	*	*	*	*	*	*	*	*	*	*	*	*	*	*	*	*	*	*
=66	=66	=66	=66	=66	=66	=66	=66	=66	=66	=66	=66	=66	=66	=66	=66	=66	=66	=66	=66	=66	=66	=66	=66	=66	=66	=66	=66	=66
!	!	!	!	!	!	!	!LO:LB:g=original	!	!	!	!	!	!	!	!	!	!	!	!	!	!	!	!	!	!	!	!	!
4GG/	.	.	4G\ 4d	.	4G/ 4d 4b	.	4G/ 4d 4b 4gg	.	4GG/	-us	4d\	-us	4g\	-us	4g\	-us	4r	.	4r	.	4g/	.	4b\	.	4b\	.	4gg\	.
8G\L	p	.	16G/LL	p	8d/ 8b	p	16g/LL	p	8G\	Spi-	8B\	Spi-	4g\	Spi-	4dd\	Spi-	4g\	.	4g\	.	4r	.	4r	.	4r	.	4r	.
.	.	.	16A/	.	.	.	16a/	.	.	.	.	.	.	.	.	.	.	.	.	.	.	.	.	.	.	.	.	.
8D\	.	.	16B/	.	4d/ 4b	.	16b/	.	8G\	-ri-	8B\	-ri-	.	.	.	.	.	.	.	.	.	.	.	.	.	.	.	.
.	.	.	16c/JJ	.	.	.	16cc/JJ	.	.	.	.	.	.	.	.	.	.	.	.	.	.	.	.	.	.	.	.	.
8BB\	.	.	16d\LL	.	.	.	16dd\LL	.	4G\	-tus	4B\	-tus	8g\	-ri-	8dd\	-ri-	4g\	.	4g\	.	4r	.	4r	.	4r	.	4r	.
.	.	.	16e\	.	.	.	16ee\	.	.	.	.	.	.	.	.	.	.	.	.	.	.	.	.	.	.	.	.	.
8D\J	.	.	16f#X\	.	8d/ 8b	.	16ff\	.	.	.	.	.	8g\	-tus	8dd\	-tus	.	.	.	.	.	.	.	.	.	.	.	.
.	.	.	16g\JJ	.	.	.	16gg\JJ	.	.	.	.	.	.	.	.	.	.	.	.	.	.	.	.	.	.	.	.	.
!	!	!	!	!	!	!	!	!	!	!	!	!	!	!	!	!	!LO:LB:g=original	!	!	!	!	!	!	!	!	!	!	!
!	!	!	!	!	!	!	!	!	!	!	!	!	!	!	!	!	!	!	!LO:LB:g=original	!	!	!	!	!	!	!	!	!
=67	=67	=67	=67	=67	=67	=67	=67	=67	=67	=67	=67	=67	=67	=67	=67	=67	=67	=67	=67	=67	=67	=67	=67	=67	=67	=67	=67	=67
!	!	!	!	!	!	!	!	!	!	!	!	!	!	!	!	!	!	!	!	!	!LO:TX:a:t=2	!	!LO:TX:a:t=2	!	!LO:TX:a:t=2	!	!LO:TX:a:t=2	!
8GG/L	.	6 4	4e\	.	8e/ 8cc	.	4ee\	.	2C/	S(anc)-	2c\	S(anc)-	2g\	S(anc)-	2ee\	S(anc)-	4r	.	4r	.	2.r	.	2.r	.	2.r	.	2.r	.
8C/	.	.	.	.	4e/ 4cc	.	.	.	.	.	.	.	.	.	.	.	.	.	.	.	.	.	.	.	.	.	.	.
8E/	.	.	16G/LL	.	.	.	16g/LL	.	.	.	.	.	.	.	.	.	4g\	.	4g\	.	.	.	.	.	.	.	.	.
.	.	.	16A/	.	.	.	16a/	.	.	.	.	.	.	.	.	.	.	.	.	.	.	.	.	.	.	.	.	.
8G/	.	.	16B/	.	4e/ 4cc	.	16b/	.	.	.	.	.	.	.	.	.	.	.	.	.	.	.	.	.	.	.	.	.
.	.	.	16c/JJ	.	.	.	16cc/JJ	.	.	.	.	.	.	.	.	.	.	.	.	.	.	.	.	.	.	.	.	.
8E/	.	.	16d\LL	.	.	.	16dd\LL	.	4C/	-te	4c\	-te	4g\	-te	4ee\	-te	4g\	.	4g\	.	.	.	.	.	.	.	.	.
.	.	.	16e\	.	.	.	16ee\	.	.	.	.	.	.	.	.	.	.	.	.	.	.	.	.	.	.	.	.	.
8C/J	.	.	16f\	.	8e/ 8cc	.	16ff\	.	.	.	.	.	.	.	.	.	.	.	.	.	.	.	.	.	.	.	.	.
.	.	.	16g\JJ	.	.	.	16gg\JJ	.	.	.	.	.	.	.	.	.	.	.	.	.	.	.	.	.	.	.	.	.
=68	=68	=68	=68	=68	=68	=68	=68	=68	=68	=68	=68	=68	=68	=68	=68	=68	=68	=68	=68	=68	=68	=68	=68	=68	=68	=68	=68	=68
8GG/L	.	5 3	4d\	.	8d/ 8b	.	4dd\	.	2G\	Da-	2B\	De-	2g\	De-	2dd\	De-	4r	.	4r	.	2.r	.	2.r	.	2.r	.	2.r	.
8BB/	.	.	.	.	4d/ 4b	.	.	.	.	.	.	.	.	.	.	.	.	.	.	.	.	.	.	.	.	.	.	.
8D/	.	.	16G/LL	.	.	.	16g/LL	.	.	.	.	.	.	.	.	.	4g\	.	4g\	.	.	.	.	.	.	.	.	.
.	.	.	16A/	.	.	.	16a/	.	.	.	.	.	.	.	.	.	.	.	.	.	.	.	.	.	.	.	.	.
8G/	.	.	16B/	.	4d/ 4b	.	16b/	.	.	.	.	.	.	.	.	.	.	.	.	.	.	.	.	.	.	.	.	.
.	.	.	16c/JJ	.	.	.	16cc/JJ	.	.	.	.	.	.	.	.	.	.	.	.	.	.	.	.	.	.	.	.	.
8D/	.	.	16d\LL	.	.	.	16dd\LL	.	4G\	-us	4B\	-us	4g\	-us	4dd\	-us	4g\	.	4g\	.	.	.	.	.	.	.	.	.
.	.	.	16e\	.	.	.	16ee\	.	.	.	.	.	.	.	.	.	.	.	.	.	.	.	.	.	.	.	.	.
8BB/J	.	.	16f\	.	8d/ 8b	.	16ff\	.	.	.	.	.	.	.	.	.	.	.	.	.	.	.	.	.	.	.	.	.
.	.	.	16g\JJ	.	.	.	16gg\JJ	.	.	.	.	.	.	.	.	.	.	.	.	.	.	.	.	.	.	.	.	.
=69	=69	=69	=69	=69	=69	=69	=69	=69	=69	=69	=69	=69	=69	=69	=69	=69	=69	=69	=69	=69	=69	=69	=69	=69	=69	=69	=69	=69
4r	.	.	4g\	f	4dd|\	.	4ffn'\	f	4r	.	4r	.	4r	.	4r	.	4g\	.	4g\	.	4r	.	4r	.	4r	.	4r	.
4BB/	f	n	4g|\	.	4dd|\	f	4ff'\	.	2B\	mi-	2d\	mi-	2g\	mi-	2ffn\	mi-	4r	.	4r	.	4dd|\	.	4ffn^^\	.	4bb|\	.	4fffn\	.
4BB/	.	5 6	4g|\	.	4dd|\	.	4ff'\	.	.	.	.	.	.	.	.	.	4r	.	4r	.	4dd|\	.	4ff^^\	.	4bb|\	.	4fff\	.
!	!	!	!	!	!	!	!	!	!LO:LB:g=original	!	!	!	!	!	!	!	!	!	!	!	!	!	!	!	!	!	!	!
!	!	!	!	!	!	!	!	!	!	!	!LO:LB:g=original	!	!	!	!	!	!	!	!	!	!	!	!	!	!	!	!	!
!	!	!	!	!	!	!	!	!	!	!	!	!	!	!	!	!	!	!	!	!	!	!	!LO:LB:g=original	!	!	!	!	!
=70	=70	=70	=70	=70	=70	=70	=70	=70	=70	=70	=70	=70	=70	=70	=70	=70	=70	=70	=70	=70	=70	=70	=70	=70	=70	=70	=70	=70
!	!	!	!	!	!	!	!	!	!	!	!	!	!	!	!	!	!LO:TX:a:t=3	!	!LO:TX:a:t=3	!	!	!	!	!	!	!	!	!
4C/	.	3	4g\	.	4cc\	.	4ee\	.	4c\	-se-	4c\	-se-	4g\	-se-	4ee\	-se-	2.r	.	2.r	.	4cc|\	.	4ee|\	.	4ccc\	.	4eee\	.
4r	.	.	4r	.	4r	.	16e/LL	p	4r	.	4r	.	4r	.	4r	.	.	.	.	.	4r	.	4r	.	4r	.	4r	.
.	.	.	.	.	.	.	16f/	.	.	.	.	.	.	.	.	.	.	.	.	.	.	.	.	.	.	.	.	.
.	.	.	.	.	.	.	16g#X/	.	.	.	.	.	.	.	.	.	.	.	.	.	.	.	.	.	.	.	.	.
.	.	.	.	.	.	.	16a/JJ	.	.	.	.	.	.	.	.	.	.	.	.	.	.	.	.	.	.	.	.	.
4r	.	.	4r	.	4r	.	16b\LL	.	4r	.	4r	.	4r	.	4r	.	.	.	.	.	4r	.	4r	.	4r	.	4r	.
.	.	.	.	.	.	.	16cc\	.	.	.	.	.	.	.	.	.	.	.	.	.	.	.	.	.	.	.	.	.
.	.	.	.	.	.	.	16dd\	.	.	.	.	.	.	.	.	.	.	.	.	.	.	.	.	.	.	.	.	.
.	.	.	.	.	.	.	16ee\JJ	.	.	.	.	.	.	.	.	.	.	.	.	.	.	.	.	.	.	.	.	.
=71	=71	=71	=71	=71	=71	=71	=71	=71	=71	=71	=71	=71	=71	=71	=71	=71	=71	=71	=71	=71	=71	=71	=71	=71	=71	=71	=71	=71
4r	.	.	4r	.	4r	.	4dd|\	f	4r	.	4r	.	4r	.	4r	.	2.r	.	2.r	.	4r	.	4r	.	4r	.	4r	.
4G#X\	.	6 5	4e\	.	4b/	.	4dd|\	.	2G#X\	-re-	2e\	-re-	2b\	-re-	2dd\	-re-	.	.	.	.	4b|\	.	4dd|\	.	4gg#X\	.	4ddd|\	.
4G#\	.	.	4e\	.	4b/	.	4dd|\	.	.	.	.	.	.	.	.	.	.	.	.	.	4b|\	.	4dd|\	.	4gg#\	.	4ddd|\	.
!	!	!	!LO:LB:g=original	!	!	!	!	!	!	!	!	!	!	!	!	!	!	!	!	!	!	!	!	!	!	!	!	!
=72	=72	=72	=72	=72	=72	=72	=72	=72	=72	=72	=72	=72	=72	=72	=72	=72	=72	=72	=72	=72	=72	=72	=72	=72	=72	=72	=72	=72
4A\	.	3	4e\	.	4a/	.	4cc\	.	4A\	-re	4e\	-re	4a\	-re	4cc\	-re	2.r	.	2.r	.	4a/	.	4cc|\	.	4aa\	.	4ccc\	.
4r	.	.	4r	.	4r	.	16c/LL	.	4r	.	4r	.	4r	.	4r	.	.	.	.	.	4r	.	4r	.	4r	.	4r	.
.	.	.	.	.	.	.	16d/	.	.	.	.	.	.	.	.	.	.	.	.	.	.	.	.	.	.	.	.	.
.	.	.	.	.	.	.	16e/	.	.	.	.	.	.	.	.	.	.	.	.	.	.	.	.	.	.	.	.	.
.	.	.	.	.	.	.	16f/JJ	.	.	.	.	.	.	.	.	.	.	.	.	.	.	.	.	.	.	.	.	.
!	!	!	!	!	!	!	!LO:LB:g=original	!	!	!	!	!	!	!	!	!	!	!	!	!	!	!	!	!	!	!	!	!
4r	.	.	4r	.	4r	.	16gn/LL	.	4r	.	4r	.	4r	.	4r	.	.	.	.	.	4r	.	4r	.	4r	.	4r	.
.	.	.	.	.	.	.	(16a/	.	.	.	.	.	.	.	.	.	.	.	.	.	.	.	.	.	.	.	.	.
.	.	.	.	.	.	.	16b/)	.	.	.	.	.	.	.	.	.	.	.	.	.	.	.	.	.	.	.	.	.
.	.	.	.	.	.	.	16cc/JJ	.	.	.	.	.	.	.	.	.	.	.	.	.	.	.	.	.	.	.	.	.
!	!	!	!	!	!LO:LB:g=original	!	!	!	!	!	!	!	!	!	!	!	!	!	!	!	!	!	!	!	!	!	!	!
=73	=73	=73	=73	=73	=73	=73	=73	=73	=73	=73	=73	=73	=73	=73	=73	=73	=73	=73	=73	=73	=73	=73	=73	=73	=73	=73	=73	=73
4r	.	.	4r	.	4r	.	4b-\	f	4r	.	4r	.	4r	.	4r	.	4r	.	4r	.	4r	.	4r	.	4r	.	4r	.
4E\	.	-	4c\	.	4g/	.	4b-|\	.	2E\	no-	2c\	no-	2g\	no-	2b-X\	mi-	4c/	.	4g\	.	4g/	.	4b|\	.	4ee\	.	4bb-X\	.
4E\	.	6 3	4c\	.	4g/	.	4b-|\	.	.	.	.	.	.	.	.	.	4c/	.	4g\	.	4g/	.	4b|\	.	4ee\	.	4bb-\	.
=74	=74	=74	=74	=74	=74	=74	=74	=74	=74	=74	=74	=74	=74	=74	=74	=74	=74	=74	=74	=74	=74	=74	=74	=74	=74	=74	=74	=74
!	!	!	!	!	!	!LO:DY:a	!	!	!	!	!	!	!	!	!	!	!	!	!	!	!	!	!	!	!	!	!	!
4F\	.	.	4c\	.	4fn/	p	4a/	.	4F\	-bis	4c\	-bis	4fn\	-bis	4a\	-se-	4f\	.	4a\	.	4f/	.	4a/	.	4ff\	.	4aa\	.
!	!	!	!	!	!	!	!LO:TX:b:t=Dolce	!	!	!	!	!	!	!	!	!	!	!	!	!	!	!	!	!	!	!	!	!
4r	.	.	4r	.	4a/	.	(4ffn\	.	4r	.	4r	.	4r	.	4r	.	4r	.	4r	.	4r	.	4r	.	4r	.	4r	.
4r	.	.	4r	.	(4g/	.	4ee\)	.	4r	.	4r	.	4r	.	4r	.	4r	.	4r	.	4r	.	4r	.	4r	.	4r	.
=75	=75	=75	=75	=75	=75	=75	=75	=75	=75	=75	=75	=75	=75	=75	=75	=75	=75	=75	=75	=75	=75	=75	=75	=75	=75	=75	=75	=75
!LO:TX:a:t=1	!	!	!LO:TX:a:t=1	!	!	!	!	!	!LO:TX:a:t=1	!	!LO:TX:a:t=1	!	!LO:TX:a:t=1	!	!LO:TX:a:t=1	!	!	!	!	!	!	!	!LO:TX:a:t=1	!	!LO:TX:a:t=1	!	!	!
.	.	.	.	.	8qqg/	.	8qqee/	.	.	.	.	.	.	.	.	.	.	.	.	.	.	.	.	.	.	.	.	.
2.r	.	.	2.r	.	2f/	.	(2dd\	.	2.r	.	2.r	.	2.r	.	2.r	.	2g\	.	2g\	.	2.r	.	2.r	.	2.r	.	2.r	.
.	.	.	.	.	4e/)	.	4cc\)	.	.	.	.	.	.	.	.	.	4c/	.	4g\	.	.	.	.	.	.	.	.	.
!LO:LB:g=original	!	!	!	!	!	!	!	!	!	!	!	!	!	!	!	!	!	!	!	!	!	!	!	!	!	!	!	!
=76	=76	=76	=76	=76	=76	=76	=76	=76	=76	=76	=76	=76	=76	=76	=76	=76	=76	=76	=76	=76	=76	=76	=76	=76	=76	=76	=76	=76
4r	.	.	4r	.	4g/	.	4b\	.	4r	.	4r	.	4r	.	4r	.	4g\	.	4g\	.	4r	.	4r	.	4gg\	.	4gg\	.
*	*	*	*	*	*tremolo	*	*tremolo	*	*	*	*	*	*	*	*	*	*	*	*	*	*	*	*	*	*	*	*	*
8BB/L	.	5	8g\L	.	16dd\LL	f	16ff\LL	f	4B\	mi-	4d\	no-	4g\	mi-	4ff\	-re-	4r	.	4r	.	4dd\	.	4ff\	.	4bb\	.	4ddd\	.
.	.	.	.	.	16dd\	.	16ff\	.	.	.	.	.	.	.	.	.	.	.	.	.	.	.	.	.	.	.	.	.
8GG/	.	5	8g\	.	16dd\	.	16ff\	.	.	.	.	.	.	.	.	.	.	.	.	.	.	.	.	.	.	.	.	.
.	.	.	.	.	16dd\JJ	.	16ff\JJ	.	.	.	.	.	.	.	.	.	.	.	.	.	.	.	.	.	.	.	.	.
8C/	.	.	8g\	.	16cc\LL	.	16ee\LL	.	4c\	-se-	4c\	-bis	4g\	-se-	4ee\	-re	4r	.	4r	.	4cc\	.	4ee\	.	4ccc\	.	4eee\	.
.	.	.	.	.	16cc\	.	16ee\	.	.	.	.	.	.	.	.	.	.	.	.	.	.	.	.	.	.	.	.	.
8E/J	.	.	8g\J	.	16cc\	.	16ee\	.	.	.	.	.	.	.	.	.	.	.	.	.	.	.	.	.	.	.	.	.
.	.	.	.	.	16cc\JJ	.	16ee\JJ	.	.	.	.	.	.	.	.	.	.	.	.	.	.	.	.	.	.	.	.	.
!	!	!	!	!	!	!	!	!	!	!	!	!	!	!	!	!	!	!	!	!	!	!	!	!	!	!	!LO:LB:g=original	!
=77	=77	=77	=77	=77	=77	=77	=77	=77	=77	=77	=77	=77	=77	=77	=77	=77	=77	=77	=77	=77	=77	=77	=77	=77	=77	=77	=77	=77
.	.	.	.	.	.	.	.	.	.	.	.	.	.	.	.	.	.	.	.	.	.	.	.	.	.	.	8qqfff/	.
4G\	.	4	4g\	.	4cc\	.	16ff\LL	.	4G\	-re-	4c\	no-	4g\	-re-	4ee\	no-	4g\	.	4g\	.	4cc\	.	4ee\	.	4ccc\	.	4eee\	.
.	.	.	.	.	.	.	(16ee\	.	.	.	.	.	.	.	.	.	.	.	.	.	.	.	.	.	.	.	.	.
.	.	.	.	.	.	.	16dd\	.	.	.	.	.	.	.	.	.	.	.	.	.	.	.	.	.	.	.	.	.
.	.	.	.	.	.	.	16ee\JJ)	.	.	.	.	.	.	.	.	.	.	.	.	.	.	.	.	.	.	.	.	.
!LO:TX:t=P:problem:mixed beamm	!	!	!	!	!	!	!	!	!	!	!	!	!	!	!	!	!	!	!	!	!	!	!	!	!	!	!	!
8GG/L	.	.	8g|\L	.	4b|\	.	4dd\	.	4G|\	-re	4B\	-bis	4g\	-re	4dd\	-bis	4g\	.	4g\	.	4b\	.	4dd\	.	4bb\	.	4ddd\	.
8F|\	.	.	8fn|\	.	.	.	.	.	.	.	.	.	.	.	.	.	.	.	.	.	.	.	.	.	.	.	.	.
8E|\	.	.	8e|\	.	4r	.	4r	.	4r	.	4r	.	4r	.	4r	.	4r	.	4r	.	4r	.	4r	.	4r	.	4r	.
8D|\J	.	.	8d|\J	.	.	.	.	.	.	.	.	.	.	.	.	.	.	.	.	.	.	.	.	.	.	.	.	.
*	*	*	*	*	*Xtremolo	*	*Xtremolo	*	*	*	*	*	*	*	*	*	*	*	*	*	*	*	*	*	*	*	*	*
!	!	!	!	!	!	!	!	!	!	!	!	!	!LO:LB:g=original	!	!	!	!	!	!	!	!	!	!	!	!	!	!	!
!	!	!	!	!	!	!	!	!	!	!	!	!	!	!	!LO:LB:g=original	!	!	!	!	!	!	!	!	!	!	!	!	!
!	!	!	!	!	!	!	!	!	!	!	!	!	!	!	!	!	!	!	!	!	!LO:LB:g=original	!	!	!	!	!	!	!
=78	=78	=78	=78	=78	=78	=78	=78	=78	=78	=78	=78	=78	=78	=78	=78	=78	=78	=78	=78	=78	=78	=78	=78	=78	=78	=78	=78	=78
.	.	.	.	.	.	.	16qqaa/	.	.	.	.	.	.	.	.	.	.	.	.	.	.	.	.	.	.	.	.	.
4C/	.	5 3	4c\	.	8ee\L	.	8gg\L	.	4c\	S(anc)-	4e\	S(anc)-	4g\	S(anc)-	4gg\	San-	4c/	.	4g\	.	4ee\	.	4gg\	.	4ee\	.	4gg\	.
.	.	.	.	.	(16dd\L	.	16ff\L	.	.	.	.	.	.	.	.	.	.	.	.	.	.	.	.	.	.	.	.	.
.	.	.	.	.	16ee\JJ)	.	16gg\JJ	.	.	.	.	.	.	.	.	.	.	.	.	.	.	.	.	.	.	.	.	.
8r	.	.	8r	.	4cc\	.	4ee\	.	4C/	-ta	4c\	-ta	4g\	-ta	4ee\	-cta	8r	.	8r	.	4cc\	.	4ee\	.	4cc\	.	4ee\	.
8C\L	.	.	8C|/L	.	.	.	.	.	.	.	.	.	.	.	.	.	8c/L	.	8g\L	.	.	.	.	.	.	.	.	.
8E\	.	.	8E|/	.	4r	.	4r	.	4r	.	4r	.	4r	.	4r	.	8c/	.	8g\	.	4r	.	4r	.	4r	.	4r	.
8G\J	.	.	8G|/J	.	.	.	.	.	.	.	.	.	.	.	.	.	8c/J	.	8g\J	.	.	.	.	.	.	.	.	.
=79	=79	=79	=79	=79	=79	=79	=79	=79	=79	=79	=79	=79	=79	=79	=79	=79	=79	=79	=79	=79	=79	=79	=79	=79	=79	=79	=79	=79
.	.	.	.	.	.	.	16qqff/	.	.	.	.	.	.	.	.	.	.	.	.	.	.	.	.	.	.	.	.	.
4c\	.	.	4c\	.	4g/	.	8ee\L	.	8c\	Tri-	8G/	Tri-	8g\	Tri-	8ee\	Tri-	4c/	.	4g\	.	4g/	.	4ee\	.	4gg\	.	4eee\	.
.	.	.	.	.	.	.	16dd\L	.	8c\	-ni-	8G/	-ni-	8g\	-ni-	8ee\	-ni-	.	.	.	.	.	.	.	.	.	.	.	.
.	.	.	.	.	.	.	16ee\JJ	.	.	.	.	.	.	.	.	.	.	.	.	.	.	.	.	.	.	.	.	.
8r	.	.	8r	.	4e/	.	4cc\	.	4C/	-tas	4E/	-tas	4g\	-tas	4cc\	-tas	8r	.	8r	.	4e/	.	4cc\	.	4ee\	.	4ccc\	.
8C\L	.	.	8c\L	.	.	.	.	.	.	.	.	.	.	.	.	.	8c/L	.	8g\L	.	.	.	.	.	.	.	.	.
8E\	.	.	8e\	.	4r	.	4r	.	4r	.	4r	.	4r	.	4r	.	8c/	.	8g\	.	4r	.	4r	.	4r	.	4r	.
8C\J	.	.	8c\J	.	.	.	.	.	.	.	.	.	.	.	.	.	8c/J	.	8g\J	.	.	.	.	.	.	.	.	.
=80	=80	=80	=80	=80	=80	=80	=80	=80	=80	=80	=80	=80	=80	=80	=80	=80	=80	=80	=80	=80	=80	=80	=80	=80	=80	=80	=80	=80
!LO:TX:t=P:problem:mixed beam	!	!	!LO:TX:t=P:problem:mixed beam	!	!	!	!	!	!	!	!	!	!	!	!	!	!	!	!	!	!	!	!	!	!	!	!	!
8GG/L	.	5 3	8G/L	.	8b/|\L	.	8dd|\L	.	(4G\	u-	(4B\	u-	2g\	u-	(4dd\	u-	4g\	.	4g\	.	4b\	.	4dd\	.	4bb\	.	4ddd\	.
8G\	.	.	8g\	.	(8b\	.	(8dd\	.	.	.	.	.	.	.	.	.	.	.	.	.	.	.	.	.	.	.	.	.
8GG/	.	6 4	8G/	.	8cc\)	.	8ee\)	.	4B\)	.	4c\)	.	.	.	4ee\)	.	4r	.	4r	.	4cc\	.	4ee\	.	4ccc\	.	4eee\	.
8G\	.	.	8g\	.	(8cc\	.	(8ee\	.	.	.	.	.	.	.	.	.	.	.	.	.	.	.	.	.	.	.	.	.
8GG/	.	7 5	8G/	.	8dd\)	.	8ff\)	.	4G\	-nus	4d\	-nus	4g\	-nus	4ff\	-nus	4g\	.	4g\	.	4dd\	.	4ff\	.	4ddd\	.	4fffn\	.
!	!	!	!	!	!	!	!	!	!	!	!	!	!	!	!	!	!	!	!LO:LB:g=original	!	!	!	!	!	!	!	!	!
8G\J	.	.	8g\J	.	8dd|\J	.	8ff|\J	.	.	.	.	.	.	.	.	.	.	.	.	.	.	.	.	.	.	.	.	.
!	!	!	!	!	!	!	!	!	!	!	!	!	!	!	!	!	!	!	!	!	!	!	!LO:LB:g=original	!	!	!	!	!
=81	=81	=81	=81	=81	=81	=81	=81	=81	=81	=81	=81	=81	=81	=81	=81	=81	=81	=81	=81	=81	=81	=81	=81	=81	=81	=81	=81	=81
.	.	.	.	.	.	.	16qqgg/	.	.	.	.	.	.	.	.	.	.	.	.	.	.	.	.	.	.	.	.	.
4C/	.	7 5	4G/ 4g	.	4dd\	.	8ff\L	.	4c\	de-	4d\	De-	4g\	De-	4ff\	De-	4c/	.	4g\	.	4dd\	.	4ff\	.	4ddd\	.	4fff\	.
.	.	.	.	.	.	.	16ee\L	.	.	.	.	.	.	.	.	.	.	.	.	.	.	.	.	.	.	.	.	.
.	.	.	.	.	.	.	16ff\JJ	.	.	.	.	.	.	.	.	.	.	.	.	.	.	.	.	.	.	.	.	.
4CC/	.	5 3	4G/ 4g	.	4cc\	.	4ee\	.	4C/	-us	4c\	-us	4g\	-us	4ee\	-us	4c/	.	4g\	.	4cc\	.	4ee\	.	4ccc\	.	4eee\	.
4r	.	.	4r	.	4r	.	4r	.	4r	.	4r	.	4r	.	4r	.	4r	.	4r	.	4r	.	4r	.	4r	.	4r	.
!	!	!	!	!	!	!	!LO:LB:g=original	!	!	!	!	!	!	!	!	!	!	!	!	!	!	!	!	!	!	!	!	!
!	!	!	!	!	!	!	!	!	!	!	!	!	!	!	!	!	!LO:LB:g=original	!	!	!	!	!	!	!	!	!	!	!
=82	=82	=82	=82	=82	=82	=82	=82	=82	=82	=82	=82	=82	=82	=82	=82	=82	=82	=82	=82	=82	=82	=82	=82	=82	=82	=82	=82	=82
!	!LO:DY:a	!	!	!	!	!LO:DY:a	!	!	!	!	!	!	!	!	!	!	!LO:TX:a:t=2	!	!LO:TX:a:t=2	!	!LO:TX:a:t=2	!	!LO:TX:a:t=2	!	!LO:TX:a:t=2	!	!LO:TX:a:t=2	!
8GG/L	p	.	4G/	p	8d|/L	p	8b|\L	p	2BB/	u-	2G/	u-	(4d\	u-	(4b\	u-	2.r	.	2.r	.	2.r	.	2.r	.	2.r	.	2.r	.
8G\	.	.	.	.	(8d/	.	(8b\	.	.	.	.	.	.	.	.	.	.	.	.	.	.	.	.	.	.	.	.	.
8GG/	.	.	4G/	.	8e/)	.	8cc\)	.	.	.	.	.	4e\)	.	4cc\)	.	.	.	.	.	.	.	.	.	.	.	.	.
8G\	.	.	.	.	(8e/	.	(8cc\	.	.	.	.	.	.	.	.	.	.	.	.	.	.	.	.	.	.	.	.	.
8GG/	.	.	4G/	.	8f/)	.	8dd\)	.	4GG/	-nus	4G/	-nus	4f\	-nus	4dd\	-nus	.	.	.	.	.	.	.	.	.	.	.	.
8G\J	.	.	.	.	8f|/J	.	8dd|\J	.	.	.	.	.	.	.	.	.	.	.	.	.	.	.	.	.	.	.	.	.
!	!	!	!LO:LB:g=original	!	!	!	!	!	!	!	!	!	!	!	!	!	!	!	!	!	!	!	!	!	!	!	!	!
!	!	!	!	!	!LO:LB:g=original	!	!	!	!	!	!	!	!	!	!	!	!	!	!	!	!	!	!	!	!	!	!	!
!	!	!	!	!	!	!	!	!	!LO:LB:g=original	!	!	!	!	!	!	!	!	!	!	!	!	!	!	!	!	!	!	!
!	!	!	!	!	!	!	!	!	!	!	!LO:LB:g=original	!	!	!	!	!	!	!	!	!	!	!	!	!	!	!	!	!
=83	=83	=83	=83	=83	=83	=83	=83	=83	=83	=83	=83	=83	=83	=83	=83	=83	=83	=83	=83	=83	=83	=83	=83	=83	=83	=83	=83	=83
.	.	.	.	.	.	.	16qqee/	.	.	.	.	.	.	.	.	.	.	.	.	.	.	.	.	.	.	.	.	.
4c\	.	.	4G/	.	4f/	.	8dd\L	.	4C/	De-	4G/	De-	4f\	De-	4dd\	De-	2.r	.	2.r	.	2.r	.	2.r	.	2.r	.	2.r	.
.	.	.	.	.	.	.	(16cc\L	.	.	.	.	.	.	.	.	.	.	.	.	.	.	.	.	.	.	.	.	.
.	.	.	.	.	.	.	16dd\JJ)	.	.	.	.	.	.	.	.	.	.	.	.	.	.	.	.	.	.	.	.	.
4C/	.	.	4G'/	.	4e/	.	4cc\	.	4C/	-us	4G/	-us	4e\	-us	4cc\	-us	.	.	.	.	.	.	.	.	.	.	.	.
4r	.	.	4r	.	4r	.	4r	.	4r	.	4r	.	4r	.	4r	.	.	.	.	.	.	.	.	.	.	.	.	.
=84	=84	=84	=84	=84	=84	=84	=84	=84	=84	=84	=84	=84	=84	=84	=84	=84	=84	=84	=84	=84	=84	=84	=84	=84	=84	=84	=84	=84
*tremolo	*	*	*tremolo	*	*	*	*	*	*	*	*	*	*	*	*	*	*	*	*	*	*	*	*	*	*	*	*	*
8F\L	f	5 3	8cc\L	f	16ff\LL	f	16aa\LL	f	2.F\	mi-	2.c\	mi-	2.a\	mi-	2.ff\	mi-	4.f\	.	4.a\	.	2.ff\	f	2.aa\	.	2.ff\	.	2.aa\	.
.	.	.	.	.	16ff\	.	16aa\	.	.	.	.	.	.	.	.	.	.	.	.	.	.	.	.	.	.	.	.	.
8F\	.	.	8cc\	.	16ff\	.	16aa\	.	.	.	.	.	.	.	.	.	.	.	.	.	.	.	.	.	.	.	.	.
.	.	.	.	.	16ff\JJ	.	16aa\JJ	.	.	.	.	.	.	.	.	.	.	.	.	.	.	.	.	.	.	.	.	.
*	*	*	*	*	*tremolo	*	*tremolo	*	*	*	*	*	*	*	*	*	*	*	*	*	*	*	*	*	*	*	*	*
8F\	.	.	8cc\	.	16ff\LL	.	16aa\LL	.	.	.	.	.	.	.	.	.	.	.	.	.	.	.	.	.	.	.	.	.
.	.	.	.	.	16ff\	.	16aa\	.	.	.	.	.	.	.	.	.	.	.	.	.	.	.	.	.	.	.	.	.
8F\	.	.	8cc\	.	16ff\	.	16aa\	.	.	.	.	.	.	.	.	.	8f\L	.	8a\L	.	.	.	.	.	.	.	.	.
.	.	.	.	.	16ff\	.	16aa\	.	.	.	.	.	.	.	.	.	.	.	.	.	.	.	.	.	.	.	.	.
8F\	.	.	8cc\	.	16ff\	.	16aa\	.	.	.	.	.	.	.	.	.	8f\	.	8a\	.	.	.	.	.	.	.	.	.
.	.	.	.	.	16ff\	.	16aa\	.	.	.	.	.	.	.	.	.	.	.	.	.	.	.	.	.	.	.	.	.
8F\J	.	.	8cc\J	.	16ff\	.	16aa\	.	.	.	.	.	.	.	.	.	8f\J	.	8a\J	.	.	.	.	.	.	.	.	.
.	.	.	.	.	16ff\JJ	.	16aa\JJ	.	.	.	.	.	.	.	.	.	.	.	.	.	.	.	.	.	.	.	.	.
*Xtremolo	*	*	*Xtremolo	*	*	*	*	*	*	*	*	*	*	*	*	*	*	*	*	*	*	*	*	*	*	*	*	*
=85	=85	=85	=85	=85	=85	=85	=85	=85	=85	=85	=85	=85	=85	=85	=85	=85	=85	=85	=85	=85	=85	=85	=85	=85	=85	=85	=85	=85
8E\L	.	.	8c\L	.	16ee\LL	.	16gg\LL	.	4C/	-se-	4c\	-se-	4g\	-se-	4ee\	-se-	4c/	.	4g\	.	4ee\	.	4gg\	.	4ee\	.	4gg\	.
.	.	.	.	.	16ee\	.	16gg\	.	.	.	.	.	.	.	.	.	.	.	.	.	.	.	.	.	.	.	.	.
8E\	.	.	8c\J	.	16ee\	.	16gg\	.	.	.	.	.	.	.	.	.	.	.	.	.	.	.	.	.	.	.	.	.
.	.	.	.	.	16ee\JJ	.	16gg\JJ	.	.	.	.	.	.	.	.	.	.	.	.	.	.	.	.	.	.	.	.	.
*	*	*	*tremolo	*	*	*	*	*	*	*	*	*	*	*	*	*	*	*	*	*	*	*	*	*	*	*	*	*
8BB\	.	.	8g\L	.	16ff\LL	.	16bb\LL	.	4r	.	4r	.	4r	.	4r	.	4r	.	4r	.	4b\	.	4ff\	.	4ff\	.	4bb\	.
.	.	.	.	.	16ff\	.	16bb\	.	.	.	.	.	.	.	.	.	.	.	.	.	.	.	.	.	.	.	.	.
8BB\	.	.	8g\	.	16ff\	.	16bb\	.	.	.	.	.	.	.	.	.	.	.	.	.	.	.	.	.	.	.	.	.
.	.	.	.	.	16ff\JJ	.	16bb\JJ	.	.	.	.	.	.	.	.	.	.	.	.	.	.	.	.	.	.	.	.	.
8C\	.	.	8g\	.	16ee\LL	.	16ccc\LL	.	4r	.	4r	.	4r	.	4r	.	4c/	.	4g\	.	4cc\	.	4ee\	.	4ee\	.	4ccc\	.
.	.	.	.	.	16ee\	.	16ccc\	.	.	.	.	.	.	.	.	.	.	.	.	.	.	.	.	.	.	.	.	.
8C\J	.	.	8g\J	.	16ee\	.	16ccc\	.	.	.	.	.	.	.	.	.	.	.	.	.	.	.	.	.	.	.	.	.
.	.	.	.	.	16ee\JJ	.	16ccc\JJ	.	.	.	.	.	.	.	.	.	.	.	.	.	.	.	.	.	.	.	.	.
*	*	*	*	*	*	*	*Xtremolo	*	*	*	*	*	*	*	*	*	*	*	*	*	*	*	*	*	*	*	*	*
*	*	*	*	*	*Xtremolo	*	*	*	*	*	*	*	*	*	*	*	*	*	*	*	*	*	*	*	*	*	*	*
*	*	*	*Xtremolo	*	*	*	*	*	*	*	*	*	*	*	*	*	*	*	*	*	*	*	*	*	*	*	*	*
!LO:LB:g=original	!	!	!	!	!	!	!	!	!	!	!	!	!	!	!	!	!	!	!	!	!	!	!	!	!	!	!	!
=86	=86	=86	=86	=86	=86	=86	=86	=86	=86	=86	=86	=86	=86	=86	=86	=86	=86	=86	=86	=86	=86	=86	=86	=86	=86	=86	=86	=86
!	!	!	!	!	!LO:TX:t=P:problem:klamra łukowa	!	!LO:TX:t=P:problem:klamra łukowa	!	!	!	!	!	!	!	!	!	!	!	!	!	!	!	!	!	!	!	!	!
.	.	.	.	.	16qqgg/	.	16qqbb/	.	.	.	.	.	.	.	.	.	.	.	.	.	.	.	.	.	16qqgg/	.	16qqbb/	.
8F\L	.	.	8a\L	.	12ff\L	.	12aa\L	.	8C/	-re-	8f\	-re-	8a\	-re-	8aa\	-re-	4f\	.	4a\	.	4f/	.	4dd\	.	12ff\L	.	12aa\L	.
.	.	.	.	.	12ee\	.	12gg\	.	.	.	.	.	.	.	.	.	.	.	.	.	.	.	.	.	12ee\	.	12gg\	.
8F\	.	.	8a\J	.	.	.	.	.	8F\	-re	16e\LL	-re	8a\	-re	16gg\LL	-re	.	.	.	.	.	.	.	.	.	.	.	.
.	.	.	.	.	12dd\J	.	12ff\J	.	.	.	.	.	.	.	.	.	.	.	.	.	.	.	.	.	12dd\J	.	12ff\J	.
.	.	.	.	.	.	.	.	.	.	.	16d\JJ	.	.	.	16ff\JJ	.	.	.	.	.	.	.	.	.	.	.	.	.
8G\	.	4	4g\	.	4cc\	.	4ee\	.	(4G\	no-	(4c\	no-	2g\	no-	4ee\	no-	4g\	.	4g\	.	4e/	.	4cc\	.	4cc\	.	4ee\	.
8G\	.	3	.	.	.	.	.	.	.	.	.	.	.	.	.	.	.	.	.	.	.	.	.	.	.	.	.	.
8GG/	.	.	4g\	.	4f/	.	4dd\	.	4GG/)	.	4B\)	.	.	.	4dd\	.	4g\	.	4g\	.	4f/	.	4b\	.	4ff\	.	4bb\	.
8GG/J	.	.	.	.	.	.	.	.	.	.	.	.	.	.	.	.	.	.	.	.	.	.	.	.	.	.	.	.
=87	=87	=87	=87	=87	=87	=87	=87	=87	=87	=87	=87	=87	=87	=87	=87	=87	=87	=87	=87	=87	=87	=87	=87	=87	=87	=87	=87	=87
4C/	.	.	4g\	.	4e/	.	4cc\	.	4C/	-bis	4c\	-bis	4g\	-bis	4cc\	-bis	4c/	.	4g\	.	4e/	.	4cc\	.	4ee\	.	4ccc\	.
4r	.	.	4r	.	4r	.	4r	.	4r	.	4r	.	4r	.	4r	.	4r	.	4r	.	4r	.	4r	.	4r	.	4r	.
4r	.	.	4r	.	4e/	.	4g/	p	4r	.	4r	.	4r	.	4r	.	4r	.	4r	.	4r	.	4r	.	4r	.	4g/	.
*	*	*	*	*	*Xtremolo	*	*	*	*	*	*	*	*	*	*	*	*	*	*	*	*	*	*	*	*	*	*	*
=88	=88	=88	=88	=88	=88	=88	=88	=88	=88	=88	=88	=88	=88	=88	=88	=88	=88	=88	=88	=88	=88	=88	=88	=88	=88	=88	=88	=88
!	!	!	!	!	!	!	!LO:TX:b:t=Dolce	!	!	!	!	!	!	!	!	!	!	!	!	!	!	!	!	!	!	!	!LO:TX:a:t=dolce	!
!LO:TX:a:t=Pedal	!	!	!	!	!LO:TX:a:t=Dol	!	!LO:TX:t=P:problem:mixed beam	!	!LO:TX:a:t=4	!	!LO:TX:a:t=4	!	!	!	!LO:TX:a:t=4	!	!	!LO:DY:a	!	!LO:DY:a	!LO:TX:a:t=4	!	!LO:TX:a:t=4	!	!LO:TX:a:t=7	!	!LO:TX:t=P:problem:mixed beam	!
2.CC/ [2.C	pp	.	(2.A/	pp	2.f/	p	(8a/L	.	2.r	.	2.r	.	2.r	.	2.r	.	[2.C/	pp	[2.c/	pp	2.r	.	2.r	.	2.r	.	(8a/L	pp
.	.	.	.	.	.	.	8g#X/	.	.	.	.	.	.	.	.	.	.	.	.	.	.	.	.	.	.	.	8g#X/	.
.	.	.	.	.	.	.	8a/	.	.	.	.	.	.	.	.	.	.	.	.	.	.	.	.	.	.	.	8a/	.
.	.	.	.	.	.	.	8ff\	.	.	.	.	.	.	.	.	.	.	.	.	.	.	.	.	.	.	.	8ff\	.
.	.	.	.	.	.	.	8dd\)	.	.	.	.	.	.	.	.	.	.	.	.	.	.	.	.	.	.	.	8dd\	.
.	.	.	.	.	.	.	8b\J	.	.	.	.	.	.	.	.	.	.	.	.	.	.	.	.	.	.	.	8b\J)	.
!	!	!	!	!	!	!	!	!	!	!	!	!	!	!	!	!	!	!	!	!	!	!	!	!	!	!	!LO:LB:g=original	!
=89	=89	=89	=89	=89	=89	=89	=89	=89	=89	=89	=89	=89	=89	=89	=89	=89	=89	=89	=89	=89	=89	=89	=89	=89	=89	=89	=89	=89
2.CC/ 2.C_	.	.	2.G/	.	2.e/	.	8cc\L	.	2.r	.	2.r	.	2.r	.	2.r	.	(2.C/]	.	2.c/_	.	2.r	.	2.r	.	2.r	.	8cc\L	.
.	.	.	.	.	.	.	(8b\	.	.	.	.	.	.	.	.	.	.	.	.	.	.	.	.	.	.	.	(8b\	.
.	.	.	.	.	.	.	8cc\	.	.	.	.	.	.	.	.	.	.	.	.	.	.	.	.	.	.	.	8cc\	.
.	.	.	.	.	.	.	8ee\	.	.	.	.	.	.	.	.	.	.	.	.	.	.	.	.	.	.	.	8ee\	.
.	.	.	.	.	.	.	8gg\)	.	.	.	.	.	.	.	.	.	.	.	.	.	.	.	.	.	.	.	8gg\)	.
.	.	.	.	.	.	.	8ee\J	.	.	.	.	.	.	.	.	.	.	.	.	.	.	.	.	.	.	.	8ee\J	.
=90	=90	=90	=90	=90	=90	=90	=90	=90	=90	=90	=90	=90	=90	=90	=90	=90	=90	=90	=90	=90	=90	=90	=90	=90	=90	=90	=90	=90
2.CC/ 2.C]	.	.	2.G/ 2.f	.	2.d/ 2.b	.	(8ff\L	.	2.r	.	2.r	.	2.r	.	2.r	.	(2.C/)	.	2.c/_	.	2.r	.	2.r	.	2.r	.	8ff\L	.
.	.	.	.	.	.	.	8ee\	.	.	.	.	.	.	.	.	.	.	.	.	.	.	.	.	.	.	.	(8ee\	.
.	.	.	.	.	.	.	8ff\	.	.	.	.	.	.	.	.	.	.	.	.	.	.	.	.	.	.	.	8ff\	.
.	.	.	.	.	.	.	8dd\	.	.	.	.	.	.	.	.	.	.	.	.	.	.	.	.	.	.	.	8dd\	.
.	.	.	.	.	.	.	8cc\)	.	.	.	.	.	.	.	.	.	.	.	.	.	.	.	.	.	.	.	8cc\)	.
.	.	.	.	.	.	.	8b\J	.	.	.	.	.	.	.	.	.	.	.	.	.	.	.	.	.	.	.	8b\J	.
!	!	!	!	!	!	!	!LO:LB:g=original	!	!	!	!	!	!	!	!	!	!	!	!	!	!	!	!	!	!	!	!	!
=91	=91	=91	=91	=91	=91	=91	=91	=91	=91	=91	=91	=91	=91	=91	=91	=91	=91	=91	=91	=91	=91	=91	=91	=91	=91	=91	=91	=91
4CC/ 4C	.	.	4G/) 4e	.	4e/ 4cc	.	4cc\	.	2.r	.	2.r	.	2.r	.	2.r	.	4C/)	.	4c/]	.	2.r	.	2.r	.	2.r	.	4cc\	.
4C/	.	.	4r	.	4r	.	4r	.	.	.	.	.	.	.	.	.	4r	.	4r	.	.	.	.	.	.	.	4r	.
4C/	.	.	4r	.	4e/	.	4gn/	.	.	.	.	.	.	.	.	.	4r	.	4r	.	.	.	.	.	.	.	4g/	.
=92	=92	=92	=92	=92	=92	=92	=92	=92	=92	=92	=92	=92	=92	=92	=92	=92	=92	=92	=92	=92	=92	=92	=92	=92	=92	=92	=92	=92
!	!	!	!	!	!	!	!	!	!	!	!	!	!	!	!	!	!	!	!	!	!	!	!	!LO:DY:a	!	!	!LO:TX:t=P:problem:mixed beam	!
2.CC/ [2.C	.	.	(2.A/	.	2.f/	.	8a\L	.	2.C/	mi-	2.c\	mi-	2.f\	mi-	2.a\	mi-	(2.C/	.	[2.c/	.	(2.g/	pp	2.g/	p	2.r	.	8a/L	.
.	.	.	.	.	.	.	(8g#X\	.	.	.	.	.	.	.	.	.	.	.	.	.	.	.	.	.	.	.	(8g#X/	.
.	.	.	.	.	.	.	8a\	.	.	.	.	.	.	.	.	.	.	.	.	.	.	.	.	.	.	.	8a/	.
.	.	.	.	.	.	.	8ff\	.	.	.	.	.	.	.	.	.	.	.	.	.	.	.	.	.	.	.	8ff\	.
.	.	.	.	.	.	.	8dd\)	.	.	.	.	.	.	.	.	.	.	.	.	.	.	.	.	.	.	.	8dd\	.
.	.	.	.	.	.	.	8b\J	.	.	.	.	.	.	.	.	.	.	.	.	.	.	.	.	.	.	.	8b\J)	.
!	!	!	!	!	!	!	!	!	!	!	!	!	!	!	!	!	!	!	!	!	!LO:LB:g=original	!	!	!	!	!	!	!
=93	=93	=93	=93	=93	=93	=93	=93	=93	=93	=93	=93	=93	=93	=93	=93	=93	=93	=93	=93	=93	=93	=93	=93	=93	=93	=93	=93	=93
2.CC/ 2.C_	.	.	2.G/	.	2.e/	.	8cc\L	.	2.C/	-se-	2.c\	-se-	2.e\	-se-	2.g\	-se-	(2.C/)	.	2.c/_	.	2.g/	.	2.g/	.	2.r	.	8cc\L	.
.	.	.	.	.	.	.	(8b\	.	.	.	.	.	.	.	.	.	.	.	.	.	.	.	.	.	.	.	(8b\	.
.	.	.	.	.	.	.	8cc\	.	.	.	.	.	.	.	.	.	.	.	.	.	.	.	.	.	.	.	8cc\	.
.	.	.	.	.	.	.	8ee\	.	.	.	.	.	.	.	.	.	.	.	.	.	.	.	.	.	.	.	8ee\	.
.	.	.	.	.	.	.	8gg\)	.	.	.	.	.	.	.	.	.	.	.	.	.	.	.	.	.	.	.	8gg\)	.
.	.	.	.	.	.	.	8ee\J	.	.	.	.	.	.	.	.	.	.	.	.	.	.	.	.	.	.	.	8ee\J	.
!	!	!	!	!	!	!	!	!	!	!	!	!	!	!	!LO:LB:g=original	!	!	!	!	!	!	!	!	!	!	!	!	!
=94	=94	=94	=94	=94	=94	=94	=94	=94	=94	=94	=94	=94	=94	=94	=94	=94	=94	=94	=94	=94	=94	=94	=94	=94	=94	=94	=94	=94
2.CC/ 2.C]	.	.	2.G/ 2.f	.	2.d/ 2.b	.	(8ff\L	.	2.G\	-re-	2.f\	-re-	2.d\	-re-	2.b\	-re-	(2.C/)	.	2.c/_	.	2.g/	.	2.g/	.	2.r	.	8ff\L	.
.	.	.	.	.	.	.	8ee\	.	.	.	.	.	.	.	.	.	.	.	.	.	.	.	.	.	.	.	(8ee\	.
.	.	.	.	.	.	.	8ff\	.	.	.	.	.	.	.	.	.	.	.	.	.	.	.	.	.	.	.	8ff\	.
.	.	.	.	.	.	.	8dd\	.	.	.	.	.	.	.	.	.	.	.	.	.	.	.	.	.	.	.	8dd\	.
.	.	.	.	.	.	.	8cc\)	.	.	.	.	.	.	.	.	.	.	.	.	.	.	.	.	.	.	.	8cc\	.
.	.	.	.	.	.	.	8b\J	.	.	.	.	.	.	.	.	.	.	.	.	.	.	.	.	.	.	.	8b\J)	.
=95	=95	=95	=95	=95	=95	=95	=95	=95	=95	=95	=95	=95	=95	=95	=95	=95	=95	=95	=95	=95	=95	=95	=95	=95	=95	=95	=95	=95
!LO:TX:b:t=Org&colon;	!	!	!	!	!	!	!	!	!	!	!	!	!	!	!	!	!	!	!	!	!	!	!	!	!	!	!	!
!LO:TX:t=P:problem:mixed beam	!	!	!	!	!	!	!	!	!	!	!	!	!	!	!	!	!	!	!	!	!	!	!	!	!	!	!	!
8C/L	.	5 3	4G/) 4e	ff	4e/ 4cc	f	4cc\	.	4C/	-re	4g\	-re	4e\	-re	4cc\	-re	4C/)	.	4c/]	.	4g/)	f	4g/	.	4r	.	4cc\	f
8c\	.	.	.	.	.	.	.	.	.	.	.	.	.	.	.	.	.	.	.	.	.	.	.	.	.	.	.	.
!	!	!	!	!	!	!	!LO:TX:a:t=|	!	!	!	!	!	!	!	!	!	!	!LO:DY:a	!	!	!	!	!	!LO:DY:a	!	!	!	!
8G\	.	.	4C\ 4G 4e 4cc	.	4ee\	.	4cc\ 4ccc	f	4r	.	4r	.	4r	.	4r	.	4f\	f	4a\	f	4cc|\	.	4ee\	f	4ee\	f	4ccc\	.
8c\	.	.	.	.	.	.	.	.	.	.	.	.	.	.	.	.	.	.	.	.	.	.	.	.	.	.	.	.
!	!	!	!	!	!	!	!LO:TX:a:t=|	!	!	!	!	!	!	!	!	!	!	!	!	!	!	!	!	!	!	!	!	!
8E\	.	.	4C\ 4G 4e 4cc	.	4ee\	.	4cc\ 4ccc	.	4c\	no-	4c\	no-	4g\	no-	4ee\	no-	4f\	.	4a\	.	4cc|\	.	4ee\	.	4ee\	.	4ccc\	.
8G\J	.	.	.	.	.	.	.	.	.	.	.	.	.	.	.	.	.	.	.	.	.	.	.	.	.	.	.	.
=96	=96	=96	=96	=96	=96	=96	=96	=96	=96	=96	=96	=96	=96	=96	=96	=96	=96	=96	=96	=96	=96	=96	=96	=96	=96	=96	=96	=96
!	!	!	!	!	!	!	!LO:TX:a:t=|	!	!	!	!	!	!	!	!	!	!	!	!	!	!	!	!	!	!	!	!	!
2C/	.	.	2C\ 2G 2e 2cc	.	2ee\	.	2cc\ 2ccc	.	2C/	-bis	2c\	-bis	2g\	-bis.	2ee\	-bis	2f\	.	2a\	.	2cc|\	.	2ee\	.	2ee\	.	2ccc\	.
!	!	!	!	!	!	!	!LO:TX:b:t=V&colon;S&colon;	!	!	!	!	!	!	!	!	!	!	!	!	!	!	!	!	!	!	!	!	!
4r	.	.	4r	.	4r	.	4r	.	4r	.	4r	.	4r	.	4r	.	4r	.	4r	.	4r	.	4r	.	4r	.	4r	.
==	==	==	==	==	==	==	==	==	==	==	==	==	==	==	==	==	==	==	==	==	==	==	==	==	==	==	==	==
*-	*-	*-	*-	*-	*-	*-	*-	*-	*-	*-	*-	*-	*-	*-	*-	*-	*-	*-	*-	*-	*-	*-	*-	*-	*-	*-	*-	*-
!!!system-decoration: [(s1,s2,s3,s4)][(s5,s6)][(s7,s8,s9,s10)][(s11,s12,s13)]s14
!!!RDF**kern: | = vertical stroke
!!!ENC: Berenika Jozajtis
!!!END: 2020-10-16
!!!ENC: Urszula Świątek
!!!END: 2022-06-21
!!!YEC: Copyright 2022 Narodowy Instytut Fryderyka Chopina (https://polishscores.org)
!!!YEM: License CC-BY-4.0 (https://creativecommons.org/licenses/by/4.0)
